; First-layer patch — machine-flat s=w flow=1.00 — baby-step Z then SAVE
FORGE_PRINT_START_ENV BED=65.00 EXTRUDER=214.00 SOAK=5.00
; ForgeOS calibration pattern — first_layer_patch
; Printer: Elegoo Neptune 4 Pro (OpenNeptune / ForgeOS)
M83
G90
G92 E0
SET_PRESSURE_ADVANCE ADVANCE=0.0300
FORGE_FLAT_SURFACE_MODE ROLE=first
M221 S100
M106 S0
FORGE_PURGE
G0 Z0.280 F600
G0 X72.500 Y72.500 F9000
G1 X152.500 Y72.500 E4.09765 F1800
G92 E0
G0 X152.500 Y72.940 F9000
G1 X72.500 Y72.940 E4.09765 F1800
G92 E0
G0 X72.500 Y73.380 F9000
G1 X152.500 Y73.380 E4.09765 F1800
G92 E0
G0 X152.500 Y73.820 F9000
G1 X72.500 Y73.820 E4.09765 F1800
G92 E0
G0 X72.500 Y74.260 F9000
G1 X152.500 Y74.260 E4.09765 F1800
G92 E0
G0 X152.500 Y74.700 F9000
G1 X72.500 Y74.700 E4.09765 F1800
G92 E0
G0 X72.500 Y75.140 F9000
G1 X152.500 Y75.140 E4.09765 F1800
G92 E0
G0 X152.500 Y75.580 F9000
G1 X72.500 Y75.580 E4.09765 F1800
G92 E0
G0 X72.500 Y76.020 F9000
G1 X152.500 Y76.020 E4.09765 F1800
G92 E0
G0 X152.500 Y76.460 F9000
G1 X72.500 Y76.460 E4.09765 F1800
G92 E0
G0 X72.500 Y76.900 F9000
G1 X152.500 Y76.900 E4.09765 F1800
G92 E0
G0 X152.500 Y77.340 F9000
G1 X72.500 Y77.340 E4.09765 F1800
G92 E0
G0 X72.500 Y77.780 F9000
G1 X152.500 Y77.780 E4.09765 F1800
G92 E0
G0 X152.500 Y78.220 F9000
G1 X72.500 Y78.220 E4.09765 F1800
G92 E0
G0 X72.500 Y78.660 F9000
G1 X152.500 Y78.660 E4.09765 F1800
G92 E0
G0 X152.500 Y79.100 F9000
G1 X72.500 Y79.100 E4.09765 F1800
G92 E0
G0 X72.500 Y79.540 F9000
G1 X152.500 Y79.540 E4.09765 F1800
G92 E0
G0 X152.500 Y79.980 F9000
G1 X72.500 Y79.980 E4.09765 F1800
G92 E0
G0 X72.500 Y80.420 F9000
G1 X152.500 Y80.420 E4.09765 F1800
G92 E0
G0 X152.500 Y80.860 F9000
G1 X72.500 Y80.860 E4.09765 F1800
G92 E0
G0 X72.500 Y81.300 F9000
G1 X152.500 Y81.300 E4.09765 F1800
G92 E0
G0 X152.500 Y81.740 F9000
G1 X72.500 Y81.740 E4.09765 F1800
G92 E0
G0 X72.500 Y82.180 F9000
G1 X152.500 Y82.180 E4.09765 F1800
G92 E0
G0 X152.500 Y82.620 F9000
G1 X72.500 Y82.620 E4.09765 F1800
G92 E0
G0 X72.500 Y83.060 F9000
G1 X152.500 Y83.060 E4.09765 F1800
G92 E0
G0 X152.500 Y83.500 F9000
G1 X72.500 Y83.500 E4.09765 F1800
G92 E0
G0 X72.500 Y83.940 F9000
G1 X152.500 Y83.940 E4.09765 F1800
G92 E0
G0 X152.500 Y84.380 F9000
G1 X72.500 Y84.380 E4.09765 F1800
G92 E0
G0 X72.500 Y84.820 F9000
G1 X152.500 Y84.820 E4.09765 F1800
G92 E0
G0 X152.500 Y85.260 F9000
G1 X72.500 Y85.260 E4.09765 F1800
G92 E0
G0 X72.500 Y85.700 F9000
G1 X152.500 Y85.700 E4.09765 F1800
G92 E0
G0 X152.500 Y86.140 F9000
G1 X72.500 Y86.140 E4.09765 F1800
G92 E0
G0 X72.500 Y86.580 F9000
G1 X152.500 Y86.580 E4.09765 F1800
G92 E0
G0 X152.500 Y87.020 F9000
G1 X72.500 Y87.020 E4.09765 F1800
G92 E0
G0 X72.500 Y87.460 F9000
G1 X152.500 Y87.460 E4.09765 F1800
G92 E0
G0 X152.500 Y87.900 F9000
G1 X72.500 Y87.900 E4.09765 F1800
G92 E0
G0 X72.500 Y88.340 F9000
G1 X152.500 Y88.340 E4.09765 F1800
G92 E0
G0 X152.500 Y88.780 F9000
G1 X72.500 Y88.780 E4.09765 F1800
G92 E0
G0 X72.500 Y89.220 F9000
G1 X152.500 Y89.220 E4.09765 F1800
G92 E0
G0 X152.500 Y89.660 F9000
G1 X72.500 Y89.660 E4.09765 F1800
G92 E0
G0 X72.500 Y90.100 F9000
G1 X152.500 Y90.100 E4.09765 F1800
G92 E0
G0 X152.500 Y90.540 F9000
G1 X72.500 Y90.540 E4.09765 F1800
G92 E0
G0 X72.500 Y90.980 F9000
G1 X152.500 Y90.980 E4.09765 F1800
G92 E0
G0 X152.500 Y91.420 F9000
G1 X72.500 Y91.420 E4.09765 F1800
G92 E0
G0 X72.500 Y91.860 F9000
G1 X152.500 Y91.860 E4.09765 F1800
G92 E0
G0 X152.500 Y92.300 F9000
G1 X72.500 Y92.300 E4.09765 F1800
G92 E0
G0 X72.500 Y92.740 F9000
G1 X152.500 Y92.740 E4.09765 F1800
G92 E0
G0 X152.500 Y93.180 F9000
G1 X72.500 Y93.180 E4.09765 F1800
G92 E0
G0 X72.500 Y93.620 F9000
G1 X152.500 Y93.620 E4.09765 F1800
G92 E0
G0 X152.500 Y94.060 F9000
G1 X72.500 Y94.060 E4.09765 F1800
G92 E0
G0 X72.500 Y94.500 F9000
G1 X152.500 Y94.500 E4.09765 F1800
G92 E0
G0 X152.500 Y94.940 F9000
G1 X72.500 Y94.940 E4.09765 F1800
G92 E0
G0 X72.500 Y95.380 F9000
G1 X152.500 Y95.380 E4.09765 F1800
G92 E0
G0 X152.500 Y95.820 F9000
G1 X72.500 Y95.820 E4.09765 F1800
G92 E0
G0 X72.500 Y96.260 F9000
G1 X152.500 Y96.260 E4.09765 F1800
G92 E0
G0 X152.500 Y96.700 F9000
G1 X72.500 Y96.700 E4.09765 F1800
G92 E0
G0 X72.500 Y97.140 F9000
G1 X152.500 Y97.140 E4.09765 F1800
G92 E0
G0 X152.500 Y97.580 F9000
G1 X72.500 Y97.580 E4.09765 F1800
G92 E0
G0 X72.500 Y98.020 F9000
G1 X152.500 Y98.020 E4.09765 F1800
G92 E0
G0 X152.500 Y98.460 F9000
G1 X72.500 Y98.460 E4.09765 F1800
G92 E0
G0 X72.500 Y98.900 F9000
G1 X152.500 Y98.900 E4.09765 F1800
G92 E0
G0 X152.500 Y99.340 F9000
G1 X72.500 Y99.340 E4.09765 F1800
G92 E0
G0 X72.500 Y99.780 F9000
G1 X152.500 Y99.780 E4.09765 F1800
G92 E0
G0 X152.500 Y100.220 F9000
G1 X72.500 Y100.220 E4.09765 F1800
G92 E0
G0 X72.500 Y100.660 F9000
G1 X152.500 Y100.660 E4.09765 F1800
G92 E0
G0 X152.500 Y101.100 F9000
G1 X72.500 Y101.100 E4.09765 F1800
G92 E0
G0 X72.500 Y101.540 F9000
G1 X152.500 Y101.540 E4.09765 F1800
G92 E0
G0 X152.500 Y101.980 F9000
G1 X72.500 Y101.980 E4.09765 F1800
G92 E0
G0 X72.500 Y102.420 F9000
G1 X152.500 Y102.420 E4.09765 F1800
G92 E0
G0 X152.500 Y102.860 F9000
G1 X72.500 Y102.860 E4.09765 F1800
G92 E0
G0 X72.500 Y103.300 F9000
G1 X152.500 Y103.300 E4.09765 F1800
G92 E0
G0 X152.500 Y103.740 F9000
G1 X72.500 Y103.740 E4.09765 F1800
G92 E0
G0 X72.500 Y104.180 F9000
G1 X152.500 Y104.180 E4.09765 F1800
G92 E0
G0 X152.500 Y104.620 F9000
G1 X72.500 Y104.620 E4.09765 F1800
G92 E0
G0 X72.500 Y105.060 F9000
G1 X152.500 Y105.060 E4.09765 F1800
G92 E0
G0 X152.500 Y105.500 F9000
G1 X72.500 Y105.500 E4.09765 F1800
G92 E0
G0 X72.500 Y105.940 F9000
G1 X152.500 Y105.940 E4.09765 F1800
G92 E0
G0 X152.500 Y106.380 F9000
G1 X72.500 Y106.380 E4.09765 F1800
G92 E0
G0 X72.500 Y106.820 F9000
G1 X152.500 Y106.820 E4.09765 F1800
G92 E0
G0 X152.500 Y107.260 F9000
G1 X72.500 Y107.260 E4.09765 F1800
G92 E0
G0 X72.500 Y107.700 F9000
G1 X152.500 Y107.700 E4.09765 F1800
G92 E0
G0 X152.500 Y108.140 F9000
G1 X72.500 Y108.140 E4.09765 F1800
G92 E0
G0 X72.500 Y108.580 F9000
G1 X152.500 Y108.580 E4.09765 F1800
G92 E0
G0 X152.500 Y109.020 F9000
G1 X72.500 Y109.020 E4.09765 F1800
G92 E0
G0 X72.500 Y109.460 F9000
G1 X152.500 Y109.460 E4.09765 F1800
G92 E0
G0 X152.500 Y109.900 F9000
G1 X72.500 Y109.900 E4.09765 F1800
G92 E0
G0 X72.500 Y110.340 F9000
G1 X152.500 Y110.340 E4.09765 F1800
G92 E0
G0 X152.500 Y110.780 F9000
G1 X72.500 Y110.780 E4.09765 F1800
G92 E0
G0 X72.500 Y111.220 F9000
G1 X152.500 Y111.220 E4.09765 F1800
G92 E0
G0 X152.500 Y111.660 F9000
G1 X72.500 Y111.660 E4.09765 F1800
G92 E0
G0 X72.500 Y112.100 F9000
G1 X152.500 Y112.100 E4.09765 F1800
G92 E0
G0 X152.500 Y112.540 F9000
G1 X72.500 Y112.540 E4.09765 F1800
G92 E0
G0 X72.500 Y112.980 F9000
G1 X152.500 Y112.980 E4.09765 F1800
G92 E0
G0 X152.500 Y113.420 F9000
G1 X72.500 Y113.420 E4.09765 F1800
G92 E0
G0 X72.500 Y113.860 F9000
G1 X152.500 Y113.860 E4.09765 F1800
G92 E0
G0 X152.500 Y114.300 F9000
G1 X72.500 Y114.300 E4.09765 F1800
G92 E0
G0 X72.500 Y114.740 F9000
G1 X152.500 Y114.740 E4.09765 F1800
G92 E0
G0 X152.500 Y115.180 F9000
G1 X72.500 Y115.180 E4.09765 F1800
G92 E0
G0 X72.500 Y115.620 F9000
G1 X152.500 Y115.620 E4.09765 F1800
G92 E0
G0 X152.500 Y116.060 F9000
G1 X72.500 Y116.060 E4.09765 F1800
G92 E0
G0 X72.500 Y116.500 F9000
G1 X152.500 Y116.500 E4.09765 F1800
G92 E0
G0 X152.500 Y116.940 F9000
G1 X72.500 Y116.940 E4.09765 F1800
G92 E0
G0 X72.500 Y117.380 F9000
G1 X152.500 Y117.380 E4.09765 F1800
G92 E0
G0 X152.500 Y117.820 F9000
G1 X72.500 Y117.820 E4.09765 F1800
G92 E0
G0 X72.500 Y118.260 F9000
G1 X152.500 Y118.260 E4.09765 F1800
G92 E0
G0 X152.500 Y118.700 F9000
G1 X72.500 Y118.700 E4.09765 F1800
G92 E0
G0 X72.500 Y119.140 F9000
G1 X152.500 Y119.140 E4.09765 F1800
G92 E0
G0 X152.500 Y119.580 F9000
G1 X72.500 Y119.580 E4.09765 F1800
G92 E0
G0 X72.500 Y120.020 F9000
G1 X152.500 Y120.020 E4.09765 F1800
G92 E0
G0 X152.500 Y120.460 F9000
G1 X72.500 Y120.460 E4.09765 F1800
G92 E0
G0 X72.500 Y120.900 F9000
G1 X152.500 Y120.900 E4.09765 F1800
G92 E0
G0 X152.500 Y121.340 F9000
G1 X72.500 Y121.340 E4.09765 F1800
G92 E0
G0 X72.500 Y121.780 F9000
G1 X152.500 Y121.780 E4.09765 F1800
G92 E0
G0 X152.500 Y122.220 F9000
G1 X72.500 Y122.220 E4.09765 F1800
G92 E0
G0 X72.500 Y122.660 F9000
G1 X152.500 Y122.660 E4.09765 F1800
G92 E0
G0 X152.500 Y123.100 F9000
G1 X72.500 Y123.100 E4.09765 F1800
G92 E0
G0 X72.500 Y123.540 F9000
G1 X152.500 Y123.540 E4.09765 F1800
G92 E0
G0 X152.500 Y123.980 F9000
G1 X72.500 Y123.980 E4.09765 F1800
G92 E0
G0 X72.500 Y124.420 F9000
G1 X152.500 Y124.420 E4.09765 F1800
G92 E0
G0 X152.500 Y124.860 F9000
G1 X72.500 Y124.860 E4.09765 F1800
G92 E0
G0 X72.500 Y125.300 F9000
G1 X152.500 Y125.300 E4.09765 F1800
G92 E0
G0 X152.500 Y125.740 F9000
G1 X72.500 Y125.740 E4.09765 F1800
G92 E0
G0 X72.500 Y126.180 F9000
G1 X152.500 Y126.180 E4.09765 F1800
G92 E0
G0 X152.500 Y126.620 F9000
G1 X72.500 Y126.620 E4.09765 F1800
G92 E0
G0 X72.500 Y127.060 F9000
G1 X152.500 Y127.060 E4.09765 F1800
G92 E0
G0 X152.500 Y127.500 F9000
G1 X72.500 Y127.500 E4.09765 F1800
G92 E0
G0 X72.500 Y127.940 F9000
G1 X152.500 Y127.940 E4.09765 F1800
G92 E0
G0 X152.500 Y128.380 F9000
G1 X72.500 Y128.380 E4.09765 F1800
G92 E0
G0 X72.500 Y128.820 F9000
G1 X152.500 Y128.820 E4.09765 F1800
G92 E0
G0 X152.500 Y129.260 F9000
G1 X72.500 Y129.260 E4.09765 F1800
G92 E0
G0 X72.500 Y129.700 F9000
G1 X152.500 Y129.700 E4.09765 F1800
G92 E0
G0 X152.500 Y130.140 F9000
G1 X72.500 Y130.140 E4.09765 F1800
G92 E0
G0 X72.500 Y130.580 F9000
G1 X152.500 Y130.580 E4.09765 F1800
G92 E0
G0 X152.500 Y131.020 F9000
G1 X72.500 Y131.020 E4.09765 F1800
G92 E0
G0 X72.500 Y131.460 F9000
G1 X152.500 Y131.460 E4.09765 F1800
G92 E0
G0 X152.500 Y131.900 F9000
G1 X72.500 Y131.900 E4.09765 F1800
G92 E0
G0 X72.500 Y132.340 F9000
G1 X152.500 Y132.340 E4.09765 F1800
G92 E0
G0 X152.500 Y132.780 F9000
G1 X72.500 Y132.780 E4.09765 F1800
G92 E0
G0 X72.500 Y133.220 F9000
G1 X152.500 Y133.220 E4.09765 F1800
G92 E0
G0 X152.500 Y133.660 F9000
G1 X72.500 Y133.660 E4.09765 F1800
G92 E0
G0 X72.500 Y134.100 F9000
G1 X152.500 Y134.100 E4.09765 F1800
G92 E0
G0 X152.500 Y134.540 F9000
G1 X72.500 Y134.540 E4.09765 F1800
G92 E0
G0 X72.500 Y134.980 F9000
G1 X152.500 Y134.980 E4.09765 F1800
G92 E0
G0 X152.500 Y135.420 F9000
G1 X72.500 Y135.420 E4.09765 F1800
G92 E0
G0 X72.500 Y135.860 F9000
G1 X152.500 Y135.860 E4.09765 F1800
G92 E0
G0 X152.500 Y136.300 F9000
G1 X72.500 Y136.300 E4.09765 F1800
G92 E0
G0 X72.500 Y136.740 F9000
G1 X152.500 Y136.740 E4.09765 F1800
G92 E0
G0 X152.500 Y137.180 F9000
G1 X72.500 Y137.180 E4.09765 F1800
G92 E0
G0 X72.500 Y137.620 F9000
G1 X152.500 Y137.620 E4.09765 F1800
G92 E0
G0 X152.500 Y138.060 F9000
G1 X72.500 Y138.060 E4.09765 F1800
G92 E0
G0 X72.500 Y138.500 F9000
G1 X152.500 Y138.500 E4.09765 F1800
G92 E0
G0 X152.500 Y138.940 F9000
G1 X72.500 Y138.940 E4.09765 F1800
G92 E0
G0 X72.500 Y139.380 F9000
G1 X152.500 Y139.380 E4.09765 F1800
G92 E0
G0 X152.500 Y139.820 F9000
G1 X72.500 Y139.820 E4.09765 F1800
G92 E0
G0 X72.500 Y140.260 F9000
G1 X152.500 Y140.260 E4.09765 F1800
G92 E0
G0 X152.500 Y140.700 F9000
G1 X72.500 Y140.700 E4.09765 F1800
G92 E0
G0 X72.500 Y141.140 F9000
G1 X152.500 Y141.140 E4.09765 F1800
G92 E0
G0 X152.500 Y141.580 F9000
G1 X72.500 Y141.580 E4.09765 F1800
G92 E0
G0 X72.500 Y142.020 F9000
G1 X152.500 Y142.020 E4.09765 F1800
G92 E0
G0 X152.500 Y142.460 F9000
G1 X72.500 Y142.460 E4.09765 F1800
G92 E0
G0 X72.500 Y142.900 F9000
G1 X152.500 Y142.900 E4.09765 F1800
G92 E0
G0 X152.500 Y143.340 F9000
G1 X72.500 Y143.340 E4.09765 F1800
G92 E0
G0 X72.500 Y143.780 F9000
G1 X152.500 Y143.780 E4.09765 F1800
G92 E0
G0 X152.500 Y144.220 F9000
G1 X72.500 Y144.220 E4.09765 F1800
G92 E0
G0 X72.500 Y144.660 F9000
G1 X152.500 Y144.660 E4.09765 F1800
G92 E0
G0 X152.500 Y145.100 F9000
G1 X72.500 Y145.100 E4.09765 F1800
G92 E0
G0 X72.500 Y145.540 F9000
G1 X152.500 Y145.540 E4.09765 F1800
G92 E0
G0 X152.500 Y145.980 F9000
G1 X72.500 Y145.980 E4.09765 F1800
G92 E0
G0 X72.500 Y146.420 F9000
G1 X152.500 Y146.420 E4.09765 F1800
G92 E0
G0 X152.500 Y146.860 F9000
G1 X72.500 Y146.860 E4.09765 F1800
G92 E0
G0 X72.500 Y147.300 F9000
G1 X152.500 Y147.300 E4.09765 F1800
G92 E0
G0 X152.500 Y147.740 F9000
G1 X72.500 Y147.740 E4.09765 F1800
G92 E0
G0 X72.500 Y148.180 F9000
G1 X152.500 Y148.180 E4.09765 F1800
G92 E0
G0 X152.500 Y148.620 F9000
G1 X72.500 Y148.620 E4.09765 F1800
G92 E0
G0 X72.500 Y149.060 F9000
G1 X152.500 Y149.060 E4.09765 F1800
G92 E0
G0 X152.500 Y149.500 F9000
G1 X72.500 Y149.500 E4.09765 F1800
G92 E0
G0 X72.500 Y149.940 F9000
G1 X152.500 Y149.940 E4.09765 F1800
G92 E0
G0 X152.500 Y150.380 F9000
G1 X72.500 Y150.380 E4.09765 F1800
G92 E0
G0 X72.500 Y150.820 F9000
G1 X152.500 Y150.820 E4.09765 F1800
G92 E0
G0 X152.500 Y151.260 F9000
G1 X72.500 Y151.260 E4.09765 F1800
G92 E0
G0 X72.500 Y151.700 F9000
G1 X152.500 Y151.700 E4.09765 F1800
G92 E0
RESPOND MSG="Inspect squish; FORGE_BABY_UP/DOWN; Z_OFFSET_APPLY_PROBE then SAVE_CONFIG"
FORGE_PRINT_END_ENV
