; ForgeOS MACHINE-FLAT COUPON — ZERO IRONING
; Monotonic solids | spacing=line_w | flow=1.0 | Q-limited speeds
; first_layer: w=0.440 s=0.440 h=0.280 f=1.000 v=30.0 Q=3.70 nail_ok=True ridge≈0.0000
; solid: w=0.440 s=0.440 h=0.200 f=1.000 v=120.0 Q=10.56 nail_ok=True ridge≈0.0000
; top_solid: w=0.440 s=0.440 h=0.200 f=1.000 v=80.0 Q=7.04 nail_ok=True ridge≈0.0000

FORGE_PRINT_START_ENV BED=65.00 EXTRUDER=214.00 SOAK=3.00
M83
G90
G92 E0
FORGE_FLAT_SET LINE_W=0.440 FLOW=1.000 PA=0.0320 Q_MAX=12.0
FORGE_PURGE X=15 Y=12 LEN=100 E=12 Z=0.30

; === FIRST LAYER (adhesion, flat volume) ===
FORGE_FLAT_SURFACE_MODE ROLE=first
SET_VELOCITY_LIMIT VELOCITY=50.0 ACCEL=2500 SQUARE_CORNER_VELOCITY=3.0
SET_PRESSURE_ADVANCE ADVANCE=0.0320 SMOOTH_TIME=0.030
M106 S0
M221 S100
G0 Z0.280 F600
; wall
G1 X86.1000 Y87.5000 E-0.09200 F4800
G1 E-1.150 F2400
G0 Z0.530 F600
; travel+unretract
G0 X87.7200 Y87.7200 F15000
G0 Z0.280 F600
G1 E1.150 F1800
G1 X137.2800 Y87.7200 E2.53849 F1800
G1 X137.2800 Y137.2800 E2.53849 F1800
G1 X87.7200 Y137.2800 E2.53849 F1800
G1 X87.7200 Y87.7200 E2.53849 F1800
; wall
G1 X87.7200 Y89.1200 E-0.09200 F4800
G1 E-1.150 F2400
G0 Z0.530 F600
; travel+unretract
G0 X88.1600 Y88.1600 F15000
G0 Z0.280 F600
G1 E1.150 F1800
G1 X136.8400 Y88.1600 E2.49342 F1800
G1 X136.8400 Y136.8400 E2.49342 F1800
G1 X88.1600 Y136.8400 E2.49342 F1800
G1 X88.1600 Y88.1600 E2.49342 F1800
; row
G1 X88.1600 Y89.5600 E-0.09200 F4800
G1 E-1.150 F2400
G0 Z0.530 F600
; travel+unretract
G0 X88.6000 Y88.6000 F15000
G0 Z0.280 F600
G1 E1.150 F1800
G1 X136.4000 Y88.6000 E2.44835 F1800
; row
G1 X135.0000 Y88.6000 E-0.09200 F4800
G1 E-1.150 F2400
G0 Z0.530 F600
; travel+unretract
G0 X88.6000 Y89.0400 F15000
G0 Z0.280 F600
G1 E1.150 F1800
G1 X136.4000 Y89.0400 E2.44835 F1800
; row
G1 X135.0000 Y89.0400 E-0.09200 F4800
G1 E-1.150 F2400
G0 Z0.530 F600
; travel+unretract
G0 X88.6000 Y89.4800 F15000
G0 Z0.280 F600
G1 E1.150 F1800
G1 X136.4000 Y89.4800 E2.44835 F1800
; row
G1 X135.0000 Y89.4800 E-0.09200 F4800
G1 E-1.150 F2400
G0 Z0.530 F600
; travel+unretract
G0 X88.6000 Y89.9200 F15000
G0 Z0.280 F600
G1 E1.150 F1800
G1 X136.4000 Y89.9200 E2.44835 F1800
; row
G1 X135.0000 Y89.9200 E-0.09200 F4800
G1 E-1.150 F2400
G0 Z0.530 F600
; travel+unretract
G0 X88.6000 Y90.3600 F15000
G0 Z0.280 F600
G1 E1.150 F1800
G1 X136.4000 Y90.3600 E2.44835 F1800
; row
G1 X135.0000 Y90.3600 E-0.09200 F4800
G1 E-1.150 F2400
G0 Z0.530 F600
; travel+unretract
G0 X88.6000 Y90.8000 F15000
G0 Z0.280 F600
G1 E1.150 F1800
G1 X136.4000 Y90.8000 E2.44835 F1800
; row
G1 X135.0000 Y90.8000 E-0.09200 F4800
G1 E-1.150 F2400
G0 Z0.530 F600
; travel+unretract
G0 X88.6000 Y91.2400 F15000
G0 Z0.280 F600
G1 E1.150 F1800
G1 X136.4000 Y91.2400 E2.44835 F1800
; row
G1 X135.0000 Y91.2400 E-0.09200 F4800
G1 E-1.150 F2400
G0 Z0.530 F600
; travel+unretract
G0 X88.6000 Y91.6800 F15000
G0 Z0.280 F600
G1 E1.150 F1800
G1 X136.4000 Y91.6800 E2.44835 F1800
; row
G1 X135.0000 Y91.6800 E-0.09200 F4800
G1 E-1.150 F2400
G0 Z0.530 F600
; travel+unretract
G0 X88.6000 Y92.1200 F15000
G0 Z0.280 F600
G1 E1.150 F1800
G1 X136.4000 Y92.1200 E2.44835 F1800
; row
G1 X135.0000 Y92.1200 E-0.09200 F4800
G1 E-1.150 F2400
G0 Z0.530 F600
; travel+unretract
G0 X88.6000 Y92.5600 F15000
G0 Z0.280 F600
G1 E1.150 F1800
G1 X136.4000 Y92.5600 E2.44835 F1800
; row
G1 X135.0000 Y92.5600 E-0.09200 F4800
G1 E-1.150 F2400
G0 Z0.530 F600
; travel+unretract
G0 X88.6000 Y93.0000 F15000
G0 Z0.280 F600
G1 E1.150 F1800
G1 X136.4000 Y93.0000 E2.44835 F1800
; row
G1 X135.0000 Y93.0000 E-0.09200 F4800
G1 E-1.150 F2400
G0 Z0.530 F600
; travel+unretract
G0 X88.6000 Y93.4400 F15000
G0 Z0.280 F600
G1 E1.150 F1800
G1 X136.4000 Y93.4400 E2.44835 F1800
; row
G1 X135.0000 Y93.4400 E-0.09200 F4800
G1 E-1.150 F2400
G0 Z0.530 F600
; travel+unretract
G0 X88.6000 Y93.8800 F15000
G0 Z0.280 F600
G1 E1.150 F1800
G1 X136.4000 Y93.8800 E2.44835 F1800
; row
G1 X135.0000 Y93.8800 E-0.09200 F4800
G1 E-1.150 F2400
G0 Z0.530 F600
; travel+unretract
G0 X88.6000 Y94.3200 F15000
G0 Z0.280 F600
G1 E1.150 F1800
G1 X136.4000 Y94.3200 E2.44835 F1800
; row
G1 X135.0000 Y94.3200 E-0.09200 F4800
G1 E-1.150 F2400
G0 Z0.530 F600
; travel+unretract
G0 X88.6000 Y94.7600 F15000
G0 Z0.280 F600
G1 E1.150 F1800
G1 X136.4000 Y94.7600 E2.44835 F1800
; row
G1 X135.0000 Y94.7600 E-0.09200 F4800
G1 E-1.150 F2400
G0 Z0.530 F600
; travel+unretract
G0 X88.6000 Y95.2000 F15000
G0 Z0.280 F600
G1 E1.150 F1800
G1 X136.4000 Y95.2000 E2.44835 F1800
; row
G1 X135.0000 Y95.2000 E-0.09200 F4800
G1 E-1.150 F2400
G0 Z0.530 F600
; travel+unretract
G0 X88.6000 Y95.6400 F15000
G0 Z0.280 F600
G1 E1.150 F1800
G1 X136.4000 Y95.6400 E2.44835 F1800
; row
G1 X135.0000 Y95.6400 E-0.09200 F4800
G1 E-1.150 F2400
G0 Z0.530 F600
; travel+unretract
G0 X88.6000 Y96.0800 F15000
G0 Z0.280 F600
G1 E1.150 F1800
G1 X136.4000 Y96.0800 E2.44835 F1800
; row
G1 X135.0000 Y96.0800 E-0.09200 F4800
G1 E-1.150 F2400
G0 Z0.530 F600
; travel+unretract
G0 X88.6000 Y96.5200 F15000
G0 Z0.280 F600
G1 E1.150 F1800
G1 X136.4000 Y96.5200 E2.44835 F1800
; row
G1 X135.0000 Y96.5200 E-0.09200 F4800
G1 E-1.150 F2400
G0 Z0.530 F600
; travel+unretract
G0 X88.6000 Y96.9600 F15000
G0 Z0.280 F600
G1 E1.150 F1800
G1 X136.4000 Y96.9600 E2.44835 F1800
; row
G1 X135.0000 Y96.9600 E-0.09200 F4800
G1 E-1.150 F2400
G0 Z0.530 F600
; travel+unretract
G0 X88.6000 Y97.4000 F15000
G0 Z0.280 F600
G1 E1.150 F1800
G1 X136.4000 Y97.4000 E2.44835 F1800
; row
G1 X135.0000 Y97.4000 E-0.09200 F4800
G1 E-1.150 F2400
G0 Z0.530 F600
; travel+unretract
G0 X88.6000 Y97.8400 F15000
G0 Z0.280 F600
G1 E1.150 F1800
G1 X136.4000 Y97.8400 E2.44835 F1800
; row
G1 X135.0000 Y97.8400 E-0.09200 F4800
G1 E-1.150 F2400
G0 Z0.530 F600
; travel+unretract
G0 X88.6000 Y98.2800 F15000
G0 Z0.280 F600
G1 E1.150 F1800
G1 X136.4000 Y98.2800 E2.44835 F1800
; row
G1 X135.0000 Y98.2800 E-0.09200 F4800
G1 E-1.150 F2400
G0 Z0.530 F600
; travel+unretract
G0 X88.6000 Y98.7200 F15000
G0 Z0.280 F600
G1 E1.150 F1800
G1 X136.4000 Y98.7200 E2.44835 F1800
; row
G1 X135.0000 Y98.7200 E-0.09200 F4800
G1 E-1.150 F2400
G0 Z0.530 F600
; travel+unretract
G0 X88.6000 Y99.1600 F15000
G0 Z0.280 F600
G1 E1.150 F1800
G1 X136.4000 Y99.1600 E2.44835 F1800
; row
G1 X135.0000 Y99.1600 E-0.09200 F4800
G1 E-1.150 F2400
G0 Z0.530 F600
; travel+unretract
G0 X88.6000 Y99.6000 F15000
G0 Z0.280 F600
G1 E1.150 F1800
G1 X136.4000 Y99.6000 E2.44835 F1800
; row
G1 X135.0000 Y99.6000 E-0.09200 F4800
G1 E-1.150 F2400
G0 Z0.530 F600
; travel+unretract
G0 X88.6000 Y100.0400 F15000
G0 Z0.280 F600
G1 E1.150 F1800
G1 X136.4000 Y100.0400 E2.44835 F1800
; row
G1 X135.0000 Y100.0400 E-0.09200 F4800
G1 E-1.150 F2400
G0 Z0.530 F600
; travel+unretract
G0 X88.6000 Y100.4800 F15000
G0 Z0.280 F600
G1 E1.150 F1800
G1 X136.4000 Y100.4800 E2.44835 F1800
; row
G1 X135.0000 Y100.4800 E-0.09200 F4800
G1 E-1.150 F2400
G0 Z0.530 F600
; travel+unretract
G0 X88.6000 Y100.9200 F15000
G0 Z0.280 F600
G1 E1.150 F1800
G1 X136.4000 Y100.9200 E2.44835 F1800
; row
G1 X135.0000 Y100.9200 E-0.09200 F4800
G1 E-1.150 F2400
G0 Z0.530 F600
; travel+unretract
G0 X88.6000 Y101.3600 F15000
G0 Z0.280 F600
G1 E1.150 F1800
G1 X136.4000 Y101.3600 E2.44835 F1800
; row
G1 X135.0000 Y101.3600 E-0.09200 F4800
G1 E-1.150 F2400
G0 Z0.530 F600
; travel+unretract
G0 X88.6000 Y101.8000 F15000
G0 Z0.280 F600
G1 E1.150 F1800
G1 X136.4000 Y101.8000 E2.44835 F1800
; row
G1 X135.0000 Y101.8000 E-0.09200 F4800
G1 E-1.150 F2400
G0 Z0.530 F600
; travel+unretract
G0 X88.6000 Y102.2400 F15000
G0 Z0.280 F600
G1 E1.150 F1800
G1 X136.4000 Y102.2400 E2.44835 F1800
; row
G1 X135.0000 Y102.2400 E-0.09200 F4800
G1 E-1.150 F2400
G0 Z0.530 F600
; travel+unretract
G0 X88.6000 Y102.6800 F15000
G0 Z0.280 F600
G1 E1.150 F1800
G1 X136.4000 Y102.6800 E2.44835 F1800
; row
G1 X135.0000 Y102.6800 E-0.09200 F4800
G1 E-1.150 F2400
G0 Z0.530 F600
; travel+unretract
G0 X88.6000 Y103.1200 F15000
G0 Z0.280 F600
G1 E1.150 F1800
G1 X136.4000 Y103.1200 E2.44835 F1800
; row
G1 X135.0000 Y103.1200 E-0.09200 F4800
G1 E-1.150 F2400
G0 Z0.530 F600
; travel+unretract
G0 X88.6000 Y103.5600 F15000
G0 Z0.280 F600
G1 E1.150 F1800
G1 X136.4000 Y103.5600 E2.44835 F1800
; row
G1 X135.0000 Y103.5600 E-0.09200 F4800
G1 E-1.150 F2400
G0 Z0.530 F600
; travel+unretract
G0 X88.6000 Y104.0000 F15000
G0 Z0.280 F600
G1 E1.150 F1800
G1 X136.4000 Y104.0000 E2.44835 F1800
; row
G1 X135.0000 Y104.0000 E-0.09200 F4800
G1 E-1.150 F2400
G0 Z0.530 F600
; travel+unretract
G0 X88.6000 Y104.4400 F15000
G0 Z0.280 F600
G1 E1.150 F1800
G1 X136.4000 Y104.4400 E2.44835 F1800
; row
G1 X135.0000 Y104.4400 E-0.09200 F4800
G1 E-1.150 F2400
G0 Z0.530 F600
; travel+unretract
G0 X88.6000 Y104.8800 F15000
G0 Z0.280 F600
G1 E1.150 F1800
G1 X136.4000 Y104.8800 E2.44835 F1800
; row
G1 X135.0000 Y104.8800 E-0.09200 F4800
G1 E-1.150 F2400
G0 Z0.530 F600
; travel+unretract
G0 X88.6000 Y105.3200 F15000
G0 Z0.280 F600
G1 E1.150 F1800
G1 X136.4000 Y105.3200 E2.44835 F1800
; row
G1 X135.0000 Y105.3200 E-0.09200 F4800
G1 E-1.150 F2400
G0 Z0.530 F600
; travel+unretract
G0 X88.6000 Y105.7600 F15000
G0 Z0.280 F600
G1 E1.150 F1800
G1 X136.4000 Y105.7600 E2.44835 F1800
; row
G1 X135.0000 Y105.7600 E-0.09200 F4800
G1 E-1.150 F2400
G0 Z0.530 F600
; travel+unretract
G0 X88.6000 Y106.2000 F15000
G0 Z0.280 F600
G1 E1.150 F1800
G1 X136.4000 Y106.2000 E2.44835 F1800
; row
G1 X135.0000 Y106.2000 E-0.09200 F4800
G1 E-1.150 F2400
G0 Z0.530 F600
; travel+unretract
G0 X88.6000 Y106.6400 F15000
G0 Z0.280 F600
G1 E1.150 F1800
G1 X136.4000 Y106.6400 E2.44835 F1800
; row
G1 X135.0000 Y106.6400 E-0.09200 F4800
G1 E-1.150 F2400
G0 Z0.530 F600
; travel+unretract
G0 X88.6000 Y107.0800 F15000
G0 Z0.280 F600
G1 E1.150 F1800
G1 X136.4000 Y107.0800 E2.44835 F1800
; row
G1 X135.0000 Y107.0800 E-0.09200 F4800
G1 E-1.150 F2400
G0 Z0.530 F600
; travel+unretract
G0 X88.6000 Y107.5200 F15000
G0 Z0.280 F600
G1 E1.150 F1800
G1 X136.4000 Y107.5200 E2.44835 F1800
; row
G1 X135.0000 Y107.5200 E-0.09200 F4800
G1 E-1.150 F2400
G0 Z0.530 F600
; travel+unretract
G0 X88.6000 Y107.9600 F15000
G0 Z0.280 F600
G1 E1.150 F1800
G1 X136.4000 Y107.9600 E2.44835 F1800
; row
G1 X135.0000 Y107.9600 E-0.09200 F4800
G1 E-1.150 F2400
G0 Z0.530 F600
; travel+unretract
G0 X88.6000 Y108.4000 F15000
G0 Z0.280 F600
G1 E1.150 F1800
G1 X136.4000 Y108.4000 E2.44835 F1800
; row
G1 X135.0000 Y108.4000 E-0.09200 F4800
G1 E-1.150 F2400
G0 Z0.530 F600
; travel+unretract
G0 X88.6000 Y108.8400 F15000
G0 Z0.280 F600
G1 E1.150 F1800
G1 X136.4000 Y108.8400 E2.44835 F1800
; row
G1 X135.0000 Y108.8400 E-0.09200 F4800
G1 E-1.150 F2400
G0 Z0.530 F600
; travel+unretract
G0 X88.6000 Y109.2800 F15000
G0 Z0.280 F600
G1 E1.150 F1800
G1 X136.4000 Y109.2800 E2.44835 F1800
; row
G1 X135.0000 Y109.2800 E-0.09200 F4800
G1 E-1.150 F2400
G0 Z0.530 F600
; travel+unretract
G0 X88.6000 Y109.7200 F15000
G0 Z0.280 F600
G1 E1.150 F1800
G1 X136.4000 Y109.7200 E2.44835 F1800
; row
G1 X135.0000 Y109.7200 E-0.09200 F4800
G1 E-1.150 F2400
G0 Z0.530 F600
; travel+unretract
G0 X88.6000 Y110.1600 F15000
G0 Z0.280 F600
G1 E1.150 F1800
G1 X136.4000 Y110.1600 E2.44835 F1800
; row
G1 X135.0000 Y110.1600 E-0.09200 F4800
G1 E-1.150 F2400
G0 Z0.530 F600
; travel+unretract
G0 X88.6000 Y110.6000 F15000
G0 Z0.280 F600
G1 E1.150 F1800
G1 X136.4000 Y110.6000 E2.44835 F1800
; row
G1 X135.0000 Y110.6000 E-0.09200 F4800
G1 E-1.150 F2400
G0 Z0.530 F600
; travel+unretract
G0 X88.6000 Y111.0400 F15000
G0 Z0.280 F600
G1 E1.150 F1800
G1 X136.4000 Y111.0400 E2.44835 F1800
; row
G1 X135.0000 Y111.0400 E-0.09200 F4800
G1 E-1.150 F2400
G0 Z0.530 F600
; travel+unretract
G0 X88.6000 Y111.4800 F15000
G0 Z0.280 F600
G1 E1.150 F1800
G1 X136.4000 Y111.4800 E2.44835 F1800
; row
G1 X135.0000 Y111.4800 E-0.09200 F4800
G1 E-1.150 F2400
G0 Z0.530 F600
; travel+unretract
G0 X88.6000 Y111.9200 F15000
G0 Z0.280 F600
G1 E1.150 F1800
G1 X136.4000 Y111.9200 E2.44835 F1800
; row
G1 X135.0000 Y111.9200 E-0.09200 F4800
G1 E-1.150 F2400
G0 Z0.530 F600
; travel+unretract
G0 X88.6000 Y112.3600 F15000
G0 Z0.280 F600
G1 E1.150 F1800
G1 X136.4000 Y112.3600 E2.44835 F1800
; row
G1 X135.0000 Y112.3600 E-0.09200 F4800
G1 E-1.150 F2400
G0 Z0.530 F600
; travel+unretract
G0 X88.6000 Y112.8000 F15000
G0 Z0.280 F600
G1 E1.150 F1800
G1 X136.4000 Y112.8000 E2.44835 F1800
; row
G1 X135.0000 Y112.8000 E-0.09200 F4800
G1 E-1.150 F2400
G0 Z0.530 F600
; travel+unretract
G0 X88.6000 Y113.2400 F15000
G0 Z0.280 F600
G1 E1.150 F1800
G1 X136.4000 Y113.2400 E2.44835 F1800
; row
G1 X135.0000 Y113.2400 E-0.09200 F4800
G1 E-1.150 F2400
G0 Z0.530 F600
; travel+unretract
G0 X88.6000 Y113.6800 F15000
G0 Z0.280 F600
G1 E1.150 F1800
G1 X136.4000 Y113.6800 E2.44835 F1800
; row
G1 X135.0000 Y113.6800 E-0.09200 F4800
G1 E-1.150 F2400
G0 Z0.530 F600
; travel+unretract
G0 X88.6000 Y114.1200 F15000
G0 Z0.280 F600
G1 E1.150 F1800
G1 X136.4000 Y114.1200 E2.44835 F1800
; row
G1 X135.0000 Y114.1200 E-0.09200 F4800
G1 E-1.150 F2400
G0 Z0.530 F600
; travel+unretract
G0 X88.6000 Y114.5600 F15000
G0 Z0.280 F600
G1 E1.150 F1800
G1 X136.4000 Y114.5600 E2.44835 F1800
; row
G1 X135.0000 Y114.5600 E-0.09200 F4800
G1 E-1.150 F2400
G0 Z0.530 F600
; travel+unretract
G0 X88.6000 Y115.0000 F15000
G0 Z0.280 F600
G1 E1.150 F1800
G1 X136.4000 Y115.0000 E2.44835 F1800
; row
G1 X135.0000 Y115.0000 E-0.09200 F4800
G1 E-1.150 F2400
G0 Z0.530 F600
; travel+unretract
G0 X88.6000 Y115.4400 F15000
G0 Z0.280 F600
G1 E1.150 F1800
G1 X136.4000 Y115.4400 E2.44835 F1800
; row
G1 X135.0000 Y115.4400 E-0.09200 F4800
G1 E-1.150 F2400
G0 Z0.530 F600
; travel+unretract
G0 X88.6000 Y115.8800 F15000
G0 Z0.280 F600
G1 E1.150 F1800
G1 X136.4000 Y115.8800 E2.44835 F1800
; row
G1 X135.0000 Y115.8800 E-0.09200 F4800
G1 E-1.150 F2400
G0 Z0.530 F600
; travel+unretract
G0 X88.6000 Y116.3200 F15000
G0 Z0.280 F600
G1 E1.150 F1800
G1 X136.4000 Y116.3200 E2.44835 F1800
; row
G1 X135.0000 Y116.3200 E-0.09200 F4800
G1 E-1.150 F2400
G0 Z0.530 F600
; travel+unretract
G0 X88.6000 Y116.7600 F15000
G0 Z0.280 F600
G1 E1.150 F1800
G1 X136.4000 Y116.7600 E2.44835 F1800
; row
G1 X135.0000 Y116.7600 E-0.09200 F4800
G1 E-1.150 F2400
G0 Z0.530 F600
; travel+unretract
G0 X88.6000 Y117.2000 F15000
G0 Z0.280 F600
G1 E1.150 F1800
G1 X136.4000 Y117.2000 E2.44835 F1800
; row
G1 X135.0000 Y117.2000 E-0.09200 F4800
G1 E-1.150 F2400
G0 Z0.530 F600
; travel+unretract
G0 X88.6000 Y117.6400 F15000
G0 Z0.280 F600
G1 E1.150 F1800
G1 X136.4000 Y117.6400 E2.44835 F1800
; row
G1 X135.0000 Y117.6400 E-0.09200 F4800
G1 E-1.150 F2400
G0 Z0.530 F600
; travel+unretract
G0 X88.6000 Y118.0800 F15000
G0 Z0.280 F600
G1 E1.150 F1800
G1 X136.4000 Y118.0800 E2.44835 F1800
; row
G1 X135.0000 Y118.0800 E-0.09200 F4800
G1 E-1.150 F2400
G0 Z0.530 F600
; travel+unretract
G0 X88.6000 Y118.5200 F15000
G0 Z0.280 F600
G1 E1.150 F1800
G1 X136.4000 Y118.5200 E2.44835 F1800
; row
G1 X135.0000 Y118.5200 E-0.09200 F4800
G1 E-1.150 F2400
G0 Z0.530 F600
; travel+unretract
G0 X88.6000 Y118.9600 F15000
G0 Z0.280 F600
G1 E1.150 F1800
G1 X136.4000 Y118.9600 E2.44835 F1800
; row
G1 X135.0000 Y118.9600 E-0.09200 F4800
G1 E-1.150 F2400
G0 Z0.530 F600
; travel+unretract
G0 X88.6000 Y119.4000 F15000
G0 Z0.280 F600
G1 E1.150 F1800
G1 X136.4000 Y119.4000 E2.44835 F1800
; row
G1 X135.0000 Y119.4000 E-0.09200 F4800
G1 E-1.150 F2400
G0 Z0.530 F600
; travel+unretract
G0 X88.6000 Y119.8400 F15000
G0 Z0.280 F600
G1 E1.150 F1800
G1 X136.4000 Y119.8400 E2.44835 F1800
; row
G1 X135.0000 Y119.8400 E-0.09200 F4800
G1 E-1.150 F2400
G0 Z0.530 F600
; travel+unretract
G0 X88.6000 Y120.2800 F15000
G0 Z0.280 F600
G1 E1.150 F1800
G1 X136.4000 Y120.2800 E2.44835 F1800
; row
G1 X135.0000 Y120.2800 E-0.09200 F4800
G1 E-1.150 F2400
G0 Z0.530 F600
; travel+unretract
G0 X88.6000 Y120.7200 F15000
G0 Z0.280 F600
G1 E1.150 F1800
G1 X136.4000 Y120.7200 E2.44835 F1800
; row
G1 X135.0000 Y120.7200 E-0.09200 F4800
G1 E-1.150 F2400
G0 Z0.530 F600
; travel+unretract
G0 X88.6000 Y121.1600 F15000
G0 Z0.280 F600
G1 E1.150 F1800
G1 X136.4000 Y121.1600 E2.44835 F1800
; row
G1 X135.0000 Y121.1600 E-0.09200 F4800
G1 E-1.150 F2400
G0 Z0.530 F600
; travel+unretract
G0 X88.6000 Y121.6000 F15000
G0 Z0.280 F600
G1 E1.150 F1800
G1 X136.4000 Y121.6000 E2.44835 F1800
; row
G1 X135.0000 Y121.6000 E-0.09200 F4800
G1 E-1.150 F2400
G0 Z0.530 F600
; travel+unretract
G0 X88.6000 Y122.0400 F15000
G0 Z0.280 F600
G1 E1.150 F1800
G1 X136.4000 Y122.0400 E2.44835 F1800
; row
G1 X135.0000 Y122.0400 E-0.09200 F4800
G1 E-1.150 F2400
G0 Z0.530 F600
; travel+unretract
G0 X88.6000 Y122.4800 F15000
G0 Z0.280 F600
G1 E1.150 F1800
G1 X136.4000 Y122.4800 E2.44835 F1800
; row
G1 X135.0000 Y122.4800 E-0.09200 F4800
G1 E-1.150 F2400
G0 Z0.530 F600
; travel+unretract
G0 X88.6000 Y122.9200 F15000
G0 Z0.280 F600
G1 E1.150 F1800
G1 X136.4000 Y122.9200 E2.44835 F1800
; row
G1 X135.0000 Y122.9200 E-0.09200 F4800
G1 E-1.150 F2400
G0 Z0.530 F600
; travel+unretract
G0 X88.6000 Y123.3600 F15000
G0 Z0.280 F600
G1 E1.150 F1800
G1 X136.4000 Y123.3600 E2.44835 F1800
; row
G1 X135.0000 Y123.3600 E-0.09200 F4800
G1 E-1.150 F2400
G0 Z0.530 F600
; travel+unretract
G0 X88.6000 Y123.8000 F15000
G0 Z0.280 F600
G1 E1.150 F1800
G1 X136.4000 Y123.8000 E2.44835 F1800
; row
G1 X135.0000 Y123.8000 E-0.09200 F4800
G1 E-1.150 F2400
G0 Z0.530 F600
; travel+unretract
G0 X88.6000 Y124.2400 F15000
G0 Z0.280 F600
G1 E1.150 F1800
G1 X136.4000 Y124.2400 E2.44835 F1800
; row
G1 X135.0000 Y124.2400 E-0.09200 F4800
G1 E-1.150 F2400
G0 Z0.530 F600
; travel+unretract
G0 X88.6000 Y124.6800 F15000
G0 Z0.280 F600
G1 E1.150 F1800
G1 X136.4000 Y124.6800 E2.44835 F1800
; row
G1 X135.0000 Y124.6800 E-0.09200 F4800
G1 E-1.150 F2400
G0 Z0.530 F600
; travel+unretract
G0 X88.6000 Y125.1200 F15000
G0 Z0.280 F600
G1 E1.150 F1800
G1 X136.4000 Y125.1200 E2.44835 F1800
; row
G1 X135.0000 Y125.1200 E-0.09200 F4800
G1 E-1.150 F2400
G0 Z0.530 F600
; travel+unretract
G0 X88.6000 Y125.5600 F15000
G0 Z0.280 F600
G1 E1.150 F1800
G1 X136.4000 Y125.5600 E2.44835 F1800
; row
G1 X135.0000 Y125.5600 E-0.09200 F4800
G1 E-1.150 F2400
G0 Z0.530 F600
; travel+unretract
G0 X88.6000 Y126.0000 F15000
G0 Z0.280 F600
G1 E1.150 F1800
G1 X136.4000 Y126.0000 E2.44835 F1800
; row
G1 X135.0000 Y126.0000 E-0.09200 F4800
G1 E-1.150 F2400
G0 Z0.530 F600
; travel+unretract
G0 X88.6000 Y126.4400 F15000
G0 Z0.280 F600
G1 E1.150 F1800
G1 X136.4000 Y126.4400 E2.44835 F1800
; row
G1 X135.0000 Y126.4400 E-0.09200 F4800
G1 E-1.150 F2400
G0 Z0.530 F600
; travel+unretract
G0 X88.6000 Y126.8800 F15000
G0 Z0.280 F600
G1 E1.150 F1800
G1 X136.4000 Y126.8800 E2.44835 F1800
; row
G1 X135.0000 Y126.8800 E-0.09200 F4800
G1 E-1.150 F2400
G0 Z0.530 F600
; travel+unretract
G0 X88.6000 Y127.3200 F15000
G0 Z0.280 F600
G1 E1.150 F1800
G1 X136.4000 Y127.3200 E2.44835 F1800
; row
G1 X135.0000 Y127.3200 E-0.09200 F4800
G1 E-1.150 F2400
G0 Z0.530 F600
; travel+unretract
G0 X88.6000 Y127.7600 F15000
G0 Z0.280 F600
G1 E1.150 F1800
G1 X136.4000 Y127.7600 E2.44835 F1800
; row
G1 X135.0000 Y127.7600 E-0.09200 F4800
G1 E-1.150 F2400
G0 Z0.530 F600
; travel+unretract
G0 X88.6000 Y128.2000 F15000
G0 Z0.280 F600
G1 E1.150 F1800
G1 X136.4000 Y128.2000 E2.44835 F1800
; row
G1 X135.0000 Y128.2000 E-0.09200 F4800
G1 E-1.150 F2400
G0 Z0.530 F600
; travel+unretract
G0 X88.6000 Y128.6400 F15000
G0 Z0.280 F600
G1 E1.150 F1800
G1 X136.4000 Y128.6400 E2.44835 F1800
; row
G1 X135.0000 Y128.6400 E-0.09200 F4800
G1 E-1.150 F2400
G0 Z0.530 F600
; travel+unretract
G0 X88.6000 Y129.0800 F15000
G0 Z0.280 F600
G1 E1.150 F1800
G1 X136.4000 Y129.0800 E2.44835 F1800
; row
G1 X135.0000 Y129.0800 E-0.09200 F4800
G1 E-1.150 F2400
G0 Z0.530 F600
; travel+unretract
G0 X88.6000 Y129.5200 F15000
G0 Z0.280 F600
G1 E1.150 F1800
G1 X136.4000 Y129.5200 E2.44835 F1800
; row
G1 X135.0000 Y129.5200 E-0.09200 F4800
G1 E-1.150 F2400
G0 Z0.530 F600
; travel+unretract
G0 X88.6000 Y129.9600 F15000
G0 Z0.280 F600
G1 E1.150 F1800
G1 X136.4000 Y129.9600 E2.44835 F1800
; row
G1 X135.0000 Y129.9600 E-0.09200 F4800
G1 E-1.150 F2400
G0 Z0.530 F600
; travel+unretract
G0 X88.6000 Y130.4000 F15000
G0 Z0.280 F600
G1 E1.150 F1800
G1 X136.4000 Y130.4000 E2.44835 F1800
; row
G1 X135.0000 Y130.4000 E-0.09200 F4800
G1 E-1.150 F2400
G0 Z0.530 F600
; travel+unretract
G0 X88.6000 Y130.8400 F15000
G0 Z0.280 F600
G1 E1.150 F1800
G1 X136.4000 Y130.8400 E2.44835 F1800
; row
G1 X135.0000 Y130.8400 E-0.09200 F4800
G1 E-1.150 F2400
G0 Z0.530 F600
; travel+unretract
G0 X88.6000 Y131.2800 F15000
G0 Z0.280 F600
G1 E1.150 F1800
G1 X136.4000 Y131.2800 E2.44835 F1800
; row
G1 X135.0000 Y131.2800 E-0.09200 F4800
G1 E-1.150 F2400
G0 Z0.530 F600
; travel+unretract
G0 X88.6000 Y131.7200 F15000
G0 Z0.280 F600
G1 E1.150 F1800
G1 X136.4000 Y131.7200 E2.44835 F1800
; row
G1 X135.0000 Y131.7200 E-0.09200 F4800
G1 E-1.150 F2400
G0 Z0.530 F600
; travel+unretract
G0 X88.6000 Y132.1600 F15000
G0 Z0.280 F600
G1 E1.150 F1800
G1 X136.4000 Y132.1600 E2.44835 F1800
; row
G1 X135.0000 Y132.1600 E-0.09200 F4800
G1 E-1.150 F2400
G0 Z0.530 F600
; travel+unretract
G0 X88.6000 Y132.6000 F15000
G0 Z0.280 F600
G1 E1.150 F1800
G1 X136.4000 Y132.6000 E2.44835 F1800
; row
G1 X135.0000 Y132.6000 E-0.09200 F4800
G1 E-1.150 F2400
G0 Z0.530 F600
; travel+unretract
G0 X88.6000 Y133.0400 F15000
G0 Z0.280 F600
G1 E1.150 F1800
G1 X136.4000 Y133.0400 E2.44835 F1800
; row
G1 X135.0000 Y133.0400 E-0.09200 F4800
G1 E-1.150 F2400
G0 Z0.530 F600
; travel+unretract
G0 X88.6000 Y133.4800 F15000
G0 Z0.280 F600
G1 E1.150 F1800
G1 X136.4000 Y133.4800 E2.44835 F1800
; row
G1 X135.0000 Y133.4800 E-0.09200 F4800
G1 E-1.150 F2400
G0 Z0.530 F600
; travel+unretract
G0 X88.6000 Y133.9200 F15000
G0 Z0.280 F600
G1 E1.150 F1800
G1 X136.4000 Y133.9200 E2.44835 F1800
; row
G1 X135.0000 Y133.9200 E-0.09200 F4800
G1 E-1.150 F2400
G0 Z0.530 F600
; travel+unretract
G0 X88.6000 Y134.3600 F15000
G0 Z0.280 F600
G1 E1.150 F1800
G1 X136.4000 Y134.3600 E2.44835 F1800
; row
G1 X135.0000 Y134.3600 E-0.09200 F4800
G1 E-1.150 F2400
G0 Z0.530 F600
; travel+unretract
G0 X88.6000 Y134.8000 F15000
G0 Z0.280 F600
G1 E1.150 F1800
G1 X136.4000 Y134.8000 E2.44835 F1800
; row
G1 X135.0000 Y134.8000 E-0.09200 F4800
G1 E-1.150 F2400
G0 Z0.530 F600
; travel+unretract
G0 X88.6000 Y135.2400 F15000
G0 Z0.280 F600
G1 E1.150 F1800
G1 X136.4000 Y135.2400 E2.44835 F1800
; row
G1 X135.0000 Y135.2400 E-0.09200 F4800
G1 E-1.150 F2400
G0 Z0.530 F600
; travel+unretract
G0 X88.6000 Y135.6800 F15000
G0 Z0.280 F600
G1 E1.150 F1800
G1 X136.4000 Y135.6800 E2.44835 F1800
; row
G1 X135.0000 Y135.6800 E-0.09200 F4800
G1 E-1.150 F2400
G0 Z0.530 F600
; travel+unretract
G0 X88.6000 Y136.1200 F15000
G0 Z0.280 F600
G1 E1.150 F1800
G1 X136.4000 Y136.1200 E2.44835 F1800
; row
G1 X135.0000 Y136.1200 E-0.09200 F4800
G1 E-1.150 F2400
G0 Z0.530 F600
; travel+unretract
G0 X88.6000 Y136.4000 F15000
G0 Z0.280 F600
G1 E1.150 F1800
G1 X136.4000 Y136.4000 E2.44835 F1800

; === LAYER 1 Z=0.480 role=solid v=120.0 ===
FORGE_FLAT_SURFACE_MODE ROLE=solid
SET_VELOCITY_LIMIT VELOCITY=138.0 ACCEL=5000 SQUARE_CORNER_VELOCITY=5.0
SET_PRESSURE_ADVANCE ADVANCE=0.0320 SMOOTH_TIME=0.030
M106 S102
M221 S100
; wall
G1 X135.0000 Y136.4000 E-0.09200 F4800
G1 E-1.150 F2400
G0 Z0.730 F600
; travel+unretract
G0 X87.7200 Y87.7200 F15000
G0 Z0.480 F600
G1 E1.150 F1800
G1 X137.2800 Y87.7200 E1.81321 F7200
G1 X137.2800 Y137.2800 E1.81321 F7200
G1 X87.7200 Y137.2800 E1.81321 F7200
G1 X87.7200 Y87.7200 E1.81321 F7200
; wall
G1 X87.7200 Y89.1200 E-0.09200 F4800
G1 E-1.150 F2400
G0 Z0.730 F600
; travel+unretract
G0 X88.1600 Y88.1600 F15000
G0 Z0.480 F600
G1 E1.150 F1800
G1 X136.8400 Y88.1600 E1.78101 F7200
G1 X136.8400 Y136.8400 E1.78101 F7200
G1 X88.1600 Y136.8400 E1.78101 F7200
G1 X88.1600 Y88.1600 E1.78101 F7200
; row
G1 X88.1600 Y89.5600 E-0.09200 F4800
G1 E-1.150 F2400
G0 Z0.730 F600
; travel+unretract
G0 X88.6000 Y88.6000 F15000
G0 Z0.480 F600
G1 E1.150 F1800
G1 X136.4000 Y88.6000 E1.74882 F7200
; row
G1 X135.0000 Y88.6000 E-0.09200 F4800
G1 E-1.150 F2400
G0 Z0.730 F600
; travel+unretract
G0 X88.6000 Y89.0400 F15000
G0 Z0.480 F600
G1 E1.150 F1800
G1 X136.4000 Y89.0400 E1.74882 F7200
; row
G1 X135.0000 Y89.0400 E-0.09200 F4800
G1 E-1.150 F2400
G0 Z0.730 F600
; travel+unretract
G0 X88.6000 Y89.4800 F15000
G0 Z0.480 F600
G1 E1.150 F1800
G1 X136.4000 Y89.4800 E1.74882 F7200
; row
G1 X135.0000 Y89.4800 E-0.09200 F4800
G1 E-1.150 F2400
G0 Z0.730 F600
; travel+unretract
G0 X88.6000 Y89.9200 F15000
G0 Z0.480 F600
G1 E1.150 F1800
G1 X136.4000 Y89.9200 E1.74882 F7200
; row
G1 X135.0000 Y89.9200 E-0.09200 F4800
G1 E-1.150 F2400
G0 Z0.730 F600
; travel+unretract
G0 X88.6000 Y90.3600 F15000
G0 Z0.480 F600
G1 E1.150 F1800
G1 X136.4000 Y90.3600 E1.74882 F7200
; row
G1 X135.0000 Y90.3600 E-0.09200 F4800
G1 E-1.150 F2400
G0 Z0.730 F600
; travel+unretract
G0 X88.6000 Y90.8000 F15000
G0 Z0.480 F600
G1 E1.150 F1800
G1 X136.4000 Y90.8000 E1.74882 F7200
; row
G1 X135.0000 Y90.8000 E-0.09200 F4800
G1 E-1.150 F2400
G0 Z0.730 F600
; travel+unretract
G0 X88.6000 Y91.2400 F15000
G0 Z0.480 F600
G1 E1.150 F1800
G1 X136.4000 Y91.2400 E1.74882 F7200
; row
G1 X135.0000 Y91.2400 E-0.09200 F4800
G1 E-1.150 F2400
G0 Z0.730 F600
; travel+unretract
G0 X88.6000 Y91.6800 F15000
G0 Z0.480 F600
G1 E1.150 F1800
G1 X136.4000 Y91.6800 E1.74882 F7200
; row
G1 X135.0000 Y91.6800 E-0.09200 F4800
G1 E-1.150 F2400
G0 Z0.730 F600
; travel+unretract
G0 X88.6000 Y92.1200 F15000
G0 Z0.480 F600
G1 E1.150 F1800
G1 X136.4000 Y92.1200 E1.74882 F7200
; row
G1 X135.0000 Y92.1200 E-0.09200 F4800
G1 E-1.150 F2400
G0 Z0.730 F600
; travel+unretract
G0 X88.6000 Y92.5600 F15000
G0 Z0.480 F600
G1 E1.150 F1800
G1 X136.4000 Y92.5600 E1.74882 F7200
; row
G1 X135.0000 Y92.5600 E-0.09200 F4800
G1 E-1.150 F2400
G0 Z0.730 F600
; travel+unretract
G0 X88.6000 Y93.0000 F15000
G0 Z0.480 F600
G1 E1.150 F1800
G1 X136.4000 Y93.0000 E1.74882 F7200
; row
G1 X135.0000 Y93.0000 E-0.09200 F4800
G1 E-1.150 F2400
G0 Z0.730 F600
; travel+unretract
G0 X88.6000 Y93.4400 F15000
G0 Z0.480 F600
G1 E1.150 F1800
G1 X136.4000 Y93.4400 E1.74882 F7200
; row
G1 X135.0000 Y93.4400 E-0.09200 F4800
G1 E-1.150 F2400
G0 Z0.730 F600
; travel+unretract
G0 X88.6000 Y93.8800 F15000
G0 Z0.480 F600
G1 E1.150 F1800
G1 X136.4000 Y93.8800 E1.74882 F7200
; row
G1 X135.0000 Y93.8800 E-0.09200 F4800
G1 E-1.150 F2400
G0 Z0.730 F600
; travel+unretract
G0 X88.6000 Y94.3200 F15000
G0 Z0.480 F600
G1 E1.150 F1800
G1 X136.4000 Y94.3200 E1.74882 F7200
; row
G1 X135.0000 Y94.3200 E-0.09200 F4800
G1 E-1.150 F2400
G0 Z0.730 F600
; travel+unretract
G0 X88.6000 Y94.7600 F15000
G0 Z0.480 F600
G1 E1.150 F1800
G1 X136.4000 Y94.7600 E1.74882 F7200
; row
G1 X135.0000 Y94.7600 E-0.09200 F4800
G1 E-1.150 F2400
G0 Z0.730 F600
; travel+unretract
G0 X88.6000 Y95.2000 F15000
G0 Z0.480 F600
G1 E1.150 F1800
G1 X136.4000 Y95.2000 E1.74882 F7200
; row
G1 X135.0000 Y95.2000 E-0.09200 F4800
G1 E-1.150 F2400
G0 Z0.730 F600
; travel+unretract
G0 X88.6000 Y95.6400 F15000
G0 Z0.480 F600
G1 E1.150 F1800
G1 X136.4000 Y95.6400 E1.74882 F7200
; row
G1 X135.0000 Y95.6400 E-0.09200 F4800
G1 E-1.150 F2400
G0 Z0.730 F600
; travel+unretract
G0 X88.6000 Y96.0800 F15000
G0 Z0.480 F600
G1 E1.150 F1800
G1 X136.4000 Y96.0800 E1.74882 F7200
; row
G1 X135.0000 Y96.0800 E-0.09200 F4800
G1 E-1.150 F2400
G0 Z0.730 F600
; travel+unretract
G0 X88.6000 Y96.5200 F15000
G0 Z0.480 F600
G1 E1.150 F1800
G1 X136.4000 Y96.5200 E1.74882 F7200
; row
G1 X135.0000 Y96.5200 E-0.09200 F4800
G1 E-1.150 F2400
G0 Z0.730 F600
; travel+unretract
G0 X88.6000 Y96.9600 F15000
G0 Z0.480 F600
G1 E1.150 F1800
G1 X136.4000 Y96.9600 E1.74882 F7200
; row
G1 X135.0000 Y96.9600 E-0.09200 F4800
G1 E-1.150 F2400
G0 Z0.730 F600
; travel+unretract
G0 X88.6000 Y97.4000 F15000
G0 Z0.480 F600
G1 E1.150 F1800
G1 X136.4000 Y97.4000 E1.74882 F7200
; row
G1 X135.0000 Y97.4000 E-0.09200 F4800
G1 E-1.150 F2400
G0 Z0.730 F600
; travel+unretract
G0 X88.6000 Y97.8400 F15000
G0 Z0.480 F600
G1 E1.150 F1800
G1 X136.4000 Y97.8400 E1.74882 F7200
; row
G1 X135.0000 Y97.8400 E-0.09200 F4800
G1 E-1.150 F2400
G0 Z0.730 F600
; travel+unretract
G0 X88.6000 Y98.2800 F15000
G0 Z0.480 F600
G1 E1.150 F1800
G1 X136.4000 Y98.2800 E1.74882 F7200
; row
G1 X135.0000 Y98.2800 E-0.09200 F4800
G1 E-1.150 F2400
G0 Z0.730 F600
; travel+unretract
G0 X88.6000 Y98.7200 F15000
G0 Z0.480 F600
G1 E1.150 F1800
G1 X136.4000 Y98.7200 E1.74882 F7200
; row
G1 X135.0000 Y98.7200 E-0.09200 F4800
G1 E-1.150 F2400
G0 Z0.730 F600
; travel+unretract
G0 X88.6000 Y99.1600 F15000
G0 Z0.480 F600
G1 E1.150 F1800
G1 X136.4000 Y99.1600 E1.74882 F7200
; row
G1 X135.0000 Y99.1600 E-0.09200 F4800
G1 E-1.150 F2400
G0 Z0.730 F600
; travel+unretract
G0 X88.6000 Y99.6000 F15000
G0 Z0.480 F600
G1 E1.150 F1800
G1 X136.4000 Y99.6000 E1.74882 F7200
; row
G1 X135.0000 Y99.6000 E-0.09200 F4800
G1 E-1.150 F2400
G0 Z0.730 F600
; travel+unretract
G0 X88.6000 Y100.0400 F15000
G0 Z0.480 F600
G1 E1.150 F1800
G1 X136.4000 Y100.0400 E1.74882 F7200
; row
G1 X135.0000 Y100.0400 E-0.09200 F4800
G1 E-1.150 F2400
G0 Z0.730 F600
; travel+unretract
G0 X88.6000 Y100.4800 F15000
G0 Z0.480 F600
G1 E1.150 F1800
G1 X136.4000 Y100.4800 E1.74882 F7200
; row
G1 X135.0000 Y100.4800 E-0.09200 F4800
G1 E-1.150 F2400
G0 Z0.730 F600
; travel+unretract
G0 X88.6000 Y100.9200 F15000
G0 Z0.480 F600
G1 E1.150 F1800
G1 X136.4000 Y100.9200 E1.74882 F7200
; row
G1 X135.0000 Y100.9200 E-0.09200 F4800
G1 E-1.150 F2400
G0 Z0.730 F600
; travel+unretract
G0 X88.6000 Y101.3600 F15000
G0 Z0.480 F600
G1 E1.150 F1800
G1 X136.4000 Y101.3600 E1.74882 F7200
; row
G1 X135.0000 Y101.3600 E-0.09200 F4800
G1 E-1.150 F2400
G0 Z0.730 F600
; travel+unretract
G0 X88.6000 Y101.8000 F15000
G0 Z0.480 F600
G1 E1.150 F1800
G1 X136.4000 Y101.8000 E1.74882 F7200
; row
G1 X135.0000 Y101.8000 E-0.09200 F4800
G1 E-1.150 F2400
G0 Z0.730 F600
; travel+unretract
G0 X88.6000 Y102.2400 F15000
G0 Z0.480 F600
G1 E1.150 F1800
G1 X136.4000 Y102.2400 E1.74882 F7200
; row
G1 X135.0000 Y102.2400 E-0.09200 F4800
G1 E-1.150 F2400
G0 Z0.730 F600
; travel+unretract
G0 X88.6000 Y102.6800 F15000
G0 Z0.480 F600
G1 E1.150 F1800
G1 X136.4000 Y102.6800 E1.74882 F7200
; row
G1 X135.0000 Y102.6800 E-0.09200 F4800
G1 E-1.150 F2400
G0 Z0.730 F600
; travel+unretract
G0 X88.6000 Y103.1200 F15000
G0 Z0.480 F600
G1 E1.150 F1800
G1 X136.4000 Y103.1200 E1.74882 F7200
; row
G1 X135.0000 Y103.1200 E-0.09200 F4800
G1 E-1.150 F2400
G0 Z0.730 F600
; travel+unretract
G0 X88.6000 Y103.5600 F15000
G0 Z0.480 F600
G1 E1.150 F1800
G1 X136.4000 Y103.5600 E1.74882 F7200
; row
G1 X135.0000 Y103.5600 E-0.09200 F4800
G1 E-1.150 F2400
G0 Z0.730 F600
; travel+unretract
G0 X88.6000 Y104.0000 F15000
G0 Z0.480 F600
G1 E1.150 F1800
G1 X136.4000 Y104.0000 E1.74882 F7200
; row
G1 X135.0000 Y104.0000 E-0.09200 F4800
G1 E-1.150 F2400
G0 Z0.730 F600
; travel+unretract
G0 X88.6000 Y104.4400 F15000
G0 Z0.480 F600
G1 E1.150 F1800
G1 X136.4000 Y104.4400 E1.74882 F7200
; row
G1 X135.0000 Y104.4400 E-0.09200 F4800
G1 E-1.150 F2400
G0 Z0.730 F600
; travel+unretract
G0 X88.6000 Y104.8800 F15000
G0 Z0.480 F600
G1 E1.150 F1800
G1 X136.4000 Y104.8800 E1.74882 F7200
; row
G1 X135.0000 Y104.8800 E-0.09200 F4800
G1 E-1.150 F2400
G0 Z0.730 F600
; travel+unretract
G0 X88.6000 Y105.3200 F15000
G0 Z0.480 F600
G1 E1.150 F1800
G1 X136.4000 Y105.3200 E1.74882 F7200
; row
G1 X135.0000 Y105.3200 E-0.09200 F4800
G1 E-1.150 F2400
G0 Z0.730 F600
; travel+unretract
G0 X88.6000 Y105.7600 F15000
G0 Z0.480 F600
G1 E1.150 F1800
G1 X136.4000 Y105.7600 E1.74882 F7200
; row
G1 X135.0000 Y105.7600 E-0.09200 F4800
G1 E-1.150 F2400
G0 Z0.730 F600
; travel+unretract
G0 X88.6000 Y106.2000 F15000
G0 Z0.480 F600
G1 E1.150 F1800
G1 X136.4000 Y106.2000 E1.74882 F7200
; row
G1 X135.0000 Y106.2000 E-0.09200 F4800
G1 E-1.150 F2400
G0 Z0.730 F600
; travel+unretract
G0 X88.6000 Y106.6400 F15000
G0 Z0.480 F600
G1 E1.150 F1800
G1 X136.4000 Y106.6400 E1.74882 F7200
; row
G1 X135.0000 Y106.6400 E-0.09200 F4800
G1 E-1.150 F2400
G0 Z0.730 F600
; travel+unretract
G0 X88.6000 Y107.0800 F15000
G0 Z0.480 F600
G1 E1.150 F1800
G1 X136.4000 Y107.0800 E1.74882 F7200
; row
G1 X135.0000 Y107.0800 E-0.09200 F4800
G1 E-1.150 F2400
G0 Z0.730 F600
; travel+unretract
G0 X88.6000 Y107.5200 F15000
G0 Z0.480 F600
G1 E1.150 F1800
G1 X136.4000 Y107.5200 E1.74882 F7200
; row
G1 X135.0000 Y107.5200 E-0.09200 F4800
G1 E-1.150 F2400
G0 Z0.730 F600
; travel+unretract
G0 X88.6000 Y107.9600 F15000
G0 Z0.480 F600
G1 E1.150 F1800
G1 X136.4000 Y107.9600 E1.74882 F7200
; row
G1 X135.0000 Y107.9600 E-0.09200 F4800
G1 E-1.150 F2400
G0 Z0.730 F600
; travel+unretract
G0 X88.6000 Y108.4000 F15000
G0 Z0.480 F600
G1 E1.150 F1800
G1 X136.4000 Y108.4000 E1.74882 F7200
; row
G1 X135.0000 Y108.4000 E-0.09200 F4800
G1 E-1.150 F2400
G0 Z0.730 F600
; travel+unretract
G0 X88.6000 Y108.8400 F15000
G0 Z0.480 F600
G1 E1.150 F1800
G1 X136.4000 Y108.8400 E1.74882 F7200
; row
G1 X135.0000 Y108.8400 E-0.09200 F4800
G1 E-1.150 F2400
G0 Z0.730 F600
; travel+unretract
G0 X88.6000 Y109.2800 F15000
G0 Z0.480 F600
G1 E1.150 F1800
G1 X136.4000 Y109.2800 E1.74882 F7200
; row
G1 X135.0000 Y109.2800 E-0.09200 F4800
G1 E-1.150 F2400
G0 Z0.730 F600
; travel+unretract
G0 X88.6000 Y109.7200 F15000
G0 Z0.480 F600
G1 E1.150 F1800
G1 X136.4000 Y109.7200 E1.74882 F7200
; row
G1 X135.0000 Y109.7200 E-0.09200 F4800
G1 E-1.150 F2400
G0 Z0.730 F600
; travel+unretract
G0 X88.6000 Y110.1600 F15000
G0 Z0.480 F600
G1 E1.150 F1800
G1 X136.4000 Y110.1600 E1.74882 F7200
; row
G1 X135.0000 Y110.1600 E-0.09200 F4800
G1 E-1.150 F2400
G0 Z0.730 F600
; travel+unretract
G0 X88.6000 Y110.6000 F15000
G0 Z0.480 F600
G1 E1.150 F1800
G1 X136.4000 Y110.6000 E1.74882 F7200
; row
G1 X135.0000 Y110.6000 E-0.09200 F4800
G1 E-1.150 F2400
G0 Z0.730 F600
; travel+unretract
G0 X88.6000 Y111.0400 F15000
G0 Z0.480 F600
G1 E1.150 F1800
G1 X136.4000 Y111.0400 E1.74882 F7200
; row
G1 X135.0000 Y111.0400 E-0.09200 F4800
G1 E-1.150 F2400
G0 Z0.730 F600
; travel+unretract
G0 X88.6000 Y111.4800 F15000
G0 Z0.480 F600
G1 E1.150 F1800
G1 X136.4000 Y111.4800 E1.74882 F7200
; row
G1 X135.0000 Y111.4800 E-0.09200 F4800
G1 E-1.150 F2400
G0 Z0.730 F600
; travel+unretract
G0 X88.6000 Y111.9200 F15000
G0 Z0.480 F600
G1 E1.150 F1800
G1 X136.4000 Y111.9200 E1.74882 F7200
; row
G1 X135.0000 Y111.9200 E-0.09200 F4800
G1 E-1.150 F2400
G0 Z0.730 F600
; travel+unretract
G0 X88.6000 Y112.3600 F15000
G0 Z0.480 F600
G1 E1.150 F1800
G1 X136.4000 Y112.3600 E1.74882 F7200
; row
G1 X135.0000 Y112.3600 E-0.09200 F4800
G1 E-1.150 F2400
G0 Z0.730 F600
; travel+unretract
G0 X88.6000 Y112.8000 F15000
G0 Z0.480 F600
G1 E1.150 F1800
G1 X136.4000 Y112.8000 E1.74882 F7200
; row
G1 X135.0000 Y112.8000 E-0.09200 F4800
G1 E-1.150 F2400
G0 Z0.730 F600
; travel+unretract
G0 X88.6000 Y113.2400 F15000
G0 Z0.480 F600
G1 E1.150 F1800
G1 X136.4000 Y113.2400 E1.74882 F7200
; row
G1 X135.0000 Y113.2400 E-0.09200 F4800
G1 E-1.150 F2400
G0 Z0.730 F600
; travel+unretract
G0 X88.6000 Y113.6800 F15000
G0 Z0.480 F600
G1 E1.150 F1800
G1 X136.4000 Y113.6800 E1.74882 F7200
; row
G1 X135.0000 Y113.6800 E-0.09200 F4800
G1 E-1.150 F2400
G0 Z0.730 F600
; travel+unretract
G0 X88.6000 Y114.1200 F15000
G0 Z0.480 F600
G1 E1.150 F1800
G1 X136.4000 Y114.1200 E1.74882 F7200
; row
G1 X135.0000 Y114.1200 E-0.09200 F4800
G1 E-1.150 F2400
G0 Z0.730 F600
; travel+unretract
G0 X88.6000 Y114.5600 F15000
G0 Z0.480 F600
G1 E1.150 F1800
G1 X136.4000 Y114.5600 E1.74882 F7200
; row
G1 X135.0000 Y114.5600 E-0.09200 F4800
G1 E-1.150 F2400
G0 Z0.730 F600
; travel+unretract
G0 X88.6000 Y115.0000 F15000
G0 Z0.480 F600
G1 E1.150 F1800
G1 X136.4000 Y115.0000 E1.74882 F7200
; row
G1 X135.0000 Y115.0000 E-0.09200 F4800
G1 E-1.150 F2400
G0 Z0.730 F600
; travel+unretract
G0 X88.6000 Y115.4400 F15000
G0 Z0.480 F600
G1 E1.150 F1800
G1 X136.4000 Y115.4400 E1.74882 F7200
; row
G1 X135.0000 Y115.4400 E-0.09200 F4800
G1 E-1.150 F2400
G0 Z0.730 F600
; travel+unretract
G0 X88.6000 Y115.8800 F15000
G0 Z0.480 F600
G1 E1.150 F1800
G1 X136.4000 Y115.8800 E1.74882 F7200
; row
G1 X135.0000 Y115.8800 E-0.09200 F4800
G1 E-1.150 F2400
G0 Z0.730 F600
; travel+unretract
G0 X88.6000 Y116.3200 F15000
G0 Z0.480 F600
G1 E1.150 F1800
G1 X136.4000 Y116.3200 E1.74882 F7200
; row
G1 X135.0000 Y116.3200 E-0.09200 F4800
G1 E-1.150 F2400
G0 Z0.730 F600
; travel+unretract
G0 X88.6000 Y116.7600 F15000
G0 Z0.480 F600
G1 E1.150 F1800
G1 X136.4000 Y116.7600 E1.74882 F7200
; row
G1 X135.0000 Y116.7600 E-0.09200 F4800
G1 E-1.150 F2400
G0 Z0.730 F600
; travel+unretract
G0 X88.6000 Y117.2000 F15000
G0 Z0.480 F600
G1 E1.150 F1800
G1 X136.4000 Y117.2000 E1.74882 F7200
; row
G1 X135.0000 Y117.2000 E-0.09200 F4800
G1 E-1.150 F2400
G0 Z0.730 F600
; travel+unretract
G0 X88.6000 Y117.6400 F15000
G0 Z0.480 F600
G1 E1.150 F1800
G1 X136.4000 Y117.6400 E1.74882 F7200
; row
G1 X135.0000 Y117.6400 E-0.09200 F4800
G1 E-1.150 F2400
G0 Z0.730 F600
; travel+unretract
G0 X88.6000 Y118.0800 F15000
G0 Z0.480 F600
G1 E1.150 F1800
G1 X136.4000 Y118.0800 E1.74882 F7200
; row
G1 X135.0000 Y118.0800 E-0.09200 F4800
G1 E-1.150 F2400
G0 Z0.730 F600
; travel+unretract
G0 X88.6000 Y118.5200 F15000
G0 Z0.480 F600
G1 E1.150 F1800
G1 X136.4000 Y118.5200 E1.74882 F7200
; row
G1 X135.0000 Y118.5200 E-0.09200 F4800
G1 E-1.150 F2400
G0 Z0.730 F600
; travel+unretract
G0 X88.6000 Y118.9600 F15000
G0 Z0.480 F600
G1 E1.150 F1800
G1 X136.4000 Y118.9600 E1.74882 F7200
; row
G1 X135.0000 Y118.9600 E-0.09200 F4800
G1 E-1.150 F2400
G0 Z0.730 F600
; travel+unretract
G0 X88.6000 Y119.4000 F15000
G0 Z0.480 F600
G1 E1.150 F1800
G1 X136.4000 Y119.4000 E1.74882 F7200
; row
G1 X135.0000 Y119.4000 E-0.09200 F4800
G1 E-1.150 F2400
G0 Z0.730 F600
; travel+unretract
G0 X88.6000 Y119.8400 F15000
G0 Z0.480 F600
G1 E1.150 F1800
G1 X136.4000 Y119.8400 E1.74882 F7200
; row
G1 X135.0000 Y119.8400 E-0.09200 F4800
G1 E-1.150 F2400
G0 Z0.730 F600
; travel+unretract
G0 X88.6000 Y120.2800 F15000
G0 Z0.480 F600
G1 E1.150 F1800
G1 X136.4000 Y120.2800 E1.74882 F7200
; row
G1 X135.0000 Y120.2800 E-0.09200 F4800
G1 E-1.150 F2400
G0 Z0.730 F600
; travel+unretract
G0 X88.6000 Y120.7200 F15000
G0 Z0.480 F600
G1 E1.150 F1800
G1 X136.4000 Y120.7200 E1.74882 F7200
; row
G1 X135.0000 Y120.7200 E-0.09200 F4800
G1 E-1.150 F2400
G0 Z0.730 F600
; travel+unretract
G0 X88.6000 Y121.1600 F15000
G0 Z0.480 F600
G1 E1.150 F1800
G1 X136.4000 Y121.1600 E1.74882 F7200
; row
G1 X135.0000 Y121.1600 E-0.09200 F4800
G1 E-1.150 F2400
G0 Z0.730 F600
; travel+unretract
G0 X88.6000 Y121.6000 F15000
G0 Z0.480 F600
G1 E1.150 F1800
G1 X136.4000 Y121.6000 E1.74882 F7200
; row
G1 X135.0000 Y121.6000 E-0.09200 F4800
G1 E-1.150 F2400
G0 Z0.730 F600
; travel+unretract
G0 X88.6000 Y122.0400 F15000
G0 Z0.480 F600
G1 E1.150 F1800
G1 X136.4000 Y122.0400 E1.74882 F7200
; row
G1 X135.0000 Y122.0400 E-0.09200 F4800
G1 E-1.150 F2400
G0 Z0.730 F600
; travel+unretract
G0 X88.6000 Y122.4800 F15000
G0 Z0.480 F600
G1 E1.150 F1800
G1 X136.4000 Y122.4800 E1.74882 F7200
; row
G1 X135.0000 Y122.4800 E-0.09200 F4800
G1 E-1.150 F2400
G0 Z0.730 F600
; travel+unretract
G0 X88.6000 Y122.9200 F15000
G0 Z0.480 F600
G1 E1.150 F1800
G1 X136.4000 Y122.9200 E1.74882 F7200
; row
G1 X135.0000 Y122.9200 E-0.09200 F4800
G1 E-1.150 F2400
G0 Z0.730 F600
; travel+unretract
G0 X88.6000 Y123.3600 F15000
G0 Z0.480 F600
G1 E1.150 F1800
G1 X136.4000 Y123.3600 E1.74882 F7200
; row
G1 X135.0000 Y123.3600 E-0.09200 F4800
G1 E-1.150 F2400
G0 Z0.730 F600
; travel+unretract
G0 X88.6000 Y123.8000 F15000
G0 Z0.480 F600
G1 E1.150 F1800
G1 X136.4000 Y123.8000 E1.74882 F7200
; row
G1 X135.0000 Y123.8000 E-0.09200 F4800
G1 E-1.150 F2400
G0 Z0.730 F600
; travel+unretract
G0 X88.6000 Y124.2400 F15000
G0 Z0.480 F600
G1 E1.150 F1800
G1 X136.4000 Y124.2400 E1.74882 F7200
; row
G1 X135.0000 Y124.2400 E-0.09200 F4800
G1 E-1.150 F2400
G0 Z0.730 F600
; travel+unretract
G0 X88.6000 Y124.6800 F15000
G0 Z0.480 F600
G1 E1.150 F1800
G1 X136.4000 Y124.6800 E1.74882 F7200
; row
G1 X135.0000 Y124.6800 E-0.09200 F4800
G1 E-1.150 F2400
G0 Z0.730 F600
; travel+unretract
G0 X88.6000 Y125.1200 F15000
G0 Z0.480 F600
G1 E1.150 F1800
G1 X136.4000 Y125.1200 E1.74882 F7200
; row
G1 X135.0000 Y125.1200 E-0.09200 F4800
G1 E-1.150 F2400
G0 Z0.730 F600
; travel+unretract
G0 X88.6000 Y125.5600 F15000
G0 Z0.480 F600
G1 E1.150 F1800
G1 X136.4000 Y125.5600 E1.74882 F7200
; row
G1 X135.0000 Y125.5600 E-0.09200 F4800
G1 E-1.150 F2400
G0 Z0.730 F600
; travel+unretract
G0 X88.6000 Y126.0000 F15000
G0 Z0.480 F600
G1 E1.150 F1800
G1 X136.4000 Y126.0000 E1.74882 F7200
; row
G1 X135.0000 Y126.0000 E-0.09200 F4800
G1 E-1.150 F2400
G0 Z0.730 F600
; travel+unretract
G0 X88.6000 Y126.4400 F15000
G0 Z0.480 F600
G1 E1.150 F1800
G1 X136.4000 Y126.4400 E1.74882 F7200
; row
G1 X135.0000 Y126.4400 E-0.09200 F4800
G1 E-1.150 F2400
G0 Z0.730 F600
; travel+unretract
G0 X88.6000 Y126.8800 F15000
G0 Z0.480 F600
G1 E1.150 F1800
G1 X136.4000 Y126.8800 E1.74882 F7200
; row
G1 X135.0000 Y126.8800 E-0.09200 F4800
G1 E-1.150 F2400
G0 Z0.730 F600
; travel+unretract
G0 X88.6000 Y127.3200 F15000
G0 Z0.480 F600
G1 E1.150 F1800
G1 X136.4000 Y127.3200 E1.74882 F7200
; row
G1 X135.0000 Y127.3200 E-0.09200 F4800
G1 E-1.150 F2400
G0 Z0.730 F600
; travel+unretract
G0 X88.6000 Y127.7600 F15000
G0 Z0.480 F600
G1 E1.150 F1800
G1 X136.4000 Y127.7600 E1.74882 F7200
; row
G1 X135.0000 Y127.7600 E-0.09200 F4800
G1 E-1.150 F2400
G0 Z0.730 F600
; travel+unretract
G0 X88.6000 Y128.2000 F15000
G0 Z0.480 F600
G1 E1.150 F1800
G1 X136.4000 Y128.2000 E1.74882 F7200
; row
G1 X135.0000 Y128.2000 E-0.09200 F4800
G1 E-1.150 F2400
G0 Z0.730 F600
; travel+unretract
G0 X88.6000 Y128.6400 F15000
G0 Z0.480 F600
G1 E1.150 F1800
G1 X136.4000 Y128.6400 E1.74882 F7200
; row
G1 X135.0000 Y128.6400 E-0.09200 F4800
G1 E-1.150 F2400
G0 Z0.730 F600
; travel+unretract
G0 X88.6000 Y129.0800 F15000
G0 Z0.480 F600
G1 E1.150 F1800
G1 X136.4000 Y129.0800 E1.74882 F7200
; row
G1 X135.0000 Y129.0800 E-0.09200 F4800
G1 E-1.150 F2400
G0 Z0.730 F600
; travel+unretract
G0 X88.6000 Y129.5200 F15000
G0 Z0.480 F600
G1 E1.150 F1800
G1 X136.4000 Y129.5200 E1.74882 F7200
; row
G1 X135.0000 Y129.5200 E-0.09200 F4800
G1 E-1.150 F2400
G0 Z0.730 F600
; travel+unretract
G0 X88.6000 Y129.9600 F15000
G0 Z0.480 F600
G1 E1.150 F1800
G1 X136.4000 Y129.9600 E1.74882 F7200
; row
G1 X135.0000 Y129.9600 E-0.09200 F4800
G1 E-1.150 F2400
G0 Z0.730 F600
; travel+unretract
G0 X88.6000 Y130.4000 F15000
G0 Z0.480 F600
G1 E1.150 F1800
G1 X136.4000 Y130.4000 E1.74882 F7200
; row
G1 X135.0000 Y130.4000 E-0.09200 F4800
G1 E-1.150 F2400
G0 Z0.730 F600
; travel+unretract
G0 X88.6000 Y130.8400 F15000
G0 Z0.480 F600
G1 E1.150 F1800
G1 X136.4000 Y130.8400 E1.74882 F7200
; row
G1 X135.0000 Y130.8400 E-0.09200 F4800
G1 E-1.150 F2400
G0 Z0.730 F600
; travel+unretract
G0 X88.6000 Y131.2800 F15000
G0 Z0.480 F600
G1 E1.150 F1800
G1 X136.4000 Y131.2800 E1.74882 F7200
; row
G1 X135.0000 Y131.2800 E-0.09200 F4800
G1 E-1.150 F2400
G0 Z0.730 F600
; travel+unretract
G0 X88.6000 Y131.7200 F15000
G0 Z0.480 F600
G1 E1.150 F1800
G1 X136.4000 Y131.7200 E1.74882 F7200
; row
G1 X135.0000 Y131.7200 E-0.09200 F4800
G1 E-1.150 F2400
G0 Z0.730 F600
; travel+unretract
G0 X88.6000 Y132.1600 F15000
G0 Z0.480 F600
G1 E1.150 F1800
G1 X136.4000 Y132.1600 E1.74882 F7200
; row
G1 X135.0000 Y132.1600 E-0.09200 F4800
G1 E-1.150 F2400
G0 Z0.730 F600
; travel+unretract
G0 X88.6000 Y132.6000 F15000
G0 Z0.480 F600
G1 E1.150 F1800
G1 X136.4000 Y132.6000 E1.74882 F7200
; row
G1 X135.0000 Y132.6000 E-0.09200 F4800
G1 E-1.150 F2400
G0 Z0.730 F600
; travel+unretract
G0 X88.6000 Y133.0400 F15000
G0 Z0.480 F600
G1 E1.150 F1800
G1 X136.4000 Y133.0400 E1.74882 F7200
; row
G1 X135.0000 Y133.0400 E-0.09200 F4800
G1 E-1.150 F2400
G0 Z0.730 F600
; travel+unretract
G0 X88.6000 Y133.4800 F15000
G0 Z0.480 F600
G1 E1.150 F1800
G1 X136.4000 Y133.4800 E1.74882 F7200
; row
G1 X135.0000 Y133.4800 E-0.09200 F4800
G1 E-1.150 F2400
G0 Z0.730 F600
; travel+unretract
G0 X88.6000 Y133.9200 F15000
G0 Z0.480 F600
G1 E1.150 F1800
G1 X136.4000 Y133.9200 E1.74882 F7200
; row
G1 X135.0000 Y133.9200 E-0.09200 F4800
G1 E-1.150 F2400
G0 Z0.730 F600
; travel+unretract
G0 X88.6000 Y134.3600 F15000
G0 Z0.480 F600
G1 E1.150 F1800
G1 X136.4000 Y134.3600 E1.74882 F7200
; row
G1 X135.0000 Y134.3600 E-0.09200 F4800
G1 E-1.150 F2400
G0 Z0.730 F600
; travel+unretract
G0 X88.6000 Y134.8000 F15000
G0 Z0.480 F600
G1 E1.150 F1800
G1 X136.4000 Y134.8000 E1.74882 F7200
; row
G1 X135.0000 Y134.8000 E-0.09200 F4800
G1 E-1.150 F2400
G0 Z0.730 F600
; travel+unretract
G0 X88.6000 Y135.2400 F15000
G0 Z0.480 F600
G1 E1.150 F1800
G1 X136.4000 Y135.2400 E1.74882 F7200
; row
G1 X135.0000 Y135.2400 E-0.09200 F4800
G1 E-1.150 F2400
G0 Z0.730 F600
; travel+unretract
G0 X88.6000 Y135.6800 F15000
G0 Z0.480 F600
G1 E1.150 F1800
G1 X136.4000 Y135.6800 E1.74882 F7200
; row
G1 X135.0000 Y135.6800 E-0.09200 F4800
G1 E-1.150 F2400
G0 Z0.730 F600
; travel+unretract
G0 X88.6000 Y136.1200 F15000
G0 Z0.480 F600
G1 E1.150 F1800
G1 X136.4000 Y136.1200 E1.74882 F7200
; row
G1 X135.0000 Y136.1200 E-0.09200 F4800
G1 E-1.150 F2400
G0 Z0.730 F600
; travel+unretract
G0 X88.6000 Y136.4000 F15000
G0 Z0.480 F600
G1 E1.150 F1800
G1 X136.4000 Y136.4000 E1.74882 F7200

; === LAYER 2 Z=0.680 role=solid v=120.0 ===
FORGE_FLAT_SURFACE_MODE ROLE=solid
SET_VELOCITY_LIMIT VELOCITY=138.0 ACCEL=5000 SQUARE_CORNER_VELOCITY=5.0
SET_PRESSURE_ADVANCE ADVANCE=0.0320 SMOOTH_TIME=0.030
M106 S102
M221 S100
; wall
G1 X135.0000 Y136.4000 E-0.09200 F4800
G1 E-1.150 F2400
G0 Z0.930 F600
; travel+unretract
G0 X87.7200 Y87.7200 F15000
G0 Z0.680 F600
G1 E1.150 F1800
G1 X137.2800 Y87.7200 E1.81321 F7200
G1 X137.2800 Y137.2800 E1.81321 F7200
G1 X87.7200 Y137.2800 E1.81321 F7200
G1 X87.7200 Y87.7200 E1.81321 F7200
; wall
G1 X87.7200 Y89.1200 E-0.09200 F4800
G1 E-1.150 F2400
G0 Z0.930 F600
; travel+unretract
G0 X88.1600 Y88.1600 F15000
G0 Z0.680 F600
G1 E1.150 F1800
G1 X136.8400 Y88.1600 E1.78101 F7200
G1 X136.8400 Y136.8400 E1.78101 F7200
G1 X88.1600 Y136.8400 E1.78101 F7200
G1 X88.1600 Y88.1600 E1.78101 F7200
; row
G1 X88.1600 Y89.5600 E-0.09200 F4800
G1 E-1.150 F2400
G0 Z0.930 F600
; travel+unretract
G0 X88.6000 Y88.6000 F15000
G0 Z0.680 F600
G1 E1.150 F1800
G1 X136.4000 Y88.6000 E1.74882 F7200
; row
G1 X135.0000 Y88.6000 E-0.09200 F4800
G1 E-1.150 F2400
G0 Z0.930 F600
; travel+unretract
G0 X88.6000 Y89.0400 F15000
G0 Z0.680 F600
G1 E1.150 F1800
G1 X136.4000 Y89.0400 E1.74882 F7200
; row
G1 X135.0000 Y89.0400 E-0.09200 F4800
G1 E-1.150 F2400
G0 Z0.930 F600
; travel+unretract
G0 X88.6000 Y89.4800 F15000
G0 Z0.680 F600
G1 E1.150 F1800
G1 X136.4000 Y89.4800 E1.74882 F7200
; row
G1 X135.0000 Y89.4800 E-0.09200 F4800
G1 E-1.150 F2400
G0 Z0.930 F600
; travel+unretract
G0 X88.6000 Y89.9200 F15000
G0 Z0.680 F600
G1 E1.150 F1800
G1 X136.4000 Y89.9200 E1.74882 F7200
; row
G1 X135.0000 Y89.9200 E-0.09200 F4800
G1 E-1.150 F2400
G0 Z0.930 F600
; travel+unretract
G0 X88.6000 Y90.3600 F15000
G0 Z0.680 F600
G1 E1.150 F1800
G1 X136.4000 Y90.3600 E1.74882 F7200
; row
G1 X135.0000 Y90.3600 E-0.09200 F4800
G1 E-1.150 F2400
G0 Z0.930 F600
; travel+unretract
G0 X88.6000 Y90.8000 F15000
G0 Z0.680 F600
G1 E1.150 F1800
G1 X136.4000 Y90.8000 E1.74882 F7200
; row
G1 X135.0000 Y90.8000 E-0.09200 F4800
G1 E-1.150 F2400
G0 Z0.930 F600
; travel+unretract
G0 X88.6000 Y91.2400 F15000
G0 Z0.680 F600
G1 E1.150 F1800
G1 X136.4000 Y91.2400 E1.74882 F7200
; row
G1 X135.0000 Y91.2400 E-0.09200 F4800
G1 E-1.150 F2400
G0 Z0.930 F600
; travel+unretract
G0 X88.6000 Y91.6800 F15000
G0 Z0.680 F600
G1 E1.150 F1800
G1 X136.4000 Y91.6800 E1.74882 F7200
; row
G1 X135.0000 Y91.6800 E-0.09200 F4800
G1 E-1.150 F2400
G0 Z0.930 F600
; travel+unretract
G0 X88.6000 Y92.1200 F15000
G0 Z0.680 F600
G1 E1.150 F1800
G1 X136.4000 Y92.1200 E1.74882 F7200
; row
G1 X135.0000 Y92.1200 E-0.09200 F4800
G1 E-1.150 F2400
G0 Z0.930 F600
; travel+unretract
G0 X88.6000 Y92.5600 F15000
G0 Z0.680 F600
G1 E1.150 F1800
G1 X136.4000 Y92.5600 E1.74882 F7200
; row
G1 X135.0000 Y92.5600 E-0.09200 F4800
G1 E-1.150 F2400
G0 Z0.930 F600
; travel+unretract
G0 X88.6000 Y93.0000 F15000
G0 Z0.680 F600
G1 E1.150 F1800
G1 X136.4000 Y93.0000 E1.74882 F7200
; row
G1 X135.0000 Y93.0000 E-0.09200 F4800
G1 E-1.150 F2400
G0 Z0.930 F600
; travel+unretract
G0 X88.6000 Y93.4400 F15000
G0 Z0.680 F600
G1 E1.150 F1800
G1 X136.4000 Y93.4400 E1.74882 F7200
; row
G1 X135.0000 Y93.4400 E-0.09200 F4800
G1 E-1.150 F2400
G0 Z0.930 F600
; travel+unretract
G0 X88.6000 Y93.8800 F15000
G0 Z0.680 F600
G1 E1.150 F1800
G1 X136.4000 Y93.8800 E1.74882 F7200
; row
G1 X135.0000 Y93.8800 E-0.09200 F4800
G1 E-1.150 F2400
G0 Z0.930 F600
; travel+unretract
G0 X88.6000 Y94.3200 F15000
G0 Z0.680 F600
G1 E1.150 F1800
G1 X136.4000 Y94.3200 E1.74882 F7200
; row
G1 X135.0000 Y94.3200 E-0.09200 F4800
G1 E-1.150 F2400
G0 Z0.930 F600
; travel+unretract
G0 X88.6000 Y94.7600 F15000
G0 Z0.680 F600
G1 E1.150 F1800
G1 X136.4000 Y94.7600 E1.74882 F7200
; row
G1 X135.0000 Y94.7600 E-0.09200 F4800
G1 E-1.150 F2400
G0 Z0.930 F600
; travel+unretract
G0 X88.6000 Y95.2000 F15000
G0 Z0.680 F600
G1 E1.150 F1800
G1 X136.4000 Y95.2000 E1.74882 F7200
; row
G1 X135.0000 Y95.2000 E-0.09200 F4800
G1 E-1.150 F2400
G0 Z0.930 F600
; travel+unretract
G0 X88.6000 Y95.6400 F15000
G0 Z0.680 F600
G1 E1.150 F1800
G1 X136.4000 Y95.6400 E1.74882 F7200
; row
G1 X135.0000 Y95.6400 E-0.09200 F4800
G1 E-1.150 F2400
G0 Z0.930 F600
; travel+unretract
G0 X88.6000 Y96.0800 F15000
G0 Z0.680 F600
G1 E1.150 F1800
G1 X136.4000 Y96.0800 E1.74882 F7200
; row
G1 X135.0000 Y96.0800 E-0.09200 F4800
G1 E-1.150 F2400
G0 Z0.930 F600
; travel+unretract
G0 X88.6000 Y96.5200 F15000
G0 Z0.680 F600
G1 E1.150 F1800
G1 X136.4000 Y96.5200 E1.74882 F7200
; row
G1 X135.0000 Y96.5200 E-0.09200 F4800
G1 E-1.150 F2400
G0 Z0.930 F600
; travel+unretract
G0 X88.6000 Y96.9600 F15000
G0 Z0.680 F600
G1 E1.150 F1800
G1 X136.4000 Y96.9600 E1.74882 F7200
; row
G1 X135.0000 Y96.9600 E-0.09200 F4800
G1 E-1.150 F2400
G0 Z0.930 F600
; travel+unretract
G0 X88.6000 Y97.4000 F15000
G0 Z0.680 F600
G1 E1.150 F1800
G1 X136.4000 Y97.4000 E1.74882 F7200
; row
G1 X135.0000 Y97.4000 E-0.09200 F4800
G1 E-1.150 F2400
G0 Z0.930 F600
; travel+unretract
G0 X88.6000 Y97.8400 F15000
G0 Z0.680 F600
G1 E1.150 F1800
G1 X136.4000 Y97.8400 E1.74882 F7200
; row
G1 X135.0000 Y97.8400 E-0.09200 F4800
G1 E-1.150 F2400
G0 Z0.930 F600
; travel+unretract
G0 X88.6000 Y98.2800 F15000
G0 Z0.680 F600
G1 E1.150 F1800
G1 X136.4000 Y98.2800 E1.74882 F7200
; row
G1 X135.0000 Y98.2800 E-0.09200 F4800
G1 E-1.150 F2400
G0 Z0.930 F600
; travel+unretract
G0 X88.6000 Y98.7200 F15000
G0 Z0.680 F600
G1 E1.150 F1800
G1 X136.4000 Y98.7200 E1.74882 F7200
; row
G1 X135.0000 Y98.7200 E-0.09200 F4800
G1 E-1.150 F2400
G0 Z0.930 F600
; travel+unretract
G0 X88.6000 Y99.1600 F15000
G0 Z0.680 F600
G1 E1.150 F1800
G1 X136.4000 Y99.1600 E1.74882 F7200
; row
G1 X135.0000 Y99.1600 E-0.09200 F4800
G1 E-1.150 F2400
G0 Z0.930 F600
; travel+unretract
G0 X88.6000 Y99.6000 F15000
G0 Z0.680 F600
G1 E1.150 F1800
G1 X136.4000 Y99.6000 E1.74882 F7200
; row
G1 X135.0000 Y99.6000 E-0.09200 F4800
G1 E-1.150 F2400
G0 Z0.930 F600
; travel+unretract
G0 X88.6000 Y100.0400 F15000
G0 Z0.680 F600
G1 E1.150 F1800
G1 X136.4000 Y100.0400 E1.74882 F7200
; row
G1 X135.0000 Y100.0400 E-0.09200 F4800
G1 E-1.150 F2400
G0 Z0.930 F600
; travel+unretract
G0 X88.6000 Y100.4800 F15000
G0 Z0.680 F600
G1 E1.150 F1800
G1 X136.4000 Y100.4800 E1.74882 F7200
; row
G1 X135.0000 Y100.4800 E-0.09200 F4800
G1 E-1.150 F2400
G0 Z0.930 F600
; travel+unretract
G0 X88.6000 Y100.9200 F15000
G0 Z0.680 F600
G1 E1.150 F1800
G1 X136.4000 Y100.9200 E1.74882 F7200
; row
G1 X135.0000 Y100.9200 E-0.09200 F4800
G1 E-1.150 F2400
G0 Z0.930 F600
; travel+unretract
G0 X88.6000 Y101.3600 F15000
G0 Z0.680 F600
G1 E1.150 F1800
G1 X136.4000 Y101.3600 E1.74882 F7200
; row
G1 X135.0000 Y101.3600 E-0.09200 F4800
G1 E-1.150 F2400
G0 Z0.930 F600
; travel+unretract
G0 X88.6000 Y101.8000 F15000
G0 Z0.680 F600
G1 E1.150 F1800
G1 X136.4000 Y101.8000 E1.74882 F7200
; row
G1 X135.0000 Y101.8000 E-0.09200 F4800
G1 E-1.150 F2400
G0 Z0.930 F600
; travel+unretract
G0 X88.6000 Y102.2400 F15000
G0 Z0.680 F600
G1 E1.150 F1800
G1 X136.4000 Y102.2400 E1.74882 F7200
; row
G1 X135.0000 Y102.2400 E-0.09200 F4800
G1 E-1.150 F2400
G0 Z0.930 F600
; travel+unretract
G0 X88.6000 Y102.6800 F15000
G0 Z0.680 F600
G1 E1.150 F1800
G1 X136.4000 Y102.6800 E1.74882 F7200
; row
G1 X135.0000 Y102.6800 E-0.09200 F4800
G1 E-1.150 F2400
G0 Z0.930 F600
; travel+unretract
G0 X88.6000 Y103.1200 F15000
G0 Z0.680 F600
G1 E1.150 F1800
G1 X136.4000 Y103.1200 E1.74882 F7200
; row
G1 X135.0000 Y103.1200 E-0.09200 F4800
G1 E-1.150 F2400
G0 Z0.930 F600
; travel+unretract
G0 X88.6000 Y103.5600 F15000
G0 Z0.680 F600
G1 E1.150 F1800
G1 X136.4000 Y103.5600 E1.74882 F7200
; row
G1 X135.0000 Y103.5600 E-0.09200 F4800
G1 E-1.150 F2400
G0 Z0.930 F600
; travel+unretract
G0 X88.6000 Y104.0000 F15000
G0 Z0.680 F600
G1 E1.150 F1800
G1 X136.4000 Y104.0000 E1.74882 F7200
; row
G1 X135.0000 Y104.0000 E-0.09200 F4800
G1 E-1.150 F2400
G0 Z0.930 F600
; travel+unretract
G0 X88.6000 Y104.4400 F15000
G0 Z0.680 F600
G1 E1.150 F1800
G1 X136.4000 Y104.4400 E1.74882 F7200
; row
G1 X135.0000 Y104.4400 E-0.09200 F4800
G1 E-1.150 F2400
G0 Z0.930 F600
; travel+unretract
G0 X88.6000 Y104.8800 F15000
G0 Z0.680 F600
G1 E1.150 F1800
G1 X136.4000 Y104.8800 E1.74882 F7200
; row
G1 X135.0000 Y104.8800 E-0.09200 F4800
G1 E-1.150 F2400
G0 Z0.930 F600
; travel+unretract
G0 X88.6000 Y105.3200 F15000
G0 Z0.680 F600
G1 E1.150 F1800
G1 X136.4000 Y105.3200 E1.74882 F7200
; row
G1 X135.0000 Y105.3200 E-0.09200 F4800
G1 E-1.150 F2400
G0 Z0.930 F600
; travel+unretract
G0 X88.6000 Y105.7600 F15000
G0 Z0.680 F600
G1 E1.150 F1800
G1 X136.4000 Y105.7600 E1.74882 F7200
; row
G1 X135.0000 Y105.7600 E-0.09200 F4800
G1 E-1.150 F2400
G0 Z0.930 F600
; travel+unretract
G0 X88.6000 Y106.2000 F15000
G0 Z0.680 F600
G1 E1.150 F1800
G1 X136.4000 Y106.2000 E1.74882 F7200
; row
G1 X135.0000 Y106.2000 E-0.09200 F4800
G1 E-1.150 F2400
G0 Z0.930 F600
; travel+unretract
G0 X88.6000 Y106.6400 F15000
G0 Z0.680 F600
G1 E1.150 F1800
G1 X136.4000 Y106.6400 E1.74882 F7200
; row
G1 X135.0000 Y106.6400 E-0.09200 F4800
G1 E-1.150 F2400
G0 Z0.930 F600
; travel+unretract
G0 X88.6000 Y107.0800 F15000
G0 Z0.680 F600
G1 E1.150 F1800
G1 X136.4000 Y107.0800 E1.74882 F7200
; row
G1 X135.0000 Y107.0800 E-0.09200 F4800
G1 E-1.150 F2400
G0 Z0.930 F600
; travel+unretract
G0 X88.6000 Y107.5200 F15000
G0 Z0.680 F600
G1 E1.150 F1800
G1 X136.4000 Y107.5200 E1.74882 F7200
; row
G1 X135.0000 Y107.5200 E-0.09200 F4800
G1 E-1.150 F2400
G0 Z0.930 F600
; travel+unretract
G0 X88.6000 Y107.9600 F15000
G0 Z0.680 F600
G1 E1.150 F1800
G1 X136.4000 Y107.9600 E1.74882 F7200
; row
G1 X135.0000 Y107.9600 E-0.09200 F4800
G1 E-1.150 F2400
G0 Z0.930 F600
; travel+unretract
G0 X88.6000 Y108.4000 F15000
G0 Z0.680 F600
G1 E1.150 F1800
G1 X136.4000 Y108.4000 E1.74882 F7200
; row
G1 X135.0000 Y108.4000 E-0.09200 F4800
G1 E-1.150 F2400
G0 Z0.930 F600
; travel+unretract
G0 X88.6000 Y108.8400 F15000
G0 Z0.680 F600
G1 E1.150 F1800
G1 X136.4000 Y108.8400 E1.74882 F7200
; row
G1 X135.0000 Y108.8400 E-0.09200 F4800
G1 E-1.150 F2400
G0 Z0.930 F600
; travel+unretract
G0 X88.6000 Y109.2800 F15000
G0 Z0.680 F600
G1 E1.150 F1800
G1 X136.4000 Y109.2800 E1.74882 F7200
; row
G1 X135.0000 Y109.2800 E-0.09200 F4800
G1 E-1.150 F2400
G0 Z0.930 F600
; travel+unretract
G0 X88.6000 Y109.7200 F15000
G0 Z0.680 F600
G1 E1.150 F1800
G1 X136.4000 Y109.7200 E1.74882 F7200
; row
G1 X135.0000 Y109.7200 E-0.09200 F4800
G1 E-1.150 F2400
G0 Z0.930 F600
; travel+unretract
G0 X88.6000 Y110.1600 F15000
G0 Z0.680 F600
G1 E1.150 F1800
G1 X136.4000 Y110.1600 E1.74882 F7200
; row
G1 X135.0000 Y110.1600 E-0.09200 F4800
G1 E-1.150 F2400
G0 Z0.930 F600
; travel+unretract
G0 X88.6000 Y110.6000 F15000
G0 Z0.680 F600
G1 E1.150 F1800
G1 X136.4000 Y110.6000 E1.74882 F7200
; row
G1 X135.0000 Y110.6000 E-0.09200 F4800
G1 E-1.150 F2400
G0 Z0.930 F600
; travel+unretract
G0 X88.6000 Y111.0400 F15000
G0 Z0.680 F600
G1 E1.150 F1800
G1 X136.4000 Y111.0400 E1.74882 F7200
; row
G1 X135.0000 Y111.0400 E-0.09200 F4800
G1 E-1.150 F2400
G0 Z0.930 F600
; travel+unretract
G0 X88.6000 Y111.4800 F15000
G0 Z0.680 F600
G1 E1.150 F1800
G1 X136.4000 Y111.4800 E1.74882 F7200
; row
G1 X135.0000 Y111.4800 E-0.09200 F4800
G1 E-1.150 F2400
G0 Z0.930 F600
; travel+unretract
G0 X88.6000 Y111.9200 F15000
G0 Z0.680 F600
G1 E1.150 F1800
G1 X136.4000 Y111.9200 E1.74882 F7200
; row
G1 X135.0000 Y111.9200 E-0.09200 F4800
G1 E-1.150 F2400
G0 Z0.930 F600
; travel+unretract
G0 X88.6000 Y112.3600 F15000
G0 Z0.680 F600
G1 E1.150 F1800
G1 X136.4000 Y112.3600 E1.74882 F7200
; row
G1 X135.0000 Y112.3600 E-0.09200 F4800
G1 E-1.150 F2400
G0 Z0.930 F600
; travel+unretract
G0 X88.6000 Y112.8000 F15000
G0 Z0.680 F600
G1 E1.150 F1800
G1 X136.4000 Y112.8000 E1.74882 F7200
; row
G1 X135.0000 Y112.8000 E-0.09200 F4800
G1 E-1.150 F2400
G0 Z0.930 F600
; travel+unretract
G0 X88.6000 Y113.2400 F15000
G0 Z0.680 F600
G1 E1.150 F1800
G1 X136.4000 Y113.2400 E1.74882 F7200
; row
G1 X135.0000 Y113.2400 E-0.09200 F4800
G1 E-1.150 F2400
G0 Z0.930 F600
; travel+unretract
G0 X88.6000 Y113.6800 F15000
G0 Z0.680 F600
G1 E1.150 F1800
G1 X136.4000 Y113.6800 E1.74882 F7200
; row
G1 X135.0000 Y113.6800 E-0.09200 F4800
G1 E-1.150 F2400
G0 Z0.930 F600
; travel+unretract
G0 X88.6000 Y114.1200 F15000
G0 Z0.680 F600
G1 E1.150 F1800
G1 X136.4000 Y114.1200 E1.74882 F7200
; row
G1 X135.0000 Y114.1200 E-0.09200 F4800
G1 E-1.150 F2400
G0 Z0.930 F600
; travel+unretract
G0 X88.6000 Y114.5600 F15000
G0 Z0.680 F600
G1 E1.150 F1800
G1 X136.4000 Y114.5600 E1.74882 F7200
; row
G1 X135.0000 Y114.5600 E-0.09200 F4800
G1 E-1.150 F2400
G0 Z0.930 F600
; travel+unretract
G0 X88.6000 Y115.0000 F15000
G0 Z0.680 F600
G1 E1.150 F1800
G1 X136.4000 Y115.0000 E1.74882 F7200
; row
G1 X135.0000 Y115.0000 E-0.09200 F4800
G1 E-1.150 F2400
G0 Z0.930 F600
; travel+unretract
G0 X88.6000 Y115.4400 F15000
G0 Z0.680 F600
G1 E1.150 F1800
G1 X136.4000 Y115.4400 E1.74882 F7200
; row
G1 X135.0000 Y115.4400 E-0.09200 F4800
G1 E-1.150 F2400
G0 Z0.930 F600
; travel+unretract
G0 X88.6000 Y115.8800 F15000
G0 Z0.680 F600
G1 E1.150 F1800
G1 X136.4000 Y115.8800 E1.74882 F7200
; row
G1 X135.0000 Y115.8800 E-0.09200 F4800
G1 E-1.150 F2400
G0 Z0.930 F600
; travel+unretract
G0 X88.6000 Y116.3200 F15000
G0 Z0.680 F600
G1 E1.150 F1800
G1 X136.4000 Y116.3200 E1.74882 F7200
; row
G1 X135.0000 Y116.3200 E-0.09200 F4800
G1 E-1.150 F2400
G0 Z0.930 F600
; travel+unretract
G0 X88.6000 Y116.7600 F15000
G0 Z0.680 F600
G1 E1.150 F1800
G1 X136.4000 Y116.7600 E1.74882 F7200
; row
G1 X135.0000 Y116.7600 E-0.09200 F4800
G1 E-1.150 F2400
G0 Z0.930 F600
; travel+unretract
G0 X88.6000 Y117.2000 F15000
G0 Z0.680 F600
G1 E1.150 F1800
G1 X136.4000 Y117.2000 E1.74882 F7200
; row
G1 X135.0000 Y117.2000 E-0.09200 F4800
G1 E-1.150 F2400
G0 Z0.930 F600
; travel+unretract
G0 X88.6000 Y117.6400 F15000
G0 Z0.680 F600
G1 E1.150 F1800
G1 X136.4000 Y117.6400 E1.74882 F7200
; row
G1 X135.0000 Y117.6400 E-0.09200 F4800
G1 E-1.150 F2400
G0 Z0.930 F600
; travel+unretract
G0 X88.6000 Y118.0800 F15000
G0 Z0.680 F600
G1 E1.150 F1800
G1 X136.4000 Y118.0800 E1.74882 F7200
; row
G1 X135.0000 Y118.0800 E-0.09200 F4800
G1 E-1.150 F2400
G0 Z0.930 F600
; travel+unretract
G0 X88.6000 Y118.5200 F15000
G0 Z0.680 F600
G1 E1.150 F1800
G1 X136.4000 Y118.5200 E1.74882 F7200
; row
G1 X135.0000 Y118.5200 E-0.09200 F4800
G1 E-1.150 F2400
G0 Z0.930 F600
; travel+unretract
G0 X88.6000 Y118.9600 F15000
G0 Z0.680 F600
G1 E1.150 F1800
G1 X136.4000 Y118.9600 E1.74882 F7200
; row
G1 X135.0000 Y118.9600 E-0.09200 F4800
G1 E-1.150 F2400
G0 Z0.930 F600
; travel+unretract
G0 X88.6000 Y119.4000 F15000
G0 Z0.680 F600
G1 E1.150 F1800
G1 X136.4000 Y119.4000 E1.74882 F7200
; row
G1 X135.0000 Y119.4000 E-0.09200 F4800
G1 E-1.150 F2400
G0 Z0.930 F600
; travel+unretract
G0 X88.6000 Y119.8400 F15000
G0 Z0.680 F600
G1 E1.150 F1800
G1 X136.4000 Y119.8400 E1.74882 F7200
; row
G1 X135.0000 Y119.8400 E-0.09200 F4800
G1 E-1.150 F2400
G0 Z0.930 F600
; travel+unretract
G0 X88.6000 Y120.2800 F15000
G0 Z0.680 F600
G1 E1.150 F1800
G1 X136.4000 Y120.2800 E1.74882 F7200
; row
G1 X135.0000 Y120.2800 E-0.09200 F4800
G1 E-1.150 F2400
G0 Z0.930 F600
; travel+unretract
G0 X88.6000 Y120.7200 F15000
G0 Z0.680 F600
G1 E1.150 F1800
G1 X136.4000 Y120.7200 E1.74882 F7200
; row
G1 X135.0000 Y120.7200 E-0.09200 F4800
G1 E-1.150 F2400
G0 Z0.930 F600
; travel+unretract
G0 X88.6000 Y121.1600 F15000
G0 Z0.680 F600
G1 E1.150 F1800
G1 X136.4000 Y121.1600 E1.74882 F7200
; row
G1 X135.0000 Y121.1600 E-0.09200 F4800
G1 E-1.150 F2400
G0 Z0.930 F600
; travel+unretract
G0 X88.6000 Y121.6000 F15000
G0 Z0.680 F600
G1 E1.150 F1800
G1 X136.4000 Y121.6000 E1.74882 F7200
; row
G1 X135.0000 Y121.6000 E-0.09200 F4800
G1 E-1.150 F2400
G0 Z0.930 F600
; travel+unretract
G0 X88.6000 Y122.0400 F15000
G0 Z0.680 F600
G1 E1.150 F1800
G1 X136.4000 Y122.0400 E1.74882 F7200
; row
G1 X135.0000 Y122.0400 E-0.09200 F4800
G1 E-1.150 F2400
G0 Z0.930 F600
; travel+unretract
G0 X88.6000 Y122.4800 F15000
G0 Z0.680 F600
G1 E1.150 F1800
G1 X136.4000 Y122.4800 E1.74882 F7200
; row
G1 X135.0000 Y122.4800 E-0.09200 F4800
G1 E-1.150 F2400
G0 Z0.930 F600
; travel+unretract
G0 X88.6000 Y122.9200 F15000
G0 Z0.680 F600
G1 E1.150 F1800
G1 X136.4000 Y122.9200 E1.74882 F7200
; row
G1 X135.0000 Y122.9200 E-0.09200 F4800
G1 E-1.150 F2400
G0 Z0.930 F600
; travel+unretract
G0 X88.6000 Y123.3600 F15000
G0 Z0.680 F600
G1 E1.150 F1800
G1 X136.4000 Y123.3600 E1.74882 F7200
; row
G1 X135.0000 Y123.3600 E-0.09200 F4800
G1 E-1.150 F2400
G0 Z0.930 F600
; travel+unretract
G0 X88.6000 Y123.8000 F15000
G0 Z0.680 F600
G1 E1.150 F1800
G1 X136.4000 Y123.8000 E1.74882 F7200
; row
G1 X135.0000 Y123.8000 E-0.09200 F4800
G1 E-1.150 F2400
G0 Z0.930 F600
; travel+unretract
G0 X88.6000 Y124.2400 F15000
G0 Z0.680 F600
G1 E1.150 F1800
G1 X136.4000 Y124.2400 E1.74882 F7200
; row
G1 X135.0000 Y124.2400 E-0.09200 F4800
G1 E-1.150 F2400
G0 Z0.930 F600
; travel+unretract
G0 X88.6000 Y124.6800 F15000
G0 Z0.680 F600
G1 E1.150 F1800
G1 X136.4000 Y124.6800 E1.74882 F7200
; row
G1 X135.0000 Y124.6800 E-0.09200 F4800
G1 E-1.150 F2400
G0 Z0.930 F600
; travel+unretract
G0 X88.6000 Y125.1200 F15000
G0 Z0.680 F600
G1 E1.150 F1800
G1 X136.4000 Y125.1200 E1.74882 F7200
; row
G1 X135.0000 Y125.1200 E-0.09200 F4800
G1 E-1.150 F2400
G0 Z0.930 F600
; travel+unretract
G0 X88.6000 Y125.5600 F15000
G0 Z0.680 F600
G1 E1.150 F1800
G1 X136.4000 Y125.5600 E1.74882 F7200
; row
G1 X135.0000 Y125.5600 E-0.09200 F4800
G1 E-1.150 F2400
G0 Z0.930 F600
; travel+unretract
G0 X88.6000 Y126.0000 F15000
G0 Z0.680 F600
G1 E1.150 F1800
G1 X136.4000 Y126.0000 E1.74882 F7200
; row
G1 X135.0000 Y126.0000 E-0.09200 F4800
G1 E-1.150 F2400
G0 Z0.930 F600
; travel+unretract
G0 X88.6000 Y126.4400 F15000
G0 Z0.680 F600
G1 E1.150 F1800
G1 X136.4000 Y126.4400 E1.74882 F7200
; row
G1 X135.0000 Y126.4400 E-0.09200 F4800
G1 E-1.150 F2400
G0 Z0.930 F600
; travel+unretract
G0 X88.6000 Y126.8800 F15000
G0 Z0.680 F600
G1 E1.150 F1800
G1 X136.4000 Y126.8800 E1.74882 F7200
; row
G1 X135.0000 Y126.8800 E-0.09200 F4800
G1 E-1.150 F2400
G0 Z0.930 F600
; travel+unretract
G0 X88.6000 Y127.3200 F15000
G0 Z0.680 F600
G1 E1.150 F1800
G1 X136.4000 Y127.3200 E1.74882 F7200
; row
G1 X135.0000 Y127.3200 E-0.09200 F4800
G1 E-1.150 F2400
G0 Z0.930 F600
; travel+unretract
G0 X88.6000 Y127.7600 F15000
G0 Z0.680 F600
G1 E1.150 F1800
G1 X136.4000 Y127.7600 E1.74882 F7200
; row
G1 X135.0000 Y127.7600 E-0.09200 F4800
G1 E-1.150 F2400
G0 Z0.930 F600
; travel+unretract
G0 X88.6000 Y128.2000 F15000
G0 Z0.680 F600
G1 E1.150 F1800
G1 X136.4000 Y128.2000 E1.74882 F7200
; row
G1 X135.0000 Y128.2000 E-0.09200 F4800
G1 E-1.150 F2400
G0 Z0.930 F600
; travel+unretract
G0 X88.6000 Y128.6400 F15000
G0 Z0.680 F600
G1 E1.150 F1800
G1 X136.4000 Y128.6400 E1.74882 F7200
; row
G1 X135.0000 Y128.6400 E-0.09200 F4800
G1 E-1.150 F2400
G0 Z0.930 F600
; travel+unretract
G0 X88.6000 Y129.0800 F15000
G0 Z0.680 F600
G1 E1.150 F1800
G1 X136.4000 Y129.0800 E1.74882 F7200
; row
G1 X135.0000 Y129.0800 E-0.09200 F4800
G1 E-1.150 F2400
G0 Z0.930 F600
; travel+unretract
G0 X88.6000 Y129.5200 F15000
G0 Z0.680 F600
G1 E1.150 F1800
G1 X136.4000 Y129.5200 E1.74882 F7200
; row
G1 X135.0000 Y129.5200 E-0.09200 F4800
G1 E-1.150 F2400
G0 Z0.930 F600
; travel+unretract
G0 X88.6000 Y129.9600 F15000
G0 Z0.680 F600
G1 E1.150 F1800
G1 X136.4000 Y129.9600 E1.74882 F7200
; row
G1 X135.0000 Y129.9600 E-0.09200 F4800
G1 E-1.150 F2400
G0 Z0.930 F600
; travel+unretract
G0 X88.6000 Y130.4000 F15000
G0 Z0.680 F600
G1 E1.150 F1800
G1 X136.4000 Y130.4000 E1.74882 F7200
; row
G1 X135.0000 Y130.4000 E-0.09200 F4800
G1 E-1.150 F2400
G0 Z0.930 F600
; travel+unretract
G0 X88.6000 Y130.8400 F15000
G0 Z0.680 F600
G1 E1.150 F1800
G1 X136.4000 Y130.8400 E1.74882 F7200
; row
G1 X135.0000 Y130.8400 E-0.09200 F4800
G1 E-1.150 F2400
G0 Z0.930 F600
; travel+unretract
G0 X88.6000 Y131.2800 F15000
G0 Z0.680 F600
G1 E1.150 F1800
G1 X136.4000 Y131.2800 E1.74882 F7200
; row
G1 X135.0000 Y131.2800 E-0.09200 F4800
G1 E-1.150 F2400
G0 Z0.930 F600
; travel+unretract
G0 X88.6000 Y131.7200 F15000
G0 Z0.680 F600
G1 E1.150 F1800
G1 X136.4000 Y131.7200 E1.74882 F7200
; row
G1 X135.0000 Y131.7200 E-0.09200 F4800
G1 E-1.150 F2400
G0 Z0.930 F600
; travel+unretract
G0 X88.6000 Y132.1600 F15000
G0 Z0.680 F600
G1 E1.150 F1800
G1 X136.4000 Y132.1600 E1.74882 F7200
; row
G1 X135.0000 Y132.1600 E-0.09200 F4800
G1 E-1.150 F2400
G0 Z0.930 F600
; travel+unretract
G0 X88.6000 Y132.6000 F15000
G0 Z0.680 F600
G1 E1.150 F1800
G1 X136.4000 Y132.6000 E1.74882 F7200
; row
G1 X135.0000 Y132.6000 E-0.09200 F4800
G1 E-1.150 F2400
G0 Z0.930 F600
; travel+unretract
G0 X88.6000 Y133.0400 F15000
G0 Z0.680 F600
G1 E1.150 F1800
G1 X136.4000 Y133.0400 E1.74882 F7200
; row
G1 X135.0000 Y133.0400 E-0.09200 F4800
G1 E-1.150 F2400
G0 Z0.930 F600
; travel+unretract
G0 X88.6000 Y133.4800 F15000
G0 Z0.680 F600
G1 E1.150 F1800
G1 X136.4000 Y133.4800 E1.74882 F7200
; row
G1 X135.0000 Y133.4800 E-0.09200 F4800
G1 E-1.150 F2400
G0 Z0.930 F600
; travel+unretract
G0 X88.6000 Y133.9200 F15000
G0 Z0.680 F600
G1 E1.150 F1800
G1 X136.4000 Y133.9200 E1.74882 F7200
; row
G1 X135.0000 Y133.9200 E-0.09200 F4800
G1 E-1.150 F2400
G0 Z0.930 F600
; travel+unretract
G0 X88.6000 Y134.3600 F15000
G0 Z0.680 F600
G1 E1.150 F1800
G1 X136.4000 Y134.3600 E1.74882 F7200
; row
G1 X135.0000 Y134.3600 E-0.09200 F4800
G1 E-1.150 F2400
G0 Z0.930 F600
; travel+unretract
G0 X88.6000 Y134.8000 F15000
G0 Z0.680 F600
G1 E1.150 F1800
G1 X136.4000 Y134.8000 E1.74882 F7200
; row
G1 X135.0000 Y134.8000 E-0.09200 F4800
G1 E-1.150 F2400
G0 Z0.930 F600
; travel+unretract
G0 X88.6000 Y135.2400 F15000
G0 Z0.680 F600
G1 E1.150 F1800
G1 X136.4000 Y135.2400 E1.74882 F7200
; row
G1 X135.0000 Y135.2400 E-0.09200 F4800
G1 E-1.150 F2400
G0 Z0.930 F600
; travel+unretract
G0 X88.6000 Y135.6800 F15000
G0 Z0.680 F600
G1 E1.150 F1800
G1 X136.4000 Y135.6800 E1.74882 F7200
; row
G1 X135.0000 Y135.6800 E-0.09200 F4800
G1 E-1.150 F2400
G0 Z0.930 F600
; travel+unretract
G0 X88.6000 Y136.1200 F15000
G0 Z0.680 F600
G1 E1.150 F1800
G1 X136.4000 Y136.1200 E1.74882 F7200
; row
G1 X135.0000 Y136.1200 E-0.09200 F4800
G1 E-1.150 F2400
G0 Z0.930 F600
; travel+unretract
G0 X88.6000 Y136.4000 F15000
G0 Z0.680 F600
G1 E1.150 F1800
G1 X136.4000 Y136.4000 E1.74882 F7200

; === LAYER 3 Z=0.880 role=top v=80.0 ===
FORGE_FLAT_SURFACE_MODE ROLE=top
SET_VELOCITY_LIMIT VELOCITY=92.0 ACCEL=3500 SQUARE_CORNER_VELOCITY=3.0
SET_PRESSURE_ADVANCE ADVANCE=0.0320 SMOOTH_TIME=0.030
M106 S153
M221 S100
; wall
G1 X135.0000 Y136.4000 E-0.09200 F4800
G1 E-1.150 F2400
G0 Z1.130 F600
; travel+unretract
G0 X87.7200 Y87.7200 F15000
G0 Z0.880 F600
G1 E1.150 F1800
G1 X137.2800 Y87.7200 E1.81321 F4800
G1 X137.2800 Y137.2800 E1.81321 F4800
G1 X87.7200 Y137.2800 E1.81321 F4800
G1 X87.7200 Y87.7200 E1.81321 F4800
; wall
G1 X87.7200 Y89.1200 E-0.09200 F4800
G1 E-1.150 F2400
G0 Z1.130 F600
; travel+unretract
G0 X88.1600 Y88.1600 F15000
G0 Z0.880 F600
G1 E1.150 F1800
G1 X136.8400 Y88.1600 E1.78101 F4800
G1 X136.8400 Y136.8400 E1.78101 F4800
G1 X88.1600 Y136.8400 E1.78101 F4800
G1 X88.1600 Y88.1600 E1.78101 F4800
; row
G1 X88.1600 Y89.5600 E-0.09200 F4800
G1 E-1.150 F2400
G0 Z1.130 F600
; travel+unretract
G0 X88.6000 Y88.6000 F15000
G0 Z0.880 F600
G1 E1.150 F1800
G1 X136.4000 Y88.6000 E1.74882 F4800
; row
G1 X135.0000 Y88.6000 E-0.09200 F4800
G1 E-1.150 F2400
G0 Z1.130 F600
; travel+unretract
G0 X88.6000 Y89.0400 F15000
G0 Z0.880 F600
G1 E1.150 F1800
G1 X136.4000 Y89.0400 E1.74882 F4800
; row
G1 X135.0000 Y89.0400 E-0.09200 F4800
G1 E-1.150 F2400
G0 Z1.130 F600
; travel+unretract
G0 X88.6000 Y89.4800 F15000
G0 Z0.880 F600
G1 E1.150 F1800
G1 X136.4000 Y89.4800 E1.74882 F4800
; row
G1 X135.0000 Y89.4800 E-0.09200 F4800
G1 E-1.150 F2400
G0 Z1.130 F600
; travel+unretract
G0 X88.6000 Y89.9200 F15000
G0 Z0.880 F600
G1 E1.150 F1800
G1 X136.4000 Y89.9200 E1.74882 F4800
; row
G1 X135.0000 Y89.9200 E-0.09200 F4800
G1 E-1.150 F2400
G0 Z1.130 F600
; travel+unretract
G0 X88.6000 Y90.3600 F15000
G0 Z0.880 F600
G1 E1.150 F1800
G1 X136.4000 Y90.3600 E1.74882 F4800
; row
G1 X135.0000 Y90.3600 E-0.09200 F4800
G1 E-1.150 F2400
G0 Z1.130 F600
; travel+unretract
G0 X88.6000 Y90.8000 F15000
G0 Z0.880 F600
G1 E1.150 F1800
G1 X136.4000 Y90.8000 E1.74882 F4800
; row
G1 X135.0000 Y90.8000 E-0.09200 F4800
G1 E-1.150 F2400
G0 Z1.130 F600
; travel+unretract
G0 X88.6000 Y91.2400 F15000
G0 Z0.880 F600
G1 E1.150 F1800
G1 X136.4000 Y91.2400 E1.74882 F4800
; row
G1 X135.0000 Y91.2400 E-0.09200 F4800
G1 E-1.150 F2400
G0 Z1.130 F600
; travel+unretract
G0 X88.6000 Y91.6800 F15000
G0 Z0.880 F600
G1 E1.150 F1800
G1 X136.4000 Y91.6800 E1.74882 F4800
; row
G1 X135.0000 Y91.6800 E-0.09200 F4800
G1 E-1.150 F2400
G0 Z1.130 F600
; travel+unretract
G0 X88.6000 Y92.1200 F15000
G0 Z0.880 F600
G1 E1.150 F1800
G1 X136.4000 Y92.1200 E1.74882 F4800
; row
G1 X135.0000 Y92.1200 E-0.09200 F4800
G1 E-1.150 F2400
G0 Z1.130 F600
; travel+unretract
G0 X88.6000 Y92.5600 F15000
G0 Z0.880 F600
G1 E1.150 F1800
G1 X136.4000 Y92.5600 E1.74882 F4800
; row
G1 X135.0000 Y92.5600 E-0.09200 F4800
G1 E-1.150 F2400
G0 Z1.130 F600
; travel+unretract
G0 X88.6000 Y93.0000 F15000
G0 Z0.880 F600
G1 E1.150 F1800
G1 X136.4000 Y93.0000 E1.74882 F4800
; row
G1 X135.0000 Y93.0000 E-0.09200 F4800
G1 E-1.150 F2400
G0 Z1.130 F600
; travel+unretract
G0 X88.6000 Y93.4400 F15000
G0 Z0.880 F600
G1 E1.150 F1800
G1 X136.4000 Y93.4400 E1.74882 F4800
; row
G1 X135.0000 Y93.4400 E-0.09200 F4800
G1 E-1.150 F2400
G0 Z1.130 F600
; travel+unretract
G0 X88.6000 Y93.8800 F15000
G0 Z0.880 F600
G1 E1.150 F1800
G1 X136.4000 Y93.8800 E1.74882 F4800
; row
G1 X135.0000 Y93.8800 E-0.09200 F4800
G1 E-1.150 F2400
G0 Z1.130 F600
; travel+unretract
G0 X88.6000 Y94.3200 F15000
G0 Z0.880 F600
G1 E1.150 F1800
G1 X136.4000 Y94.3200 E1.74882 F4800
; row
G1 X135.0000 Y94.3200 E-0.09200 F4800
G1 E-1.150 F2400
G0 Z1.130 F600
; travel+unretract
G0 X88.6000 Y94.7600 F15000
G0 Z0.880 F600
G1 E1.150 F1800
G1 X136.4000 Y94.7600 E1.74882 F4800
; row
G1 X135.0000 Y94.7600 E-0.09200 F4800
G1 E-1.150 F2400
G0 Z1.130 F600
; travel+unretract
G0 X88.6000 Y95.2000 F15000
G0 Z0.880 F600
G1 E1.150 F1800
G1 X136.4000 Y95.2000 E1.74882 F4800
; row
G1 X135.0000 Y95.2000 E-0.09200 F4800
G1 E-1.150 F2400
G0 Z1.130 F600
; travel+unretract
G0 X88.6000 Y95.6400 F15000
G0 Z0.880 F600
G1 E1.150 F1800
G1 X136.4000 Y95.6400 E1.74882 F4800
; row
G1 X135.0000 Y95.6400 E-0.09200 F4800
G1 E-1.150 F2400
G0 Z1.130 F600
; travel+unretract
G0 X88.6000 Y96.0800 F15000
G0 Z0.880 F600
G1 E1.150 F1800
G1 X136.4000 Y96.0800 E1.74882 F4800
; row
G1 X135.0000 Y96.0800 E-0.09200 F4800
G1 E-1.150 F2400
G0 Z1.130 F600
; travel+unretract
G0 X88.6000 Y96.5200 F15000
G0 Z0.880 F600
G1 E1.150 F1800
G1 X136.4000 Y96.5200 E1.74882 F4800
; row
G1 X135.0000 Y96.5200 E-0.09200 F4800
G1 E-1.150 F2400
G0 Z1.130 F600
; travel+unretract
G0 X88.6000 Y96.9600 F15000
G0 Z0.880 F600
G1 E1.150 F1800
G1 X136.4000 Y96.9600 E1.74882 F4800
; row
G1 X135.0000 Y96.9600 E-0.09200 F4800
G1 E-1.150 F2400
G0 Z1.130 F600
; travel+unretract
G0 X88.6000 Y97.4000 F15000
G0 Z0.880 F600
G1 E1.150 F1800
G1 X136.4000 Y97.4000 E1.74882 F4800
; row
G1 X135.0000 Y97.4000 E-0.09200 F4800
G1 E-1.150 F2400
G0 Z1.130 F600
; travel+unretract
G0 X88.6000 Y97.8400 F15000
G0 Z0.880 F600
G1 E1.150 F1800
G1 X136.4000 Y97.8400 E1.74882 F4800
; row
G1 X135.0000 Y97.8400 E-0.09200 F4800
G1 E-1.150 F2400
G0 Z1.130 F600
; travel+unretract
G0 X88.6000 Y98.2800 F15000
G0 Z0.880 F600
G1 E1.150 F1800
G1 X136.4000 Y98.2800 E1.74882 F4800
; row
G1 X135.0000 Y98.2800 E-0.09200 F4800
G1 E-1.150 F2400
G0 Z1.130 F600
; travel+unretract
G0 X88.6000 Y98.7200 F15000
G0 Z0.880 F600
G1 E1.150 F1800
G1 X136.4000 Y98.7200 E1.74882 F4800
; row
G1 X135.0000 Y98.7200 E-0.09200 F4800
G1 E-1.150 F2400
G0 Z1.130 F600
; travel+unretract
G0 X88.6000 Y99.1600 F15000
G0 Z0.880 F600
G1 E1.150 F1800
G1 X136.4000 Y99.1600 E1.74882 F4800
; row
G1 X135.0000 Y99.1600 E-0.09200 F4800
G1 E-1.150 F2400
G0 Z1.130 F600
; travel+unretract
G0 X88.6000 Y99.6000 F15000
G0 Z0.880 F600
G1 E1.150 F1800
G1 X136.4000 Y99.6000 E1.74882 F4800
; row
G1 X135.0000 Y99.6000 E-0.09200 F4800
G1 E-1.150 F2400
G0 Z1.130 F600
; travel+unretract
G0 X88.6000 Y100.0400 F15000
G0 Z0.880 F600
G1 E1.150 F1800
G1 X136.4000 Y100.0400 E1.74882 F4800
; row
G1 X135.0000 Y100.0400 E-0.09200 F4800
G1 E-1.150 F2400
G0 Z1.130 F600
; travel+unretract
G0 X88.6000 Y100.4800 F15000
G0 Z0.880 F600
G1 E1.150 F1800
G1 X136.4000 Y100.4800 E1.74882 F4800
; row
G1 X135.0000 Y100.4800 E-0.09200 F4800
G1 E-1.150 F2400
G0 Z1.130 F600
; travel+unretract
G0 X88.6000 Y100.9200 F15000
G0 Z0.880 F600
G1 E1.150 F1800
G1 X136.4000 Y100.9200 E1.74882 F4800
; row
G1 X135.0000 Y100.9200 E-0.09200 F4800
G1 E-1.150 F2400
G0 Z1.130 F600
; travel+unretract
G0 X88.6000 Y101.3600 F15000
G0 Z0.880 F600
G1 E1.150 F1800
G1 X136.4000 Y101.3600 E1.74882 F4800
; row
G1 X135.0000 Y101.3600 E-0.09200 F4800
G1 E-1.150 F2400
G0 Z1.130 F600
; travel+unretract
G0 X88.6000 Y101.8000 F15000
G0 Z0.880 F600
G1 E1.150 F1800
G1 X136.4000 Y101.8000 E1.74882 F4800
; row
G1 X135.0000 Y101.8000 E-0.09200 F4800
G1 E-1.150 F2400
G0 Z1.130 F600
; travel+unretract
G0 X88.6000 Y102.2400 F15000
G0 Z0.880 F600
G1 E1.150 F1800
G1 X136.4000 Y102.2400 E1.74882 F4800
; row
G1 X135.0000 Y102.2400 E-0.09200 F4800
G1 E-1.150 F2400
G0 Z1.130 F600
; travel+unretract
G0 X88.6000 Y102.6800 F15000
G0 Z0.880 F600
G1 E1.150 F1800
G1 X136.4000 Y102.6800 E1.74882 F4800
; row
G1 X135.0000 Y102.6800 E-0.09200 F4800
G1 E-1.150 F2400
G0 Z1.130 F600
; travel+unretract
G0 X88.6000 Y103.1200 F15000
G0 Z0.880 F600
G1 E1.150 F1800
G1 X136.4000 Y103.1200 E1.74882 F4800
; row
G1 X135.0000 Y103.1200 E-0.09200 F4800
G1 E-1.150 F2400
G0 Z1.130 F600
; travel+unretract
G0 X88.6000 Y103.5600 F15000
G0 Z0.880 F600
G1 E1.150 F1800
G1 X136.4000 Y103.5600 E1.74882 F4800
; row
G1 X135.0000 Y103.5600 E-0.09200 F4800
G1 E-1.150 F2400
G0 Z1.130 F600
; travel+unretract
G0 X88.6000 Y104.0000 F15000
G0 Z0.880 F600
G1 E1.150 F1800
G1 X136.4000 Y104.0000 E1.74882 F4800
; row
G1 X135.0000 Y104.0000 E-0.09200 F4800
G1 E-1.150 F2400
G0 Z1.130 F600
; travel+unretract
G0 X88.6000 Y104.4400 F15000
G0 Z0.880 F600
G1 E1.150 F1800
G1 X136.4000 Y104.4400 E1.74882 F4800
; row
G1 X135.0000 Y104.4400 E-0.09200 F4800
G1 E-1.150 F2400
G0 Z1.130 F600
; travel+unretract
G0 X88.6000 Y104.8800 F15000
G0 Z0.880 F600
G1 E1.150 F1800
G1 X136.4000 Y104.8800 E1.74882 F4800
; row
G1 X135.0000 Y104.8800 E-0.09200 F4800
G1 E-1.150 F2400
G0 Z1.130 F600
; travel+unretract
G0 X88.6000 Y105.3200 F15000
G0 Z0.880 F600
G1 E1.150 F1800
G1 X136.4000 Y105.3200 E1.74882 F4800
; row
G1 X135.0000 Y105.3200 E-0.09200 F4800
G1 E-1.150 F2400
G0 Z1.130 F600
; travel+unretract
G0 X88.6000 Y105.7600 F15000
G0 Z0.880 F600
G1 E1.150 F1800
G1 X136.4000 Y105.7600 E1.74882 F4800
; row
G1 X135.0000 Y105.7600 E-0.09200 F4800
G1 E-1.150 F2400
G0 Z1.130 F600
; travel+unretract
G0 X88.6000 Y106.2000 F15000
G0 Z0.880 F600
G1 E1.150 F1800
G1 X136.4000 Y106.2000 E1.74882 F4800
; row
G1 X135.0000 Y106.2000 E-0.09200 F4800
G1 E-1.150 F2400
G0 Z1.130 F600
; travel+unretract
G0 X88.6000 Y106.6400 F15000
G0 Z0.880 F600
G1 E1.150 F1800
G1 X136.4000 Y106.6400 E1.74882 F4800
; row
G1 X135.0000 Y106.6400 E-0.09200 F4800
G1 E-1.150 F2400
G0 Z1.130 F600
; travel+unretract
G0 X88.6000 Y107.0800 F15000
G0 Z0.880 F600
G1 E1.150 F1800
G1 X136.4000 Y107.0800 E1.74882 F4800
; row
G1 X135.0000 Y107.0800 E-0.09200 F4800
G1 E-1.150 F2400
G0 Z1.130 F600
; travel+unretract
G0 X88.6000 Y107.5200 F15000
G0 Z0.880 F600
G1 E1.150 F1800
G1 X136.4000 Y107.5200 E1.74882 F4800
; row
G1 X135.0000 Y107.5200 E-0.09200 F4800
G1 E-1.150 F2400
G0 Z1.130 F600
; travel+unretract
G0 X88.6000 Y107.9600 F15000
G0 Z0.880 F600
G1 E1.150 F1800
G1 X136.4000 Y107.9600 E1.74882 F4800
; row
G1 X135.0000 Y107.9600 E-0.09200 F4800
G1 E-1.150 F2400
G0 Z1.130 F600
; travel+unretract
G0 X88.6000 Y108.4000 F15000
G0 Z0.880 F600
G1 E1.150 F1800
G1 X136.4000 Y108.4000 E1.74882 F4800
; row
G1 X135.0000 Y108.4000 E-0.09200 F4800
G1 E-1.150 F2400
G0 Z1.130 F600
; travel+unretract
G0 X88.6000 Y108.8400 F15000
G0 Z0.880 F600
G1 E1.150 F1800
G1 X136.4000 Y108.8400 E1.74882 F4800
; row
G1 X135.0000 Y108.8400 E-0.09200 F4800
G1 E-1.150 F2400
G0 Z1.130 F600
; travel+unretract
G0 X88.6000 Y109.2800 F15000
G0 Z0.880 F600
G1 E1.150 F1800
G1 X136.4000 Y109.2800 E1.74882 F4800
; row
G1 X135.0000 Y109.2800 E-0.09200 F4800
G1 E-1.150 F2400
G0 Z1.130 F600
; travel+unretract
G0 X88.6000 Y109.7200 F15000
G0 Z0.880 F600
G1 E1.150 F1800
G1 X136.4000 Y109.7200 E1.74882 F4800
; row
G1 X135.0000 Y109.7200 E-0.09200 F4800
G1 E-1.150 F2400
G0 Z1.130 F600
; travel+unretract
G0 X88.6000 Y110.1600 F15000
G0 Z0.880 F600
G1 E1.150 F1800
G1 X136.4000 Y110.1600 E1.74882 F4800
; row
G1 X135.0000 Y110.1600 E-0.09200 F4800
G1 E-1.150 F2400
G0 Z1.130 F600
; travel+unretract
G0 X88.6000 Y110.6000 F15000
G0 Z0.880 F600
G1 E1.150 F1800
G1 X136.4000 Y110.6000 E1.74882 F4800
; row
G1 X135.0000 Y110.6000 E-0.09200 F4800
G1 E-1.150 F2400
G0 Z1.130 F600
; travel+unretract
G0 X88.6000 Y111.0400 F15000
G0 Z0.880 F600
G1 E1.150 F1800
G1 X136.4000 Y111.0400 E1.74882 F4800
; row
G1 X135.0000 Y111.0400 E-0.09200 F4800
G1 E-1.150 F2400
G0 Z1.130 F600
; travel+unretract
G0 X88.6000 Y111.4800 F15000
G0 Z0.880 F600
G1 E1.150 F1800
G1 X136.4000 Y111.4800 E1.74882 F4800
; row
G1 X135.0000 Y111.4800 E-0.09200 F4800
G1 E-1.150 F2400
G0 Z1.130 F600
; travel+unretract
G0 X88.6000 Y111.9200 F15000
G0 Z0.880 F600
G1 E1.150 F1800
G1 X136.4000 Y111.9200 E1.74882 F4800
; row
G1 X135.0000 Y111.9200 E-0.09200 F4800
G1 E-1.150 F2400
G0 Z1.130 F600
; travel+unretract
G0 X88.6000 Y112.3600 F15000
G0 Z0.880 F600
G1 E1.150 F1800
G1 X136.4000 Y112.3600 E1.74882 F4800
; row
G1 X135.0000 Y112.3600 E-0.09200 F4800
G1 E-1.150 F2400
G0 Z1.130 F600
; travel+unretract
G0 X88.6000 Y112.8000 F15000
G0 Z0.880 F600
G1 E1.150 F1800
G1 X136.4000 Y112.8000 E1.74882 F4800
; row
G1 X135.0000 Y112.8000 E-0.09200 F4800
G1 E-1.150 F2400
G0 Z1.130 F600
; travel+unretract
G0 X88.6000 Y113.2400 F15000
G0 Z0.880 F600
G1 E1.150 F1800
G1 X136.4000 Y113.2400 E1.74882 F4800
; row
G1 X135.0000 Y113.2400 E-0.09200 F4800
G1 E-1.150 F2400
G0 Z1.130 F600
; travel+unretract
G0 X88.6000 Y113.6800 F15000
G0 Z0.880 F600
G1 E1.150 F1800
G1 X136.4000 Y113.6800 E1.74882 F4800
; row
G1 X135.0000 Y113.6800 E-0.09200 F4800
G1 E-1.150 F2400
G0 Z1.130 F600
; travel+unretract
G0 X88.6000 Y114.1200 F15000
G0 Z0.880 F600
G1 E1.150 F1800
G1 X136.4000 Y114.1200 E1.74882 F4800
; row
G1 X135.0000 Y114.1200 E-0.09200 F4800
G1 E-1.150 F2400
G0 Z1.130 F600
; travel+unretract
G0 X88.6000 Y114.5600 F15000
G0 Z0.880 F600
G1 E1.150 F1800
G1 X136.4000 Y114.5600 E1.74882 F4800
; row
G1 X135.0000 Y114.5600 E-0.09200 F4800
G1 E-1.150 F2400
G0 Z1.130 F600
; travel+unretract
G0 X88.6000 Y115.0000 F15000
G0 Z0.880 F600
G1 E1.150 F1800
G1 X136.4000 Y115.0000 E1.74882 F4800
; row
G1 X135.0000 Y115.0000 E-0.09200 F4800
G1 E-1.150 F2400
G0 Z1.130 F600
; travel+unretract
G0 X88.6000 Y115.4400 F15000
G0 Z0.880 F600
G1 E1.150 F1800
G1 X136.4000 Y115.4400 E1.74882 F4800
; row
G1 X135.0000 Y115.4400 E-0.09200 F4800
G1 E-1.150 F2400
G0 Z1.130 F600
; travel+unretract
G0 X88.6000 Y115.8800 F15000
G0 Z0.880 F600
G1 E1.150 F1800
G1 X136.4000 Y115.8800 E1.74882 F4800
; row
G1 X135.0000 Y115.8800 E-0.09200 F4800
G1 E-1.150 F2400
G0 Z1.130 F600
; travel+unretract
G0 X88.6000 Y116.3200 F15000
G0 Z0.880 F600
G1 E1.150 F1800
G1 X136.4000 Y116.3200 E1.74882 F4800
; row
G1 X135.0000 Y116.3200 E-0.09200 F4800
G1 E-1.150 F2400
G0 Z1.130 F600
; travel+unretract
G0 X88.6000 Y116.7600 F15000
G0 Z0.880 F600
G1 E1.150 F1800
G1 X136.4000 Y116.7600 E1.74882 F4800
; row
G1 X135.0000 Y116.7600 E-0.09200 F4800
G1 E-1.150 F2400
G0 Z1.130 F600
; travel+unretract
G0 X88.6000 Y117.2000 F15000
G0 Z0.880 F600
G1 E1.150 F1800
G1 X136.4000 Y117.2000 E1.74882 F4800
; row
G1 X135.0000 Y117.2000 E-0.09200 F4800
G1 E-1.150 F2400
G0 Z1.130 F600
; travel+unretract
G0 X88.6000 Y117.6400 F15000
G0 Z0.880 F600
G1 E1.150 F1800
G1 X136.4000 Y117.6400 E1.74882 F4800
; row
G1 X135.0000 Y117.6400 E-0.09200 F4800
G1 E-1.150 F2400
G0 Z1.130 F600
; travel+unretract
G0 X88.6000 Y118.0800 F15000
G0 Z0.880 F600
G1 E1.150 F1800
G1 X136.4000 Y118.0800 E1.74882 F4800
; row
G1 X135.0000 Y118.0800 E-0.09200 F4800
G1 E-1.150 F2400
G0 Z1.130 F600
; travel+unretract
G0 X88.6000 Y118.5200 F15000
G0 Z0.880 F600
G1 E1.150 F1800
G1 X136.4000 Y118.5200 E1.74882 F4800
; row
G1 X135.0000 Y118.5200 E-0.09200 F4800
G1 E-1.150 F2400
G0 Z1.130 F600
; travel+unretract
G0 X88.6000 Y118.9600 F15000
G0 Z0.880 F600
G1 E1.150 F1800
G1 X136.4000 Y118.9600 E1.74882 F4800
; row
G1 X135.0000 Y118.9600 E-0.09200 F4800
G1 E-1.150 F2400
G0 Z1.130 F600
; travel+unretract
G0 X88.6000 Y119.4000 F15000
G0 Z0.880 F600
G1 E1.150 F1800
G1 X136.4000 Y119.4000 E1.74882 F4800
; row
G1 X135.0000 Y119.4000 E-0.09200 F4800
G1 E-1.150 F2400
G0 Z1.130 F600
; travel+unretract
G0 X88.6000 Y119.8400 F15000
G0 Z0.880 F600
G1 E1.150 F1800
G1 X136.4000 Y119.8400 E1.74882 F4800
; row
G1 X135.0000 Y119.8400 E-0.09200 F4800
G1 E-1.150 F2400
G0 Z1.130 F600
; travel+unretract
G0 X88.6000 Y120.2800 F15000
G0 Z0.880 F600
G1 E1.150 F1800
G1 X136.4000 Y120.2800 E1.74882 F4800
; row
G1 X135.0000 Y120.2800 E-0.09200 F4800
G1 E-1.150 F2400
G0 Z1.130 F600
; travel+unretract
G0 X88.6000 Y120.7200 F15000
G0 Z0.880 F600
G1 E1.150 F1800
G1 X136.4000 Y120.7200 E1.74882 F4800
; row
G1 X135.0000 Y120.7200 E-0.09200 F4800
G1 E-1.150 F2400
G0 Z1.130 F600
; travel+unretract
G0 X88.6000 Y121.1600 F15000
G0 Z0.880 F600
G1 E1.150 F1800
G1 X136.4000 Y121.1600 E1.74882 F4800
; row
G1 X135.0000 Y121.1600 E-0.09200 F4800
G1 E-1.150 F2400
G0 Z1.130 F600
; travel+unretract
G0 X88.6000 Y121.6000 F15000
G0 Z0.880 F600
G1 E1.150 F1800
G1 X136.4000 Y121.6000 E1.74882 F4800
; row
G1 X135.0000 Y121.6000 E-0.09200 F4800
G1 E-1.150 F2400
G0 Z1.130 F600
; travel+unretract
G0 X88.6000 Y122.0400 F15000
G0 Z0.880 F600
G1 E1.150 F1800
G1 X136.4000 Y122.0400 E1.74882 F4800
; row
G1 X135.0000 Y122.0400 E-0.09200 F4800
G1 E-1.150 F2400
G0 Z1.130 F600
; travel+unretract
G0 X88.6000 Y122.4800 F15000
G0 Z0.880 F600
G1 E1.150 F1800
G1 X136.4000 Y122.4800 E1.74882 F4800
; row
G1 X135.0000 Y122.4800 E-0.09200 F4800
G1 E-1.150 F2400
G0 Z1.130 F600
; travel+unretract
G0 X88.6000 Y122.9200 F15000
G0 Z0.880 F600
G1 E1.150 F1800
G1 X136.4000 Y122.9200 E1.74882 F4800
; row
G1 X135.0000 Y122.9200 E-0.09200 F4800
G1 E-1.150 F2400
G0 Z1.130 F600
; travel+unretract
G0 X88.6000 Y123.3600 F15000
G0 Z0.880 F600
G1 E1.150 F1800
G1 X136.4000 Y123.3600 E1.74882 F4800
; row
G1 X135.0000 Y123.3600 E-0.09200 F4800
G1 E-1.150 F2400
G0 Z1.130 F600
; travel+unretract
G0 X88.6000 Y123.8000 F15000
G0 Z0.880 F600
G1 E1.150 F1800
G1 X136.4000 Y123.8000 E1.74882 F4800
; row
G1 X135.0000 Y123.8000 E-0.09200 F4800
G1 E-1.150 F2400
G0 Z1.130 F600
; travel+unretract
G0 X88.6000 Y124.2400 F15000
G0 Z0.880 F600
G1 E1.150 F1800
G1 X136.4000 Y124.2400 E1.74882 F4800
; row
G1 X135.0000 Y124.2400 E-0.09200 F4800
G1 E-1.150 F2400
G0 Z1.130 F600
; travel+unretract
G0 X88.6000 Y124.6800 F15000
G0 Z0.880 F600
G1 E1.150 F1800
G1 X136.4000 Y124.6800 E1.74882 F4800
; row
G1 X135.0000 Y124.6800 E-0.09200 F4800
G1 E-1.150 F2400
G0 Z1.130 F600
; travel+unretract
G0 X88.6000 Y125.1200 F15000
G0 Z0.880 F600
G1 E1.150 F1800
G1 X136.4000 Y125.1200 E1.74882 F4800
; row
G1 X135.0000 Y125.1200 E-0.09200 F4800
G1 E-1.150 F2400
G0 Z1.130 F600
; travel+unretract
G0 X88.6000 Y125.5600 F15000
G0 Z0.880 F600
G1 E1.150 F1800
G1 X136.4000 Y125.5600 E1.74882 F4800
; row
G1 X135.0000 Y125.5600 E-0.09200 F4800
G1 E-1.150 F2400
G0 Z1.130 F600
; travel+unretract
G0 X88.6000 Y126.0000 F15000
G0 Z0.880 F600
G1 E1.150 F1800
G1 X136.4000 Y126.0000 E1.74882 F4800
; row
G1 X135.0000 Y126.0000 E-0.09200 F4800
G1 E-1.150 F2400
G0 Z1.130 F600
; travel+unretract
G0 X88.6000 Y126.4400 F15000
G0 Z0.880 F600
G1 E1.150 F1800
G1 X136.4000 Y126.4400 E1.74882 F4800
; row
G1 X135.0000 Y126.4400 E-0.09200 F4800
G1 E-1.150 F2400
G0 Z1.130 F600
; travel+unretract
G0 X88.6000 Y126.8800 F15000
G0 Z0.880 F600
G1 E1.150 F1800
G1 X136.4000 Y126.8800 E1.74882 F4800
; row
G1 X135.0000 Y126.8800 E-0.09200 F4800
G1 E-1.150 F2400
G0 Z1.130 F600
; travel+unretract
G0 X88.6000 Y127.3200 F15000
G0 Z0.880 F600
G1 E1.150 F1800
G1 X136.4000 Y127.3200 E1.74882 F4800
; row
G1 X135.0000 Y127.3200 E-0.09200 F4800
G1 E-1.150 F2400
G0 Z1.130 F600
; travel+unretract
G0 X88.6000 Y127.7600 F15000
G0 Z0.880 F600
G1 E1.150 F1800
G1 X136.4000 Y127.7600 E1.74882 F4800
; row
G1 X135.0000 Y127.7600 E-0.09200 F4800
G1 E-1.150 F2400
G0 Z1.130 F600
; travel+unretract
G0 X88.6000 Y128.2000 F15000
G0 Z0.880 F600
G1 E1.150 F1800
G1 X136.4000 Y128.2000 E1.74882 F4800
; row
G1 X135.0000 Y128.2000 E-0.09200 F4800
G1 E-1.150 F2400
G0 Z1.130 F600
; travel+unretract
G0 X88.6000 Y128.6400 F15000
G0 Z0.880 F600
G1 E1.150 F1800
G1 X136.4000 Y128.6400 E1.74882 F4800
; row
G1 X135.0000 Y128.6400 E-0.09200 F4800
G1 E-1.150 F2400
G0 Z1.130 F600
; travel+unretract
G0 X88.6000 Y129.0800 F15000
G0 Z0.880 F600
G1 E1.150 F1800
G1 X136.4000 Y129.0800 E1.74882 F4800
; row
G1 X135.0000 Y129.0800 E-0.09200 F4800
G1 E-1.150 F2400
G0 Z1.130 F600
; travel+unretract
G0 X88.6000 Y129.5200 F15000
G0 Z0.880 F600
G1 E1.150 F1800
G1 X136.4000 Y129.5200 E1.74882 F4800
; row
G1 X135.0000 Y129.5200 E-0.09200 F4800
G1 E-1.150 F2400
G0 Z1.130 F600
; travel+unretract
G0 X88.6000 Y129.9600 F15000
G0 Z0.880 F600
G1 E1.150 F1800
G1 X136.4000 Y129.9600 E1.74882 F4800
; row
G1 X135.0000 Y129.9600 E-0.09200 F4800
G1 E-1.150 F2400
G0 Z1.130 F600
; travel+unretract
G0 X88.6000 Y130.4000 F15000
G0 Z0.880 F600
G1 E1.150 F1800
G1 X136.4000 Y130.4000 E1.74882 F4800
; row
G1 X135.0000 Y130.4000 E-0.09200 F4800
G1 E-1.150 F2400
G0 Z1.130 F600
; travel+unretract
G0 X88.6000 Y130.8400 F15000
G0 Z0.880 F600
G1 E1.150 F1800
G1 X136.4000 Y130.8400 E1.74882 F4800
; row
G1 X135.0000 Y130.8400 E-0.09200 F4800
G1 E-1.150 F2400
G0 Z1.130 F600
; travel+unretract
G0 X88.6000 Y131.2800 F15000
G0 Z0.880 F600
G1 E1.150 F1800
G1 X136.4000 Y131.2800 E1.74882 F4800
; row
G1 X135.0000 Y131.2800 E-0.09200 F4800
G1 E-1.150 F2400
G0 Z1.130 F600
; travel+unretract
G0 X88.6000 Y131.7200 F15000
G0 Z0.880 F600
G1 E1.150 F1800
G1 X136.4000 Y131.7200 E1.74882 F4800
; row
G1 X135.0000 Y131.7200 E-0.09200 F4800
G1 E-1.150 F2400
G0 Z1.130 F600
; travel+unretract
G0 X88.6000 Y132.1600 F15000
G0 Z0.880 F600
G1 E1.150 F1800
G1 X136.4000 Y132.1600 E1.74882 F4800
; row
G1 X135.0000 Y132.1600 E-0.09200 F4800
G1 E-1.150 F2400
G0 Z1.130 F600
; travel+unretract
G0 X88.6000 Y132.6000 F15000
G0 Z0.880 F600
G1 E1.150 F1800
G1 X136.4000 Y132.6000 E1.74882 F4800
; row
G1 X135.0000 Y132.6000 E-0.09200 F4800
G1 E-1.150 F2400
G0 Z1.130 F600
; travel+unretract
G0 X88.6000 Y133.0400 F15000
G0 Z0.880 F600
G1 E1.150 F1800
G1 X136.4000 Y133.0400 E1.74882 F4800
; row
G1 X135.0000 Y133.0400 E-0.09200 F4800
G1 E-1.150 F2400
G0 Z1.130 F600
; travel+unretract
G0 X88.6000 Y133.4800 F15000
G0 Z0.880 F600
G1 E1.150 F1800
G1 X136.4000 Y133.4800 E1.74882 F4800
; row
G1 X135.0000 Y133.4800 E-0.09200 F4800
G1 E-1.150 F2400
G0 Z1.130 F600
; travel+unretract
G0 X88.6000 Y133.9200 F15000
G0 Z0.880 F600
G1 E1.150 F1800
G1 X136.4000 Y133.9200 E1.74882 F4800
; row
G1 X135.0000 Y133.9200 E-0.09200 F4800
G1 E-1.150 F2400
G0 Z1.130 F600
; travel+unretract
G0 X88.6000 Y134.3600 F15000
G0 Z0.880 F600
G1 E1.150 F1800
G1 X136.4000 Y134.3600 E1.74882 F4800
; row
G1 X135.0000 Y134.3600 E-0.09200 F4800
G1 E-1.150 F2400
G0 Z1.130 F600
; travel+unretract
G0 X88.6000 Y134.8000 F15000
G0 Z0.880 F600
G1 E1.150 F1800
G1 X136.4000 Y134.8000 E1.74882 F4800
; row
G1 X135.0000 Y134.8000 E-0.09200 F4800
G1 E-1.150 F2400
G0 Z1.130 F600
; travel+unretract
G0 X88.6000 Y135.2400 F15000
G0 Z0.880 F600
G1 E1.150 F1800
G1 X136.4000 Y135.2400 E1.74882 F4800
; row
G1 X135.0000 Y135.2400 E-0.09200 F4800
G1 E-1.150 F2400
G0 Z1.130 F600
; travel+unretract
G0 X88.6000 Y135.6800 F15000
G0 Z0.880 F600
G1 E1.150 F1800
G1 X136.4000 Y135.6800 E1.74882 F4800
; row
G1 X135.0000 Y135.6800 E-0.09200 F4800
G1 E-1.150 F2400
G0 Z1.130 F600
; travel+unretract
G0 X88.6000 Y136.1200 F15000
G0 Z0.880 F600
G1 E1.150 F1800
G1 X136.4000 Y136.1200 E1.74882 F4800
; row
G1 X135.0000 Y136.1200 E-0.09200 F4800
G1 E-1.150 F2400
G0 Z1.130 F600
; travel+unretract
G0 X88.6000 Y136.4000 F15000
G0 Z0.880 F600
G1 E1.150 F1800
G1 X136.4000 Y136.4000 E1.74882 F4800
; done
G1 X135.0000 Y136.4000 E-0.09200 F4800
G1 E-1.150 F2400
G0 Z1.130 F600
G0 Z15 F600
G0 X10 Y220 F15000
M104 S0
SET_HEATER_TEMPERATURE HEATER=heater_bed TARGET=0
SET_HEATER_TEMPERATURE HEATER=heater_bed_outer TARGET=0
RESPOND MSG="MACHINE-FLAT coupon done — nail test; ZERO ironing"
M84
