; ForgeOS Phase1 G3 accuracy coupon
; 100mm bar — measure X length after cool
; generated for Protopasta HTPLA / N4 Pro
;LAYER_HEIGHT:0.200
;TARGET_LENGTH_MM:100.000

FORGE_PRINT_START_ENV BED=62.60 EXTRUDER=216.70 SOAK=6.60
M83 ; relative E
G90
G92 E0
M106 S0 ; no fan first layer

; purge
G1 Z0.30 F600
G1 X62.500 Y99.500 F12000
G1 Z0.25 F600
G1 X142.500 Y99.500 E2.92689 F1200
G1 E-0.8 F1800 ; small retract
G0 Z0.40 F600

;LAYER:0 Z=0.200
G0 Z0.400 F600
G0 X62.500 Y107.500 F12000
G1 Z0.200 F600
G1 E0.60000 F1800
G0 X62.500 Y107.500 F12000
G1 X162.500 Y107.500 E3.65861 F1800
G1 X162.500 Y117.500 E0.36586 F1800
G1 X62.500 Y117.500 E3.65861 F1800
G1 X62.500 Y107.500 E0.36586 F1800
G0 X62.940 Y107.940 F12000
G1 X162.060 Y107.940 E3.62642 F1800
G1 X162.060 Y117.060 E0.33367 F1800
G1 X62.940 Y117.060 E3.62642 F1800
G1 X62.940 Y107.940 E0.33367 F1800
G0 X63.430 Y108.430 F12000
G1 X161.570 Y108.430 E3.59056 F1800
G0 X161.570 Y108.848 F12000
G1 X63.430 Y108.848 E3.59056 F1800
G0 X63.430 Y109.266 F12000
G1 X161.570 Y109.266 E3.59056 F1800
G0 X161.570 Y109.684 F12000
G1 X63.430 Y109.684 E3.59056 F1800
G0 X63.430 Y110.102 F12000
G1 X161.570 Y110.102 E3.59056 F1800
G0 X161.570 Y110.520 F12000
G1 X63.430 Y110.520 E3.59056 F1800
G0 X63.430 Y110.938 F12000
G1 X161.570 Y110.938 E3.59056 F1800
G0 X161.570 Y111.356 F12000
G1 X63.430 Y111.356 E3.59056 F1800
G0 X63.430 Y111.774 F12000
G1 X161.570 Y111.774 E3.59056 F1800
G0 X161.570 Y112.192 F12000
G1 X63.430 Y112.192 E3.59056 F1800
G0 X63.430 Y112.610 F12000
G1 X161.570 Y112.610 E3.59056 F1800
G0 X161.570 Y113.028 F12000
G1 X63.430 Y113.028 E3.59056 F1800
G0 X63.430 Y113.446 F12000
G1 X161.570 Y113.446 E3.59056 F1800
G0 X161.570 Y113.864 F12000
G1 X63.430 Y113.864 E3.59056 F1800
G0 X63.430 Y114.282 F12000
G1 X161.570 Y114.282 E3.59056 F1800
G0 X161.570 Y114.700 F12000
G1 X63.430 Y114.700 E3.59056 F1800
G0 X63.430 Y115.118 F12000
G1 X161.570 Y115.118 E3.59056 F1800
G0 X161.570 Y115.536 F12000
G1 X63.430 Y115.536 E3.59056 F1800
G0 X63.430 Y115.954 F12000
G1 X161.570 Y115.954 E3.59056 F1800
G0 X161.570 Y116.372 F12000
G1 X63.430 Y116.372 E3.59056 F1800
G1 E-0.60000 F1800

;LAYER:1 Z=0.400
M106 S102 ; ~40% fan after first layer (HTPLA basement)
G0 Z0.600 F600
G0 X62.500 Y107.500 F12000
G1 Z0.400 F600
G1 E0.60000 F1800
G0 X62.500 Y107.500 F12000
G1 X162.500 Y107.500 E3.65861 F3600
G1 X162.500 Y117.500 E0.36586 F3600
G1 X62.500 Y117.500 E3.65861 F3600
G1 X62.500 Y107.500 E0.36586 F3600
G0 X62.940 Y107.940 F12000
G1 X162.060 Y107.940 E3.62642 F3600
G1 X162.060 Y117.060 E0.33367 F3600
G1 X62.940 Y117.060 E3.62642 F3600
G1 X62.940 Y107.940 E0.33367 F3600
G0 X63.430 Y108.430 F12000
G1 X161.570 Y108.430 E3.59056 F7200
G0 X161.570 Y108.848 F12000
G1 X63.430 Y108.848 E3.59056 F7200
G0 X63.430 Y109.266 F12000
G1 X161.570 Y109.266 E3.59056 F7200
G0 X161.570 Y109.684 F12000
G1 X63.430 Y109.684 E3.59056 F7200
G0 X63.430 Y110.102 F12000
G1 X161.570 Y110.102 E3.59056 F7200
G0 X161.570 Y110.520 F12000
G1 X63.430 Y110.520 E3.59056 F7200
G0 X63.430 Y110.938 F12000
G1 X161.570 Y110.938 E3.59056 F7200
G0 X161.570 Y111.356 F12000
G1 X63.430 Y111.356 E3.59056 F7200
G0 X63.430 Y111.774 F12000
G1 X161.570 Y111.774 E3.59056 F7200
G0 X161.570 Y112.192 F12000
G1 X63.430 Y112.192 E3.59056 F7200
G0 X63.430 Y112.610 F12000
G1 X161.570 Y112.610 E3.59056 F7200
G0 X161.570 Y113.028 F12000
G1 X63.430 Y113.028 E3.59056 F7200
G0 X63.430 Y113.446 F12000
G1 X161.570 Y113.446 E3.59056 F7200
G0 X161.570 Y113.864 F12000
G1 X63.430 Y113.864 E3.59056 F7200
G0 X63.430 Y114.282 F12000
G1 X161.570 Y114.282 E3.59056 F7200
G0 X161.570 Y114.700 F12000
G1 X63.430 Y114.700 E3.59056 F7200
G0 X63.430 Y115.118 F12000
G1 X161.570 Y115.118 E3.59056 F7200
G0 X161.570 Y115.536 F12000
G1 X63.430 Y115.536 E3.59056 F7200
G0 X63.430 Y115.954 F12000
G1 X161.570 Y115.954 E3.59056 F7200
G0 X161.570 Y116.372 F12000
G1 X63.430 Y116.372 E3.59056 F7200
G1 E-0.60000 F1800

;LAYER:2 Z=0.600
G0 Z0.800 F600
G0 X62.500 Y107.500 F12000
G1 Z0.600 F600
G1 E0.60000 F1800
G0 X62.500 Y107.500 F12000
G1 X162.500 Y107.500 E3.65861 F3600
G1 X162.500 Y117.500 E0.36586 F3600
G1 X62.500 Y117.500 E3.65861 F3600
G1 X62.500 Y107.500 E0.36586 F3600
G0 X62.940 Y107.940 F12000
G1 X162.060 Y107.940 E3.62642 F3600
G1 X162.060 Y117.060 E0.33367 F3600
G1 X62.940 Y117.060 E3.62642 F3600
G1 X62.940 Y107.940 E0.33367 F3600
G0 X63.430 Y108.430 F12000
G1 X161.570 Y108.430 E3.59056 F7200
G0 X161.570 Y108.848 F12000
G1 X63.430 Y108.848 E3.59056 F7200
G0 X63.430 Y109.266 F12000
G1 X161.570 Y109.266 E3.59056 F7200
G0 X161.570 Y109.684 F12000
G1 X63.430 Y109.684 E3.59056 F7200
G0 X63.430 Y110.102 F12000
G1 X161.570 Y110.102 E3.59056 F7200
G0 X161.570 Y110.520 F12000
G1 X63.430 Y110.520 E3.59056 F7200
G0 X63.430 Y110.938 F12000
G1 X161.570 Y110.938 E3.59056 F7200
G0 X161.570 Y111.356 F12000
G1 X63.430 Y111.356 E3.59056 F7200
G0 X63.430 Y111.774 F12000
G1 X161.570 Y111.774 E3.59056 F7200
G0 X161.570 Y112.192 F12000
G1 X63.430 Y112.192 E3.59056 F7200
G0 X63.430 Y112.610 F12000
G1 X161.570 Y112.610 E3.59056 F7200
G0 X161.570 Y113.028 F12000
G1 X63.430 Y113.028 E3.59056 F7200
G0 X63.430 Y113.446 F12000
G1 X161.570 Y113.446 E3.59056 F7200
G0 X161.570 Y113.864 F12000
G1 X63.430 Y113.864 E3.59056 F7200
G0 X63.430 Y114.282 F12000
G1 X161.570 Y114.282 E3.59056 F7200
G0 X161.570 Y114.700 F12000
G1 X63.430 Y114.700 E3.59056 F7200
G0 X63.430 Y115.118 F12000
G1 X161.570 Y115.118 E3.59056 F7200
G0 X161.570 Y115.536 F12000
G1 X63.430 Y115.536 E3.59056 F7200
G0 X63.430 Y115.954 F12000
G1 X161.570 Y115.954 E3.59056 F7200
G0 X161.570 Y116.372 F12000
G1 X63.430 Y116.372 E3.59056 F7200
G1 E-0.60000 F1800

;LAYER:3 Z=0.800
G0 Z1.000 F600
G0 X62.500 Y107.500 F12000
G1 Z0.800 F600
G1 E0.60000 F1800
G0 X62.500 Y107.500 F12000
G1 X162.500 Y107.500 E3.65861 F3600
G1 X162.500 Y117.500 E0.36586 F3600
G1 X62.500 Y117.500 E3.65861 F3600
G1 X62.500 Y107.500 E0.36586 F3600
G0 X62.940 Y107.940 F12000
G1 X162.060 Y107.940 E3.62642 F3600
G1 X162.060 Y117.060 E0.33367 F3600
G1 X62.940 Y117.060 E3.62642 F3600
G1 X62.940 Y107.940 E0.33367 F3600
G0 X63.430 Y108.430 F12000
G1 X161.570 Y108.430 E3.59056 F7200
G0 X161.570 Y108.848 F12000
G1 X63.430 Y108.848 E3.59056 F7200
G0 X63.430 Y109.266 F12000
G1 X161.570 Y109.266 E3.59056 F7200
G0 X161.570 Y109.684 F12000
G1 X63.430 Y109.684 E3.59056 F7200
G0 X63.430 Y110.102 F12000
G1 X161.570 Y110.102 E3.59056 F7200
G0 X161.570 Y110.520 F12000
G1 X63.430 Y110.520 E3.59056 F7200
G0 X63.430 Y110.938 F12000
G1 X161.570 Y110.938 E3.59056 F7200
G0 X161.570 Y111.356 F12000
G1 X63.430 Y111.356 E3.59056 F7200
G0 X63.430 Y111.774 F12000
G1 X161.570 Y111.774 E3.59056 F7200
G0 X161.570 Y112.192 F12000
G1 X63.430 Y112.192 E3.59056 F7200
G0 X63.430 Y112.610 F12000
G1 X161.570 Y112.610 E3.59056 F7200
G0 X161.570 Y113.028 F12000
G1 X63.430 Y113.028 E3.59056 F7200
G0 X63.430 Y113.446 F12000
G1 X161.570 Y113.446 E3.59056 F7200
G0 X161.570 Y113.864 F12000
G1 X63.430 Y113.864 E3.59056 F7200
G0 X63.430 Y114.282 F12000
G1 X161.570 Y114.282 E3.59056 F7200
G0 X161.570 Y114.700 F12000
G1 X63.430 Y114.700 E3.59056 F7200
G0 X63.430 Y115.118 F12000
G1 X161.570 Y115.118 E3.59056 F7200
G0 X161.570 Y115.536 F12000
G1 X63.430 Y115.536 E3.59056 F7200
G0 X63.430 Y115.954 F12000
G1 X161.570 Y115.954 E3.59056 F7200
G0 X161.570 Y116.372 F12000
G1 X63.430 Y116.372 E3.59056 F7200
G1 E-0.60000 F1800

;LAYER:4 Z=1.000
G0 Z1.200 F600
G0 X62.500 Y107.500 F12000
G1 Z1.000 F600
G1 E0.60000 F1800
G0 X62.500 Y107.500 F12000
G1 X162.500 Y107.500 E3.65861 F3600
G1 X162.500 Y117.500 E0.36586 F3600
G1 X62.500 Y117.500 E3.65861 F3600
G1 X62.500 Y107.500 E0.36586 F3600
G0 X62.940 Y107.940 F12000
G1 X162.060 Y107.940 E3.62642 F3600
G1 X162.060 Y117.060 E0.33367 F3600
G1 X62.940 Y117.060 E3.62642 F3600
G1 X62.940 Y107.940 E0.33367 F3600
G0 X63.430 Y108.430 F12000
G1 X161.570 Y108.430 E3.59056 F7200
G0 X161.570 Y108.848 F12000
G1 X63.430 Y108.848 E3.59056 F7200
G0 X63.430 Y109.266 F12000
G1 X161.570 Y109.266 E3.59056 F7200
G0 X161.570 Y109.684 F12000
G1 X63.430 Y109.684 E3.59056 F7200
G0 X63.430 Y110.102 F12000
G1 X161.570 Y110.102 E3.59056 F7200
G0 X161.570 Y110.520 F12000
G1 X63.430 Y110.520 E3.59056 F7200
G0 X63.430 Y110.938 F12000
G1 X161.570 Y110.938 E3.59056 F7200
G0 X161.570 Y111.356 F12000
G1 X63.430 Y111.356 E3.59056 F7200
G0 X63.430 Y111.774 F12000
G1 X161.570 Y111.774 E3.59056 F7200
G0 X161.570 Y112.192 F12000
G1 X63.430 Y112.192 E3.59056 F7200
G0 X63.430 Y112.610 F12000
G1 X161.570 Y112.610 E3.59056 F7200
G0 X161.570 Y113.028 F12000
G1 X63.430 Y113.028 E3.59056 F7200
G0 X63.430 Y113.446 F12000
G1 X161.570 Y113.446 E3.59056 F7200
G0 X161.570 Y113.864 F12000
G1 X63.430 Y113.864 E3.59056 F7200
G0 X63.430 Y114.282 F12000
G1 X161.570 Y114.282 E3.59056 F7200
G0 X161.570 Y114.700 F12000
G1 X63.430 Y114.700 E3.59056 F7200
G0 X63.430 Y115.118 F12000
G1 X161.570 Y115.118 E3.59056 F7200
G0 X161.570 Y115.536 F12000
G1 X63.430 Y115.536 E3.59056 F7200
G0 X63.430 Y115.954 F12000
G1 X161.570 Y115.954 E3.59056 F7200
G0 X161.570 Y116.372 F12000
G1 X63.430 Y116.372 E3.59056 F7200
G1 E-0.60000 F1800

;LAYER:5 Z=1.200
G0 Z1.400 F600
G0 X62.500 Y107.500 F12000
G1 Z1.200 F600
G1 E0.60000 F1800
G0 X62.500 Y107.500 F12000
G1 X162.500 Y107.500 E3.65861 F3600
G1 X162.500 Y117.500 E0.36586 F3600
G1 X62.500 Y117.500 E3.65861 F3600
G1 X62.500 Y107.500 E0.36586 F3600
G0 X62.940 Y107.940 F12000
G1 X162.060 Y107.940 E3.62642 F3600
G1 X162.060 Y117.060 E0.33367 F3600
G1 X62.940 Y117.060 E3.62642 F3600
G1 X62.940 Y107.940 E0.33367 F3600
G0 X63.430 Y108.430 F12000
G1 X161.570 Y108.430 E3.59056 F7200
G0 X161.570 Y108.848 F12000
G1 X63.430 Y108.848 E3.59056 F7200
G0 X63.430 Y109.266 F12000
G1 X161.570 Y109.266 E3.59056 F7200
G0 X161.570 Y109.684 F12000
G1 X63.430 Y109.684 E3.59056 F7200
G0 X63.430 Y110.102 F12000
G1 X161.570 Y110.102 E3.59056 F7200
G0 X161.570 Y110.520 F12000
G1 X63.430 Y110.520 E3.59056 F7200
G0 X63.430 Y110.938 F12000
G1 X161.570 Y110.938 E3.59056 F7200
G0 X161.570 Y111.356 F12000
G1 X63.430 Y111.356 E3.59056 F7200
G0 X63.430 Y111.774 F12000
G1 X161.570 Y111.774 E3.59056 F7200
G0 X161.570 Y112.192 F12000
G1 X63.430 Y112.192 E3.59056 F7200
G0 X63.430 Y112.610 F12000
G1 X161.570 Y112.610 E3.59056 F7200
G0 X161.570 Y113.028 F12000
G1 X63.430 Y113.028 E3.59056 F7200
G0 X63.430 Y113.446 F12000
G1 X161.570 Y113.446 E3.59056 F7200
G0 X161.570 Y113.864 F12000
G1 X63.430 Y113.864 E3.59056 F7200
G0 X63.430 Y114.282 F12000
G1 X161.570 Y114.282 E3.59056 F7200
G0 X161.570 Y114.700 F12000
G1 X63.430 Y114.700 E3.59056 F7200
G0 X63.430 Y115.118 F12000
G1 X161.570 Y115.118 E3.59056 F7200
G0 X161.570 Y115.536 F12000
G1 X63.430 Y115.536 E3.59056 F7200
G0 X63.430 Y115.954 F12000
G1 X161.570 Y115.954 E3.59056 F7200
G0 X161.570 Y116.372 F12000
G1 X63.430 Y116.372 E3.59056 F7200
G1 E-0.60000 F1800

;LAYER:6 Z=1.400
G0 Z1.600 F600
G0 X62.500 Y107.500 F12000
G1 Z1.400 F600
G1 E0.60000 F1800
G0 X62.500 Y107.500 F12000
G1 X162.500 Y107.500 E3.65861 F3600
G1 X162.500 Y117.500 E0.36586 F3600
G1 X62.500 Y117.500 E3.65861 F3600
G1 X62.500 Y107.500 E0.36586 F3600
G0 X62.940 Y107.940 F12000
G1 X162.060 Y107.940 E3.62642 F3600
G1 X162.060 Y117.060 E0.33367 F3600
G1 X62.940 Y117.060 E3.62642 F3600
G1 X62.940 Y107.940 E0.33367 F3600
G0 X63.430 Y108.430 F12000
G1 X161.570 Y108.430 E3.59056 F7200
G0 X161.570 Y108.848 F12000
G1 X63.430 Y108.848 E3.59056 F7200
G0 X63.430 Y109.266 F12000
G1 X161.570 Y109.266 E3.59056 F7200
G0 X161.570 Y109.684 F12000
G1 X63.430 Y109.684 E3.59056 F7200
G0 X63.430 Y110.102 F12000
G1 X161.570 Y110.102 E3.59056 F7200
G0 X161.570 Y110.520 F12000
G1 X63.430 Y110.520 E3.59056 F7200
G0 X63.430 Y110.938 F12000
G1 X161.570 Y110.938 E3.59056 F7200
G0 X161.570 Y111.356 F12000
G1 X63.430 Y111.356 E3.59056 F7200
G0 X63.430 Y111.774 F12000
G1 X161.570 Y111.774 E3.59056 F7200
G0 X161.570 Y112.192 F12000
G1 X63.430 Y112.192 E3.59056 F7200
G0 X63.430 Y112.610 F12000
G1 X161.570 Y112.610 E3.59056 F7200
G0 X161.570 Y113.028 F12000
G1 X63.430 Y113.028 E3.59056 F7200
G0 X63.430 Y113.446 F12000
G1 X161.570 Y113.446 E3.59056 F7200
G0 X161.570 Y113.864 F12000
G1 X63.430 Y113.864 E3.59056 F7200
G0 X63.430 Y114.282 F12000
G1 X161.570 Y114.282 E3.59056 F7200
G0 X161.570 Y114.700 F12000
G1 X63.430 Y114.700 E3.59056 F7200
G0 X63.430 Y115.118 F12000
G1 X161.570 Y115.118 E3.59056 F7200
G0 X161.570 Y115.536 F12000
G1 X63.430 Y115.536 E3.59056 F7200
G0 X63.430 Y115.954 F12000
G1 X161.570 Y115.954 E3.59056 F7200
G0 X161.570 Y116.372 F12000
G1 X63.430 Y116.372 E3.59056 F7200
G1 E-0.60000 F1800

;LAYER:7 Z=1.600
G0 Z1.800 F600
G0 X62.500 Y107.500 F12000
G1 Z1.600 F600
G1 E0.60000 F1800
G0 X62.500 Y107.500 F12000
G1 X162.500 Y107.500 E3.65861 F3600
G1 X162.500 Y117.500 E0.36586 F3600
G1 X62.500 Y117.500 E3.65861 F3600
G1 X62.500 Y107.500 E0.36586 F3600
G0 X62.940 Y107.940 F12000
G1 X162.060 Y107.940 E3.62642 F3600
G1 X162.060 Y117.060 E0.33367 F3600
G1 X62.940 Y117.060 E3.62642 F3600
G1 X62.940 Y107.940 E0.33367 F3600
G0 X63.430 Y108.430 F12000
G1 X161.570 Y108.430 E3.59056 F7200
G0 X161.570 Y108.848 F12000
G1 X63.430 Y108.848 E3.59056 F7200
G0 X63.430 Y109.266 F12000
G1 X161.570 Y109.266 E3.59056 F7200
G0 X161.570 Y109.684 F12000
G1 X63.430 Y109.684 E3.59056 F7200
G0 X63.430 Y110.102 F12000
G1 X161.570 Y110.102 E3.59056 F7200
G0 X161.570 Y110.520 F12000
G1 X63.430 Y110.520 E3.59056 F7200
G0 X63.430 Y110.938 F12000
G1 X161.570 Y110.938 E3.59056 F7200
G0 X161.570 Y111.356 F12000
G1 X63.430 Y111.356 E3.59056 F7200
G0 X63.430 Y111.774 F12000
G1 X161.570 Y111.774 E3.59056 F7200
G0 X161.570 Y112.192 F12000
G1 X63.430 Y112.192 E3.59056 F7200
G0 X63.430 Y112.610 F12000
G1 X161.570 Y112.610 E3.59056 F7200
G0 X161.570 Y113.028 F12000
G1 X63.430 Y113.028 E3.59056 F7200
G0 X63.430 Y113.446 F12000
G1 X161.570 Y113.446 E3.59056 F7200
G0 X161.570 Y113.864 F12000
G1 X63.430 Y113.864 E3.59056 F7200
G0 X63.430 Y114.282 F12000
G1 X161.570 Y114.282 E3.59056 F7200
G0 X161.570 Y114.700 F12000
G1 X63.430 Y114.700 E3.59056 F7200
G0 X63.430 Y115.118 F12000
G1 X161.570 Y115.118 E3.59056 F7200
G0 X161.570 Y115.536 F12000
G1 X63.430 Y115.536 E3.59056 F7200
G0 X63.430 Y115.954 F12000
G1 X161.570 Y115.954 E3.59056 F7200
G0 X161.570 Y116.372 F12000
G1 X63.430 Y116.372 E3.59056 F7200
G1 E-0.60000 F1800

;LAYER:8 Z=1.800
G0 Z2.000 F600
G0 X62.500 Y107.500 F12000
G1 Z1.800 F600
G1 E0.60000 F1800
G0 X62.500 Y107.500 F12000
G1 X162.500 Y107.500 E3.65861 F3600
G1 X162.500 Y117.500 E0.36586 F3600
G1 X62.500 Y117.500 E3.65861 F3600
G1 X62.500 Y107.500 E0.36586 F3600
G0 X62.940 Y107.940 F12000
G1 X162.060 Y107.940 E3.62642 F3600
G1 X162.060 Y117.060 E0.33367 F3600
G1 X62.940 Y117.060 E3.62642 F3600
G1 X62.940 Y107.940 E0.33367 F3600
G0 X63.430 Y108.430 F12000
G1 X161.570 Y108.430 E3.59056 F7200
G0 X161.570 Y108.848 F12000
G1 X63.430 Y108.848 E3.59056 F7200
G0 X63.430 Y109.266 F12000
G1 X161.570 Y109.266 E3.59056 F7200
G0 X161.570 Y109.684 F12000
G1 X63.430 Y109.684 E3.59056 F7200
G0 X63.430 Y110.102 F12000
G1 X161.570 Y110.102 E3.59056 F7200
G0 X161.570 Y110.520 F12000
G1 X63.430 Y110.520 E3.59056 F7200
G0 X63.430 Y110.938 F12000
G1 X161.570 Y110.938 E3.59056 F7200
G0 X161.570 Y111.356 F12000
G1 X63.430 Y111.356 E3.59056 F7200
G0 X63.430 Y111.774 F12000
G1 X161.570 Y111.774 E3.59056 F7200
G0 X161.570 Y112.192 F12000
G1 X63.430 Y112.192 E3.59056 F7200
G0 X63.430 Y112.610 F12000
G1 X161.570 Y112.610 E3.59056 F7200
G0 X161.570 Y113.028 F12000
G1 X63.430 Y113.028 E3.59056 F7200
G0 X63.430 Y113.446 F12000
G1 X161.570 Y113.446 E3.59056 F7200
G0 X161.570 Y113.864 F12000
G1 X63.430 Y113.864 E3.59056 F7200
G0 X63.430 Y114.282 F12000
G1 X161.570 Y114.282 E3.59056 F7200
G0 X161.570 Y114.700 F12000
G1 X63.430 Y114.700 E3.59056 F7200
G0 X63.430 Y115.118 F12000
G1 X161.570 Y115.118 E3.59056 F7200
G0 X161.570 Y115.536 F12000
G1 X63.430 Y115.536 E3.59056 F7200
G0 X63.430 Y115.954 F12000
G1 X161.570 Y115.954 E3.59056 F7200
G0 X161.570 Y116.372 F12000
G1 X63.430 Y116.372 E3.59056 F7200
G1 E-0.60000 F1800

;LAYER:9 Z=2.000
G0 Z2.200 F600
G0 X62.500 Y107.500 F12000
G1 Z2.000 F600
G1 E0.60000 F1800
G0 X62.500 Y107.500 F12000
G1 X162.500 Y107.500 E3.65861 F3600
G1 X162.500 Y117.500 E0.36586 F3600
G1 X62.500 Y117.500 E3.65861 F3600
G1 X62.500 Y107.500 E0.36586 F3600
G0 X62.940 Y107.940 F12000
G1 X162.060 Y107.940 E3.62642 F3600
G1 X162.060 Y117.060 E0.33367 F3600
G1 X62.940 Y117.060 E3.62642 F3600
G1 X62.940 Y107.940 E0.33367 F3600
G0 X63.430 Y108.430 F12000
G1 X161.570 Y108.430 E3.59056 F7200
G0 X161.570 Y108.848 F12000
G1 X63.430 Y108.848 E3.59056 F7200
G0 X63.430 Y109.266 F12000
G1 X161.570 Y109.266 E3.59056 F7200
G0 X161.570 Y109.684 F12000
G1 X63.430 Y109.684 E3.59056 F7200
G0 X63.430 Y110.102 F12000
G1 X161.570 Y110.102 E3.59056 F7200
G0 X161.570 Y110.520 F12000
G1 X63.430 Y110.520 E3.59056 F7200
G0 X63.430 Y110.938 F12000
G1 X161.570 Y110.938 E3.59056 F7200
G0 X161.570 Y111.356 F12000
G1 X63.430 Y111.356 E3.59056 F7200
G0 X63.430 Y111.774 F12000
G1 X161.570 Y111.774 E3.59056 F7200
G0 X161.570 Y112.192 F12000
G1 X63.430 Y112.192 E3.59056 F7200
G0 X63.430 Y112.610 F12000
G1 X161.570 Y112.610 E3.59056 F7200
G0 X161.570 Y113.028 F12000
G1 X63.430 Y113.028 E3.59056 F7200
G0 X63.430 Y113.446 F12000
G1 X161.570 Y113.446 E3.59056 F7200
G0 X161.570 Y113.864 F12000
G1 X63.430 Y113.864 E3.59056 F7200
G0 X63.430 Y114.282 F12000
G1 X161.570 Y114.282 E3.59056 F7200
G0 X161.570 Y114.700 F12000
G1 X63.430 Y114.700 E3.59056 F7200
G0 X63.430 Y115.118 F12000
G1 X161.570 Y115.118 E3.59056 F7200
G0 X161.570 Y115.536 F12000
G1 X63.430 Y115.536 E3.59056 F7200
G0 X63.430 Y115.954 F12000
G1 X161.570 Y115.954 E3.59056 F7200
G0 X161.570 Y116.372 F12000
G1 X63.430 Y116.372 E3.59056 F7200
G1 E-0.60000 F1800

;LAYER:10 Z=2.200
G0 Z2.400 F600
G0 X62.500 Y107.500 F12000
G1 Z2.200 F600
G1 E0.60000 F1800
G0 X62.500 Y107.500 F12000
G1 X162.500 Y107.500 E3.65861 F3600
G1 X162.500 Y117.500 E0.36586 F3600
G1 X62.500 Y117.500 E3.65861 F3600
G1 X62.500 Y107.500 E0.36586 F3600
G0 X62.940 Y107.940 F12000
G1 X162.060 Y107.940 E3.62642 F3600
G1 X162.060 Y117.060 E0.33367 F3600
G1 X62.940 Y117.060 E3.62642 F3600
G1 X62.940 Y107.940 E0.33367 F3600
G0 X63.430 Y108.430 F12000
G1 X161.570 Y108.430 E3.59056 F7200
G0 X161.570 Y108.848 F12000
G1 X63.430 Y108.848 E3.59056 F7200
G0 X63.430 Y109.266 F12000
G1 X161.570 Y109.266 E3.59056 F7200
G0 X161.570 Y109.684 F12000
G1 X63.430 Y109.684 E3.59056 F7200
G0 X63.430 Y110.102 F12000
G1 X161.570 Y110.102 E3.59056 F7200
G0 X161.570 Y110.520 F12000
G1 X63.430 Y110.520 E3.59056 F7200
G0 X63.430 Y110.938 F12000
G1 X161.570 Y110.938 E3.59056 F7200
G0 X161.570 Y111.356 F12000
G1 X63.430 Y111.356 E3.59056 F7200
G0 X63.430 Y111.774 F12000
G1 X161.570 Y111.774 E3.59056 F7200
G0 X161.570 Y112.192 F12000
G1 X63.430 Y112.192 E3.59056 F7200
G0 X63.430 Y112.610 F12000
G1 X161.570 Y112.610 E3.59056 F7200
G0 X161.570 Y113.028 F12000
G1 X63.430 Y113.028 E3.59056 F7200
G0 X63.430 Y113.446 F12000
G1 X161.570 Y113.446 E3.59056 F7200
G0 X161.570 Y113.864 F12000
G1 X63.430 Y113.864 E3.59056 F7200
G0 X63.430 Y114.282 F12000
G1 X161.570 Y114.282 E3.59056 F7200
G0 X161.570 Y114.700 F12000
G1 X63.430 Y114.700 E3.59056 F7200
G0 X63.430 Y115.118 F12000
G1 X161.570 Y115.118 E3.59056 F7200
G0 X161.570 Y115.536 F12000
G1 X63.430 Y115.536 E3.59056 F7200
G0 X63.430 Y115.954 F12000
G1 X161.570 Y115.954 E3.59056 F7200
G0 X161.570 Y116.372 F12000
G1 X63.430 Y116.372 E3.59056 F7200
G1 E-0.60000 F1800

;LAYER:11 Z=2.400
G0 Z2.600 F600
G0 X62.500 Y107.500 F12000
G1 Z2.400 F600
G1 E0.60000 F1800
G0 X62.500 Y107.500 F12000
G1 X162.500 Y107.500 E3.65861 F3600
G1 X162.500 Y117.500 E0.36586 F3600
G1 X62.500 Y117.500 E3.65861 F3600
G1 X62.500 Y107.500 E0.36586 F3600
G0 X62.940 Y107.940 F12000
G1 X162.060 Y107.940 E3.62642 F3600
G1 X162.060 Y117.060 E0.33367 F3600
G1 X62.940 Y117.060 E3.62642 F3600
G1 X62.940 Y107.940 E0.33367 F3600
G0 X63.430 Y108.430 F12000
G1 X161.570 Y108.430 E3.59056 F7200
G0 X161.570 Y108.848 F12000
G1 X63.430 Y108.848 E3.59056 F7200
G0 X63.430 Y109.266 F12000
G1 X161.570 Y109.266 E3.59056 F7200
G0 X161.570 Y109.684 F12000
G1 X63.430 Y109.684 E3.59056 F7200
G0 X63.430 Y110.102 F12000
G1 X161.570 Y110.102 E3.59056 F7200
G0 X161.570 Y110.520 F12000
G1 X63.430 Y110.520 E3.59056 F7200
G0 X63.430 Y110.938 F12000
G1 X161.570 Y110.938 E3.59056 F7200
G0 X161.570 Y111.356 F12000
G1 X63.430 Y111.356 E3.59056 F7200
G0 X63.430 Y111.774 F12000
G1 X161.570 Y111.774 E3.59056 F7200
G0 X161.570 Y112.192 F12000
G1 X63.430 Y112.192 E3.59056 F7200
G0 X63.430 Y112.610 F12000
G1 X161.570 Y112.610 E3.59056 F7200
G0 X161.570 Y113.028 F12000
G1 X63.430 Y113.028 E3.59056 F7200
G0 X63.430 Y113.446 F12000
G1 X161.570 Y113.446 E3.59056 F7200
G0 X161.570 Y113.864 F12000
G1 X63.430 Y113.864 E3.59056 F7200
G0 X63.430 Y114.282 F12000
G1 X161.570 Y114.282 E3.59056 F7200
G0 X161.570 Y114.700 F12000
G1 X63.430 Y114.700 E3.59056 F7200
G0 X63.430 Y115.118 F12000
G1 X161.570 Y115.118 E3.59056 F7200
G0 X161.570 Y115.536 F12000
G1 X63.430 Y115.536 E3.59056 F7200
G0 X63.430 Y115.954 F12000
G1 X161.570 Y115.954 E3.59056 F7200
G0 X161.570 Y116.372 F12000
G1 X63.430 Y116.372 E3.59056 F7200
G1 E-0.60000 F1800

;LAYER:12 Z=2.600
G0 Z2.800 F600
G0 X62.500 Y107.500 F12000
G1 Z2.600 F600
G1 E0.60000 F1800
G0 X62.500 Y107.500 F12000
G1 X162.500 Y107.500 E3.65861 F3600
G1 X162.500 Y117.500 E0.36586 F3600
G1 X62.500 Y117.500 E3.65861 F3600
G1 X62.500 Y107.500 E0.36586 F3600
G0 X62.940 Y107.940 F12000
G1 X162.060 Y107.940 E3.62642 F3600
G1 X162.060 Y117.060 E0.33367 F3600
G1 X62.940 Y117.060 E3.62642 F3600
G1 X62.940 Y107.940 E0.33367 F3600
G0 X63.430 Y108.430 F12000
G1 X161.570 Y108.430 E3.59056 F7200
G0 X161.570 Y108.848 F12000
G1 X63.430 Y108.848 E3.59056 F7200
G0 X63.430 Y109.266 F12000
G1 X161.570 Y109.266 E3.59056 F7200
G0 X161.570 Y109.684 F12000
G1 X63.430 Y109.684 E3.59056 F7200
G0 X63.430 Y110.102 F12000
G1 X161.570 Y110.102 E3.59056 F7200
G0 X161.570 Y110.520 F12000
G1 X63.430 Y110.520 E3.59056 F7200
G0 X63.430 Y110.938 F12000
G1 X161.570 Y110.938 E3.59056 F7200
G0 X161.570 Y111.356 F12000
G1 X63.430 Y111.356 E3.59056 F7200
G0 X63.430 Y111.774 F12000
G1 X161.570 Y111.774 E3.59056 F7200
G0 X161.570 Y112.192 F12000
G1 X63.430 Y112.192 E3.59056 F7200
G0 X63.430 Y112.610 F12000
G1 X161.570 Y112.610 E3.59056 F7200
G0 X161.570 Y113.028 F12000
G1 X63.430 Y113.028 E3.59056 F7200
G0 X63.430 Y113.446 F12000
G1 X161.570 Y113.446 E3.59056 F7200
G0 X161.570 Y113.864 F12000
G1 X63.430 Y113.864 E3.59056 F7200
G0 X63.430 Y114.282 F12000
G1 X161.570 Y114.282 E3.59056 F7200
G0 X161.570 Y114.700 F12000
G1 X63.430 Y114.700 E3.59056 F7200
G0 X63.430 Y115.118 F12000
G1 X161.570 Y115.118 E3.59056 F7200
G0 X161.570 Y115.536 F12000
G1 X63.430 Y115.536 E3.59056 F7200
G0 X63.430 Y115.954 F12000
G1 X161.570 Y115.954 E3.59056 F7200
G0 X161.570 Y116.372 F12000
G1 X63.430 Y116.372 E3.59056 F7200
G1 E-0.60000 F1800

;LAYER:13 Z=2.800
G0 Z3.000 F600
G0 X62.500 Y107.500 F12000
G1 Z2.800 F600
G1 E0.60000 F1800
G0 X62.500 Y107.500 F12000
G1 X162.500 Y107.500 E3.65861 F3600
G1 X162.500 Y117.500 E0.36586 F3600
G1 X62.500 Y117.500 E3.65861 F3600
G1 X62.500 Y107.500 E0.36586 F3600
G0 X62.940 Y107.940 F12000
G1 X162.060 Y107.940 E3.62642 F3600
G1 X162.060 Y117.060 E0.33367 F3600
G1 X62.940 Y117.060 E3.62642 F3600
G1 X62.940 Y107.940 E0.33367 F3600
G0 X63.430 Y108.430 F12000
G1 X161.570 Y108.430 E3.59056 F7200
G0 X161.570 Y108.848 F12000
G1 X63.430 Y108.848 E3.59056 F7200
G0 X63.430 Y109.266 F12000
G1 X161.570 Y109.266 E3.59056 F7200
G0 X161.570 Y109.684 F12000
G1 X63.430 Y109.684 E3.59056 F7200
G0 X63.430 Y110.102 F12000
G1 X161.570 Y110.102 E3.59056 F7200
G0 X161.570 Y110.520 F12000
G1 X63.430 Y110.520 E3.59056 F7200
G0 X63.430 Y110.938 F12000
G1 X161.570 Y110.938 E3.59056 F7200
G0 X161.570 Y111.356 F12000
G1 X63.430 Y111.356 E3.59056 F7200
G0 X63.430 Y111.774 F12000
G1 X161.570 Y111.774 E3.59056 F7200
G0 X161.570 Y112.192 F12000
G1 X63.430 Y112.192 E3.59056 F7200
G0 X63.430 Y112.610 F12000
G1 X161.570 Y112.610 E3.59056 F7200
G0 X161.570 Y113.028 F12000
G1 X63.430 Y113.028 E3.59056 F7200
G0 X63.430 Y113.446 F12000
G1 X161.570 Y113.446 E3.59056 F7200
G0 X161.570 Y113.864 F12000
G1 X63.430 Y113.864 E3.59056 F7200
G0 X63.430 Y114.282 F12000
G1 X161.570 Y114.282 E3.59056 F7200
G0 X161.570 Y114.700 F12000
G1 X63.430 Y114.700 E3.59056 F7200
G0 X63.430 Y115.118 F12000
G1 X161.570 Y115.118 E3.59056 F7200
G0 X161.570 Y115.536 F12000
G1 X63.430 Y115.536 E3.59056 F7200
G0 X63.430 Y115.954 F12000
G1 X161.570 Y115.954 E3.59056 F7200
G0 X161.570 Y116.372 F12000
G1 X63.430 Y116.372 E3.59056 F7200
G1 E-0.60000 F1800

;LAYER:14 Z=3.000
G0 Z3.200 F600
G0 X62.500 Y107.500 F12000
G1 Z3.000 F600
G1 E0.60000 F1800
G0 X62.500 Y107.500 F12000
G1 X162.500 Y107.500 E3.65861 F3600
G1 X162.500 Y117.500 E0.36586 F3600
G1 X62.500 Y117.500 E3.65861 F3600
G1 X62.500 Y107.500 E0.36586 F3600
G0 X62.940 Y107.940 F12000
G1 X162.060 Y107.940 E3.62642 F3600
G1 X162.060 Y117.060 E0.33367 F3600
G1 X62.940 Y117.060 E3.62642 F3600
G1 X62.940 Y107.940 E0.33367 F3600
G0 X63.430 Y108.430 F12000
G1 X161.570 Y108.430 E3.59056 F7200
G0 X161.570 Y108.848 F12000
G1 X63.430 Y108.848 E3.59056 F7200
G0 X63.430 Y109.266 F12000
G1 X161.570 Y109.266 E3.59056 F7200
G0 X161.570 Y109.684 F12000
G1 X63.430 Y109.684 E3.59056 F7200
G0 X63.430 Y110.102 F12000
G1 X161.570 Y110.102 E3.59056 F7200
G0 X161.570 Y110.520 F12000
G1 X63.430 Y110.520 E3.59056 F7200
G0 X63.430 Y110.938 F12000
G1 X161.570 Y110.938 E3.59056 F7200
G0 X161.570 Y111.356 F12000
G1 X63.430 Y111.356 E3.59056 F7200
G0 X63.430 Y111.774 F12000
G1 X161.570 Y111.774 E3.59056 F7200
G0 X161.570 Y112.192 F12000
G1 X63.430 Y112.192 E3.59056 F7200
G0 X63.430 Y112.610 F12000
G1 X161.570 Y112.610 E3.59056 F7200
G0 X161.570 Y113.028 F12000
G1 X63.430 Y113.028 E3.59056 F7200
G0 X63.430 Y113.446 F12000
G1 X161.570 Y113.446 E3.59056 F7200
G0 X161.570 Y113.864 F12000
G1 X63.430 Y113.864 E3.59056 F7200
G0 X63.430 Y114.282 F12000
G1 X161.570 Y114.282 E3.59056 F7200
G0 X161.570 Y114.700 F12000
G1 X63.430 Y114.700 E3.59056 F7200
G0 X63.430 Y115.118 F12000
G1 X161.570 Y115.118 E3.59056 F7200
G0 X161.570 Y115.536 F12000
G1 X63.430 Y115.536 E3.59056 F7200
G0 X63.430 Y115.954 F12000
G1 X161.570 Y115.954 E3.59056 F7200
G0 X161.570 Y116.372 F12000
G1 X63.430 Y116.372 E3.59056 F7200
G1 E-0.60000 F1800

;LAYER:15 Z=3.200
G0 Z3.400 F600
G0 X62.500 Y107.500 F12000
G1 Z3.200 F600
G1 E0.60000 F1800
G0 X62.500 Y107.500 F12000
G1 X162.500 Y107.500 E3.65861 F3600
G1 X162.500 Y117.500 E0.36586 F3600
G1 X62.500 Y117.500 E3.65861 F3600
G1 X62.500 Y107.500 E0.36586 F3600
G0 X62.940 Y107.940 F12000
G1 X162.060 Y107.940 E3.62642 F3600
G1 X162.060 Y117.060 E0.33367 F3600
G1 X62.940 Y117.060 E3.62642 F3600
G1 X62.940 Y107.940 E0.33367 F3600
G0 X63.430 Y108.430 F12000
G1 X161.570 Y108.430 E3.59056 F7200
G0 X161.570 Y108.848 F12000
G1 X63.430 Y108.848 E3.59056 F7200
G0 X63.430 Y109.266 F12000
G1 X161.570 Y109.266 E3.59056 F7200
G0 X161.570 Y109.684 F12000
G1 X63.430 Y109.684 E3.59056 F7200
G0 X63.430 Y110.102 F12000
G1 X161.570 Y110.102 E3.59056 F7200
G0 X161.570 Y110.520 F12000
G1 X63.430 Y110.520 E3.59056 F7200
G0 X63.430 Y110.938 F12000
G1 X161.570 Y110.938 E3.59056 F7200
G0 X161.570 Y111.356 F12000
G1 X63.430 Y111.356 E3.59056 F7200
G0 X63.430 Y111.774 F12000
G1 X161.570 Y111.774 E3.59056 F7200
G0 X161.570 Y112.192 F12000
G1 X63.430 Y112.192 E3.59056 F7200
G0 X63.430 Y112.610 F12000
G1 X161.570 Y112.610 E3.59056 F7200
G0 X161.570 Y113.028 F12000
G1 X63.430 Y113.028 E3.59056 F7200
G0 X63.430 Y113.446 F12000
G1 X161.570 Y113.446 E3.59056 F7200
G0 X161.570 Y113.864 F12000
G1 X63.430 Y113.864 E3.59056 F7200
G0 X63.430 Y114.282 F12000
G1 X161.570 Y114.282 E3.59056 F7200
G0 X161.570 Y114.700 F12000
G1 X63.430 Y114.700 E3.59056 F7200
G0 X63.430 Y115.118 F12000
G1 X161.570 Y115.118 E3.59056 F7200
G0 X161.570 Y115.536 F12000
G1 X63.430 Y115.536 E3.59056 F7200
G0 X63.430 Y115.954 F12000
G1 X161.570 Y115.954 E3.59056 F7200
G0 X161.570 Y116.372 F12000
G1 X63.430 Y116.372 E3.59056 F7200
G1 E-0.60000 F1800

;LAYER:16 Z=3.400
G0 Z3.600 F600
G0 X62.500 Y107.500 F12000
G1 Z3.400 F600
G1 E0.60000 F1800
G0 X62.500 Y107.500 F12000
G1 X162.500 Y107.500 E3.65861 F3600
G1 X162.500 Y117.500 E0.36586 F3600
G1 X62.500 Y117.500 E3.65861 F3600
G1 X62.500 Y107.500 E0.36586 F3600
G0 X62.940 Y107.940 F12000
G1 X162.060 Y107.940 E3.62642 F3600
G1 X162.060 Y117.060 E0.33367 F3600
G1 X62.940 Y117.060 E3.62642 F3600
G1 X62.940 Y107.940 E0.33367 F3600
G0 X63.430 Y108.430 F12000
G1 X161.570 Y108.430 E3.59056 F7200
G0 X161.570 Y108.848 F12000
G1 X63.430 Y108.848 E3.59056 F7200
G0 X63.430 Y109.266 F12000
G1 X161.570 Y109.266 E3.59056 F7200
G0 X161.570 Y109.684 F12000
G1 X63.430 Y109.684 E3.59056 F7200
G0 X63.430 Y110.102 F12000
G1 X161.570 Y110.102 E3.59056 F7200
G0 X161.570 Y110.520 F12000
G1 X63.430 Y110.520 E3.59056 F7200
G0 X63.430 Y110.938 F12000
G1 X161.570 Y110.938 E3.59056 F7200
G0 X161.570 Y111.356 F12000
G1 X63.430 Y111.356 E3.59056 F7200
G0 X63.430 Y111.774 F12000
G1 X161.570 Y111.774 E3.59056 F7200
G0 X161.570 Y112.192 F12000
G1 X63.430 Y112.192 E3.59056 F7200
G0 X63.430 Y112.610 F12000
G1 X161.570 Y112.610 E3.59056 F7200
G0 X161.570 Y113.028 F12000
G1 X63.430 Y113.028 E3.59056 F7200
G0 X63.430 Y113.446 F12000
G1 X161.570 Y113.446 E3.59056 F7200
G0 X161.570 Y113.864 F12000
G1 X63.430 Y113.864 E3.59056 F7200
G0 X63.430 Y114.282 F12000
G1 X161.570 Y114.282 E3.59056 F7200
G0 X161.570 Y114.700 F12000
G1 X63.430 Y114.700 E3.59056 F7200
G0 X63.430 Y115.118 F12000
G1 X161.570 Y115.118 E3.59056 F7200
G0 X161.570 Y115.536 F12000
G1 X63.430 Y115.536 E3.59056 F7200
G0 X63.430 Y115.954 F12000
G1 X161.570 Y115.954 E3.59056 F7200
G0 X161.570 Y116.372 F12000
G1 X63.430 Y116.372 E3.59056 F7200
G1 E-0.60000 F1800

;LAYER:17 Z=3.600
G0 Z3.800 F600
G0 X62.500 Y107.500 F12000
G1 Z3.600 F600
G1 E0.60000 F1800
G0 X62.500 Y107.500 F12000
G1 X162.500 Y107.500 E3.65861 F3600
G1 X162.500 Y117.500 E0.36586 F3600
G1 X62.500 Y117.500 E3.65861 F3600
G1 X62.500 Y107.500 E0.36586 F3600
G0 X62.940 Y107.940 F12000
G1 X162.060 Y107.940 E3.62642 F3600
G1 X162.060 Y117.060 E0.33367 F3600
G1 X62.940 Y117.060 E3.62642 F3600
G1 X62.940 Y107.940 E0.33367 F3600
G0 X63.430 Y108.430 F12000
G1 X161.570 Y108.430 E3.59056 F7200
G0 X161.570 Y108.848 F12000
G1 X63.430 Y108.848 E3.59056 F7200
G0 X63.430 Y109.266 F12000
G1 X161.570 Y109.266 E3.59056 F7200
G0 X161.570 Y109.684 F12000
G1 X63.430 Y109.684 E3.59056 F7200
G0 X63.430 Y110.102 F12000
G1 X161.570 Y110.102 E3.59056 F7200
G0 X161.570 Y110.520 F12000
G1 X63.430 Y110.520 E3.59056 F7200
G0 X63.430 Y110.938 F12000
G1 X161.570 Y110.938 E3.59056 F7200
G0 X161.570 Y111.356 F12000
G1 X63.430 Y111.356 E3.59056 F7200
G0 X63.430 Y111.774 F12000
G1 X161.570 Y111.774 E3.59056 F7200
G0 X161.570 Y112.192 F12000
G1 X63.430 Y112.192 E3.59056 F7200
G0 X63.430 Y112.610 F12000
G1 X161.570 Y112.610 E3.59056 F7200
G0 X161.570 Y113.028 F12000
G1 X63.430 Y113.028 E3.59056 F7200
G0 X63.430 Y113.446 F12000
G1 X161.570 Y113.446 E3.59056 F7200
G0 X161.570 Y113.864 F12000
G1 X63.430 Y113.864 E3.59056 F7200
G0 X63.430 Y114.282 F12000
G1 X161.570 Y114.282 E3.59056 F7200
G0 X161.570 Y114.700 F12000
G1 X63.430 Y114.700 E3.59056 F7200
G0 X63.430 Y115.118 F12000
G1 X161.570 Y115.118 E3.59056 F7200
G0 X161.570 Y115.536 F12000
G1 X63.430 Y115.536 E3.59056 F7200
G0 X63.430 Y115.954 F12000
G1 X161.570 Y115.954 E3.59056 F7200
G0 X161.570 Y116.372 F12000
G1 X63.430 Y116.372 E3.59056 F7200
G1 E-0.60000 F1800

;LAYER:18 Z=3.800
G0 Z4.000 F600
G0 X62.500 Y107.500 F12000
G1 Z3.800 F600
G1 E0.60000 F1800
G0 X62.500 Y107.500 F12000
G1 X162.500 Y107.500 E3.65861 F3600
G1 X162.500 Y117.500 E0.36586 F3600
G1 X62.500 Y117.500 E3.65861 F3600
G1 X62.500 Y107.500 E0.36586 F3600
G0 X62.940 Y107.940 F12000
G1 X162.060 Y107.940 E3.62642 F3600
G1 X162.060 Y117.060 E0.33367 F3600
G1 X62.940 Y117.060 E3.62642 F3600
G1 X62.940 Y107.940 E0.33367 F3600
G0 X63.430 Y108.430 F12000
G1 X161.570 Y108.430 E3.59056 F7200
G0 X161.570 Y108.848 F12000
G1 X63.430 Y108.848 E3.59056 F7200
G0 X63.430 Y109.266 F12000
G1 X161.570 Y109.266 E3.59056 F7200
G0 X161.570 Y109.684 F12000
G1 X63.430 Y109.684 E3.59056 F7200
G0 X63.430 Y110.102 F12000
G1 X161.570 Y110.102 E3.59056 F7200
G0 X161.570 Y110.520 F12000
G1 X63.430 Y110.520 E3.59056 F7200
G0 X63.430 Y110.938 F12000
G1 X161.570 Y110.938 E3.59056 F7200
G0 X161.570 Y111.356 F12000
G1 X63.430 Y111.356 E3.59056 F7200
G0 X63.430 Y111.774 F12000
G1 X161.570 Y111.774 E3.59056 F7200
G0 X161.570 Y112.192 F12000
G1 X63.430 Y112.192 E3.59056 F7200
G0 X63.430 Y112.610 F12000
G1 X161.570 Y112.610 E3.59056 F7200
G0 X161.570 Y113.028 F12000
G1 X63.430 Y113.028 E3.59056 F7200
G0 X63.430 Y113.446 F12000
G1 X161.570 Y113.446 E3.59056 F7200
G0 X161.570 Y113.864 F12000
G1 X63.430 Y113.864 E3.59056 F7200
G0 X63.430 Y114.282 F12000
G1 X161.570 Y114.282 E3.59056 F7200
G0 X161.570 Y114.700 F12000
G1 X63.430 Y114.700 E3.59056 F7200
G0 X63.430 Y115.118 F12000
G1 X161.570 Y115.118 E3.59056 F7200
G0 X161.570 Y115.536 F12000
G1 X63.430 Y115.536 E3.59056 F7200
G0 X63.430 Y115.954 F12000
G1 X161.570 Y115.954 E3.59056 F7200
G0 X161.570 Y116.372 F12000
G1 X63.430 Y116.372 E3.59056 F7200
G1 E-0.60000 F1800

;LAYER:19 Z=4.000
G0 Z4.200 F600
G0 X62.500 Y107.500 F12000
G1 Z4.000 F600
G1 E0.60000 F1800
G0 X62.500 Y107.500 F12000
G1 X162.500 Y107.500 E3.65861 F3600
G1 X162.500 Y117.500 E0.36586 F3600
G1 X62.500 Y117.500 E3.65861 F3600
G1 X62.500 Y107.500 E0.36586 F3600
G0 X62.940 Y107.940 F12000
G1 X162.060 Y107.940 E3.62642 F3600
G1 X162.060 Y117.060 E0.33367 F3600
G1 X62.940 Y117.060 E3.62642 F3600
G1 X62.940 Y107.940 E0.33367 F3600
G0 X63.430 Y108.430 F12000
G1 X161.570 Y108.430 E3.59056 F7200
G0 X161.570 Y108.848 F12000
G1 X63.430 Y108.848 E3.59056 F7200
G0 X63.430 Y109.266 F12000
G1 X161.570 Y109.266 E3.59056 F7200
G0 X161.570 Y109.684 F12000
G1 X63.430 Y109.684 E3.59056 F7200
G0 X63.430 Y110.102 F12000
G1 X161.570 Y110.102 E3.59056 F7200
G0 X161.570 Y110.520 F12000
G1 X63.430 Y110.520 E3.59056 F7200
G0 X63.430 Y110.938 F12000
G1 X161.570 Y110.938 E3.59056 F7200
G0 X161.570 Y111.356 F12000
G1 X63.430 Y111.356 E3.59056 F7200
G0 X63.430 Y111.774 F12000
G1 X161.570 Y111.774 E3.59056 F7200
G0 X161.570 Y112.192 F12000
G1 X63.430 Y112.192 E3.59056 F7200
G0 X63.430 Y112.610 F12000
G1 X161.570 Y112.610 E3.59056 F7200
G0 X161.570 Y113.028 F12000
G1 X63.430 Y113.028 E3.59056 F7200
G0 X63.430 Y113.446 F12000
G1 X161.570 Y113.446 E3.59056 F7200
G0 X161.570 Y113.864 F12000
G1 X63.430 Y113.864 E3.59056 F7200
G0 X63.430 Y114.282 F12000
G1 X161.570 Y114.282 E3.59056 F7200
G0 X161.570 Y114.700 F12000
G1 X63.430 Y114.700 E3.59056 F7200
G0 X63.430 Y115.118 F12000
G1 X161.570 Y115.118 E3.59056 F7200
G0 X161.570 Y115.536 F12000
G1 X63.430 Y115.536 E3.59056 F7200
G0 X63.430 Y115.954 F12000
G1 X161.570 Y115.954 E3.59056 F7200
G0 X161.570 Y116.372 F12000
G1 X63.430 Y116.372 E3.59056 F7200
G1 E-0.60000 F1800

;LAYER:20 Z=4.200
G0 Z4.400 F600
G0 X62.500 Y107.500 F12000
G1 Z4.200 F600
G1 E0.60000 F1800
G0 X62.500 Y107.500 F12000
G1 X162.500 Y107.500 E3.65861 F3600
G1 X162.500 Y117.500 E0.36586 F3600
G1 X62.500 Y117.500 E3.65861 F3600
G1 X62.500 Y107.500 E0.36586 F3600
G0 X62.940 Y107.940 F12000
G1 X162.060 Y107.940 E3.62642 F3600
G1 X162.060 Y117.060 E0.33367 F3600
G1 X62.940 Y117.060 E3.62642 F3600
G1 X62.940 Y107.940 E0.33367 F3600
G0 X63.430 Y108.430 F12000
G1 X161.570 Y108.430 E3.59056 F7200
G0 X161.570 Y108.848 F12000
G1 X63.430 Y108.848 E3.59056 F7200
G0 X63.430 Y109.266 F12000
G1 X161.570 Y109.266 E3.59056 F7200
G0 X161.570 Y109.684 F12000
G1 X63.430 Y109.684 E3.59056 F7200
G0 X63.430 Y110.102 F12000
G1 X161.570 Y110.102 E3.59056 F7200
G0 X161.570 Y110.520 F12000
G1 X63.430 Y110.520 E3.59056 F7200
G0 X63.430 Y110.938 F12000
G1 X161.570 Y110.938 E3.59056 F7200
G0 X161.570 Y111.356 F12000
G1 X63.430 Y111.356 E3.59056 F7200
G0 X63.430 Y111.774 F12000
G1 X161.570 Y111.774 E3.59056 F7200
G0 X161.570 Y112.192 F12000
G1 X63.430 Y112.192 E3.59056 F7200
G0 X63.430 Y112.610 F12000
G1 X161.570 Y112.610 E3.59056 F7200
G0 X161.570 Y113.028 F12000
G1 X63.430 Y113.028 E3.59056 F7200
G0 X63.430 Y113.446 F12000
G1 X161.570 Y113.446 E3.59056 F7200
G0 X161.570 Y113.864 F12000
G1 X63.430 Y113.864 E3.59056 F7200
G0 X63.430 Y114.282 F12000
G1 X161.570 Y114.282 E3.59056 F7200
G0 X161.570 Y114.700 F12000
G1 X63.430 Y114.700 E3.59056 F7200
G0 X63.430 Y115.118 F12000
G1 X161.570 Y115.118 E3.59056 F7200
G0 X161.570 Y115.536 F12000
G1 X63.430 Y115.536 E3.59056 F7200
G0 X63.430 Y115.954 F12000
G1 X161.570 Y115.954 E3.59056 F7200
G0 X161.570 Y116.372 F12000
G1 X63.430 Y116.372 E3.59056 F7200
G1 E-0.60000 F1800

;LAYER:21 Z=4.400
G0 Z4.600 F600
G0 X62.500 Y107.500 F12000
G1 Z4.400 F600
G1 E0.60000 F1800
G0 X62.500 Y107.500 F12000
G1 X162.500 Y107.500 E3.65861 F3600
G1 X162.500 Y117.500 E0.36586 F3600
G1 X62.500 Y117.500 E3.65861 F3600
G1 X62.500 Y107.500 E0.36586 F3600
G0 X62.940 Y107.940 F12000
G1 X162.060 Y107.940 E3.62642 F3600
G1 X162.060 Y117.060 E0.33367 F3600
G1 X62.940 Y117.060 E3.62642 F3600
G1 X62.940 Y107.940 E0.33367 F3600
G0 X63.430 Y108.430 F12000
G1 X161.570 Y108.430 E3.59056 F7200
G0 X161.570 Y108.848 F12000
G1 X63.430 Y108.848 E3.59056 F7200
G0 X63.430 Y109.266 F12000
G1 X161.570 Y109.266 E3.59056 F7200
G0 X161.570 Y109.684 F12000
G1 X63.430 Y109.684 E3.59056 F7200
G0 X63.430 Y110.102 F12000
G1 X161.570 Y110.102 E3.59056 F7200
G0 X161.570 Y110.520 F12000
G1 X63.430 Y110.520 E3.59056 F7200
G0 X63.430 Y110.938 F12000
G1 X161.570 Y110.938 E3.59056 F7200
G0 X161.570 Y111.356 F12000
G1 X63.430 Y111.356 E3.59056 F7200
G0 X63.430 Y111.774 F12000
G1 X161.570 Y111.774 E3.59056 F7200
G0 X161.570 Y112.192 F12000
G1 X63.430 Y112.192 E3.59056 F7200
G0 X63.430 Y112.610 F12000
G1 X161.570 Y112.610 E3.59056 F7200
G0 X161.570 Y113.028 F12000
G1 X63.430 Y113.028 E3.59056 F7200
G0 X63.430 Y113.446 F12000
G1 X161.570 Y113.446 E3.59056 F7200
G0 X161.570 Y113.864 F12000
G1 X63.430 Y113.864 E3.59056 F7200
G0 X63.430 Y114.282 F12000
G1 X161.570 Y114.282 E3.59056 F7200
G0 X161.570 Y114.700 F12000
G1 X63.430 Y114.700 E3.59056 F7200
G0 X63.430 Y115.118 F12000
G1 X161.570 Y115.118 E3.59056 F7200
G0 X161.570 Y115.536 F12000
G1 X63.430 Y115.536 E3.59056 F7200
G0 X63.430 Y115.954 F12000
G1 X161.570 Y115.954 E3.59056 F7200
G0 X161.570 Y116.372 F12000
G1 X63.430 Y116.372 E3.59056 F7200
G1 E-0.60000 F1800

;LAYER:22 Z=4.600
G0 Z4.800 F600
G0 X62.500 Y107.500 F12000
G1 Z4.600 F600
G1 E0.60000 F1800
G0 X62.500 Y107.500 F12000
G1 X162.500 Y107.500 E3.65861 F3600
G1 X162.500 Y117.500 E0.36586 F3600
G1 X62.500 Y117.500 E3.65861 F3600
G1 X62.500 Y107.500 E0.36586 F3600
G0 X62.940 Y107.940 F12000
G1 X162.060 Y107.940 E3.62642 F3600
G1 X162.060 Y117.060 E0.33367 F3600
G1 X62.940 Y117.060 E3.62642 F3600
G1 X62.940 Y107.940 E0.33367 F3600
G0 X63.430 Y108.430 F12000
G1 X161.570 Y108.430 E3.59056 F7200
G0 X161.570 Y108.848 F12000
G1 X63.430 Y108.848 E3.59056 F7200
G0 X63.430 Y109.266 F12000
G1 X161.570 Y109.266 E3.59056 F7200
G0 X161.570 Y109.684 F12000
G1 X63.430 Y109.684 E3.59056 F7200
G0 X63.430 Y110.102 F12000
G1 X161.570 Y110.102 E3.59056 F7200
G0 X161.570 Y110.520 F12000
G1 X63.430 Y110.520 E3.59056 F7200
G0 X63.430 Y110.938 F12000
G1 X161.570 Y110.938 E3.59056 F7200
G0 X161.570 Y111.356 F12000
G1 X63.430 Y111.356 E3.59056 F7200
G0 X63.430 Y111.774 F12000
G1 X161.570 Y111.774 E3.59056 F7200
G0 X161.570 Y112.192 F12000
G1 X63.430 Y112.192 E3.59056 F7200
G0 X63.430 Y112.610 F12000
G1 X161.570 Y112.610 E3.59056 F7200
G0 X161.570 Y113.028 F12000
G1 X63.430 Y113.028 E3.59056 F7200
G0 X63.430 Y113.446 F12000
G1 X161.570 Y113.446 E3.59056 F7200
G0 X161.570 Y113.864 F12000
G1 X63.430 Y113.864 E3.59056 F7200
G0 X63.430 Y114.282 F12000
G1 X161.570 Y114.282 E3.59056 F7200
G0 X161.570 Y114.700 F12000
G1 X63.430 Y114.700 E3.59056 F7200
G0 X63.430 Y115.118 F12000
G1 X161.570 Y115.118 E3.59056 F7200
G0 X161.570 Y115.536 F12000
G1 X63.430 Y115.536 E3.59056 F7200
G0 X63.430 Y115.954 F12000
G1 X161.570 Y115.954 E3.59056 F7200
G0 X161.570 Y116.372 F12000
G1 X63.430 Y116.372 E3.59056 F7200
G1 E-0.60000 F1800

;LAYER:23 Z=4.800
G0 Z5.000 F600
G0 X62.500 Y107.500 F12000
G1 Z4.800 F600
G1 E0.60000 F1800
G0 X62.500 Y107.500 F12000
G1 X162.500 Y107.500 E3.65861 F3600
G1 X162.500 Y117.500 E0.36586 F3600
G1 X62.500 Y117.500 E3.65861 F3600
G1 X62.500 Y107.500 E0.36586 F3600
G0 X62.940 Y107.940 F12000
G1 X162.060 Y107.940 E3.62642 F3600
G1 X162.060 Y117.060 E0.33367 F3600
G1 X62.940 Y117.060 E3.62642 F3600
G1 X62.940 Y107.940 E0.33367 F3600
G0 X63.430 Y108.430 F12000
G1 X161.570 Y108.430 E3.59056 F7200
G0 X161.570 Y108.848 F12000
G1 X63.430 Y108.848 E3.59056 F7200
G0 X63.430 Y109.266 F12000
G1 X161.570 Y109.266 E3.59056 F7200
G0 X161.570 Y109.684 F12000
G1 X63.430 Y109.684 E3.59056 F7200
G0 X63.430 Y110.102 F12000
G1 X161.570 Y110.102 E3.59056 F7200
G0 X161.570 Y110.520 F12000
G1 X63.430 Y110.520 E3.59056 F7200
G0 X63.430 Y110.938 F12000
G1 X161.570 Y110.938 E3.59056 F7200
G0 X161.570 Y111.356 F12000
G1 X63.430 Y111.356 E3.59056 F7200
G0 X63.430 Y111.774 F12000
G1 X161.570 Y111.774 E3.59056 F7200
G0 X161.570 Y112.192 F12000
G1 X63.430 Y112.192 E3.59056 F7200
G0 X63.430 Y112.610 F12000
G1 X161.570 Y112.610 E3.59056 F7200
G0 X161.570 Y113.028 F12000
G1 X63.430 Y113.028 E3.59056 F7200
G0 X63.430 Y113.446 F12000
G1 X161.570 Y113.446 E3.59056 F7200
G0 X161.570 Y113.864 F12000
G1 X63.430 Y113.864 E3.59056 F7200
G0 X63.430 Y114.282 F12000
G1 X161.570 Y114.282 E3.59056 F7200
G0 X161.570 Y114.700 F12000
G1 X63.430 Y114.700 E3.59056 F7200
G0 X63.430 Y115.118 F12000
G1 X161.570 Y115.118 E3.59056 F7200
G0 X161.570 Y115.536 F12000
G1 X63.430 Y115.536 E3.59056 F7200
G0 X63.430 Y115.954 F12000
G1 X161.570 Y115.954 E3.59056 F7200
G0 X161.570 Y116.372 F12000
G1 X63.430 Y116.372 E3.59056 F7200
G1 E-0.60000 F1800

;LAYER:24 Z=5.000
G0 Z5.200 F600
G0 X62.500 Y107.500 F12000
G1 Z5.000 F600
G1 E0.60000 F1800
G0 X62.500 Y107.500 F12000
G1 X162.500 Y107.500 E3.65861 F3600
G1 X162.500 Y117.500 E0.36586 F3600
G1 X62.500 Y117.500 E3.65861 F3600
G1 X62.500 Y107.500 E0.36586 F3600
G0 X62.940 Y107.940 F12000
G1 X162.060 Y107.940 E3.62642 F3600
G1 X162.060 Y117.060 E0.33367 F3600
G1 X62.940 Y117.060 E3.62642 F3600
G1 X62.940 Y107.940 E0.33367 F3600
G0 X63.430 Y108.430 F12000
G1 X161.570 Y108.430 E3.59056 F7200
G0 X161.570 Y108.848 F12000
G1 X63.430 Y108.848 E3.59056 F7200
G0 X63.430 Y109.266 F12000
G1 X161.570 Y109.266 E3.59056 F7200
G0 X161.570 Y109.684 F12000
G1 X63.430 Y109.684 E3.59056 F7200
G0 X63.430 Y110.102 F12000
G1 X161.570 Y110.102 E3.59056 F7200
G0 X161.570 Y110.520 F12000
G1 X63.430 Y110.520 E3.59056 F7200
G0 X63.430 Y110.938 F12000
G1 X161.570 Y110.938 E3.59056 F7200
G0 X161.570 Y111.356 F12000
G1 X63.430 Y111.356 E3.59056 F7200
G0 X63.430 Y111.774 F12000
G1 X161.570 Y111.774 E3.59056 F7200
G0 X161.570 Y112.192 F12000
G1 X63.430 Y112.192 E3.59056 F7200
G0 X63.430 Y112.610 F12000
G1 X161.570 Y112.610 E3.59056 F7200
G0 X161.570 Y113.028 F12000
G1 X63.430 Y113.028 E3.59056 F7200
G0 X63.430 Y113.446 F12000
G1 X161.570 Y113.446 E3.59056 F7200
G0 X161.570 Y113.864 F12000
G1 X63.430 Y113.864 E3.59056 F7200
G0 X63.430 Y114.282 F12000
G1 X161.570 Y114.282 E3.59056 F7200
G0 X161.570 Y114.700 F12000
G1 X63.430 Y114.700 E3.59056 F7200
G0 X63.430 Y115.118 F12000
G1 X161.570 Y115.118 E3.59056 F7200
G0 X161.570 Y115.536 F12000
G1 X63.430 Y115.536 E3.59056 F7200
G0 X63.430 Y115.954 F12000
G1 X161.570 Y115.954 E3.59056 F7200
G0 X161.570 Y116.372 F12000
G1 X63.430 Y116.372 E3.59056 F7200
G1 E-0.60000 F1800

G1 E-1.5 F1800
G0 Z15.000 F600
G0 X30 Y30 F12000
FORGE_PRINT_END_ENV
M84
;EST_LAYERS:25
