; ForgeOS G3 bar v7 — MACHINE-FLAT ZERO IRONING (monotonic, s=w, Q-limited)
; TARGET_LENGTH_MM:100.500  (CAD length; use --length to compensate shrink/short)
; FL_W:0.44 FL_FLOW:1.00 FL_SPD:30 SPACING_RATIO:1.000 STEP:0.440mm MONO=True
; FLAT_RULE: e_area = spacing*h; flow*line_w = spacing; no ironing; see docs/MACHINE_FLAT_ZERO_IRON.md
; UPPER_SPD:120 TOP_SPD:80
; RETRACT:1.15mm @40mm/s WIPE:1.40mm ZHOP:0.25 PA:0.0320

FORGE_PRINT_START_ENV BED=65.00 EXTRUDER=214.00 SOAK=3.00
M83
G90
G92 E0
SET_PRESSURE_ADVANCE ADVANCE=0.0320 SMOOTH_TIME=0.030
FORGE_FLAT_SET LINE_W=0.440 FLOW=1.000 PA=0.0320 Q_MAX=12.0
FORGE_FLAT_SURFACE_MODE ROLE=first
M106 S0
M221 S100 ; first-layer flow percent
; purge already in FORGE_PRINT_START_ENV (FORGE_PURGE) — extra short purge near part
FORGE_PURGE X=20 Y=100 LEN=40 E=5 Z=0.30

; brim (side-by-side pitch)
G0 Z0.280 F600
G0 X60.490 Y104.740 F15000
G1 X164.510 Y104.740 E5.32797 F1800
G1 X164.510 Y120.260 E0.79494 F1800
G1 X60.490 Y120.260 E5.32797 F1800
G1 X60.490 Y104.740 E0.79494 F1800
; brim hop
G1 X60.4900 Y106.1400 E-0.09200 F4800
G1 E-1.150 F2400
G0 Z0.530 F600
; travel+unretract
G0 X60.9300 Y105.1800 F15000
G0 Z0.280 F600
G1 E1.150 F1800
G1 X164.070 Y105.180 E5.28289 F1800
G1 X164.070 Y119.820 E0.74987 F1800
G1 X60.930 Y119.820 E5.28289 F1800
G1 X60.930 Y105.180 E0.74987 F1800
; brim hop
G1 X60.9300 Y106.5800 E-0.09200 F4800
G1 E-1.150 F2400
G0 Z0.530 F600
; travel+unretract
G0 X61.3700 Y105.6200 F15000
G0 Z0.280 F600
G1 E1.150 F1800
G1 X163.630 Y105.620 E5.23782 F1800
G1 X163.630 Y119.380 E0.70480 F1800
G1 X61.370 Y119.380 E5.23782 F1800
G1 X61.370 Y105.620 E0.70480 F1800
; brim hop
G1 X61.3700 Y107.0200 E-0.09200 F4800
G1 E-1.150 F2400
G0 Z0.530 F600
; travel+unretract
G0 X61.8100 Y106.0600 F15000
G0 Z0.280 F600
G1 E1.150 F1800
G1 X163.190 Y106.060 E5.19275 F1800
G1 X163.190 Y118.940 E0.65972 F1800
G1 X61.810 Y118.940 E5.19275 F1800
G1 X61.810 Y106.060 E0.65972 F1800
; end brim
G1 X61.8100 Y107.4600 E-0.09200 F4800
G1 E-1.150 F2400
G0 Z0.530 F600
FORGE_FLAT_SURFACE_MODE ROLE=first

;LAYER:0 Z=0.280 lw=0.44 flow=1.00 step=0.440 mono=True isp=1800
; layer start
G0 X62.2500 Y106.5000 F15000
G0 Z0.280 F600
G1 E1.150 F1800
G1 X162.750 Y106.500 E5.14767 F1800
G1 X162.750 Y118.500 E0.61465 F1800
G1 X62.250 Y118.500 E5.14767 F1800
G1 X62.250 Y106.500 E0.61465 F1800
; peri
G1 X62.2500 Y107.9000 E-0.09200 F4800
G1 E-1.150 F2400
G0 Z0.530 F600
; travel+unretract
G0 X62.6900 Y106.9400 F15000
G0 Z0.280 F600
G1 E1.150 F1800
G1 X162.310 Y106.940 E5.10260 F1800
G1 X162.310 Y118.060 E0.56957 F1800
G1 X62.690 Y118.060 E5.10260 F1800
G1 X62.690 Y106.940 E0.56957 F1800
; peri
G1 X62.6900 Y108.3400 E-0.09200 F4800
G1 E-1.150 F2400
G0 Z0.530 F600
; travel+unretract
G0 X63.1300 Y107.3800 F15000
G0 Z0.280 F600
G1 E1.150 F1800
G1 X161.870 Y107.380 E5.05752 F1800
G1 X161.870 Y117.620 E0.52450 F1800
G1 X63.130 Y117.620 E5.05752 F1800
G1 X63.130 Y107.380 E0.52450 F1800
; infill
G1 X63.1300 Y108.7800 E-0.09200 F4800
G1 E-1.150 F2400
G0 Z0.530 F600
; travel+unretract
G0 X63.5700 Y107.8200 F15000
G0 Z0.280 F600
G1 E1.150 F1800
G1 X161.430 Y107.820 E5.01245 F1800
; infill
G1 X160.0300 Y107.8200 E-0.09200 F4800
G1 E-1.150 F2400
G0 Z0.530 F600
; travel+unretract
G0 X63.5700 Y108.2600 F15000
G0 Z0.280 F600
G1 E1.150 F1800
G1 X161.430 Y108.260 E5.01245 F1800
; infill
G1 X160.0300 Y108.2600 E-0.09200 F4800
G1 E-1.150 F2400
G0 Z0.530 F600
; travel+unretract
G0 X63.5700 Y108.7000 F15000
G0 Z0.280 F600
G1 E1.150 F1800
G1 X161.430 Y108.700 E5.01245 F1800
; infill
G1 X160.0300 Y108.7000 E-0.09200 F4800
G1 E-1.150 F2400
G0 Z0.530 F600
; travel+unretract
G0 X63.5700 Y109.1400 F15000
G0 Z0.280 F600
G1 E1.150 F1800
G1 X161.430 Y109.140 E5.01245 F1800
; infill
G1 X160.0300 Y109.1400 E-0.09200 F4800
G1 E-1.150 F2400
G0 Z0.530 F600
; travel+unretract
G0 X63.5700 Y109.5800 F15000
G0 Z0.280 F600
G1 E1.150 F1800
G1 X161.430 Y109.580 E5.01245 F1800
; infill
G1 X160.0300 Y109.5800 E-0.09200 F4800
G1 E-1.150 F2400
G0 Z0.530 F600
; travel+unretract
G0 X63.5700 Y110.0200 F15000
G0 Z0.280 F600
G1 E1.150 F1800
G1 X161.430 Y110.020 E5.01245 F1800
; infill
G1 X160.0300 Y110.0200 E-0.09200 F4800
G1 E-1.150 F2400
G0 Z0.530 F600
; travel+unretract
G0 X63.5700 Y110.4600 F15000
G0 Z0.280 F600
G1 E1.150 F1800
G1 X161.430 Y110.460 E5.01245 F1800
; infill
G1 X160.0300 Y110.4600 E-0.09200 F4800
G1 E-1.150 F2400
G0 Z0.530 F600
; travel+unretract
G0 X63.5700 Y110.9000 F15000
G0 Z0.280 F600
G1 E1.150 F1800
G1 X161.430 Y110.900 E5.01245 F1800
; infill
G1 X160.0300 Y110.9000 E-0.09200 F4800
G1 E-1.150 F2400
G0 Z0.530 F600
; travel+unretract
G0 X63.5700 Y111.3400 F15000
G0 Z0.280 F600
G1 E1.150 F1800
G1 X161.430 Y111.340 E5.01245 F1800
; infill
G1 X160.0300 Y111.3400 E-0.09200 F4800
G1 E-1.150 F2400
G0 Z0.530 F600
; travel+unretract
G0 X63.5700 Y111.7800 F15000
G0 Z0.280 F600
G1 E1.150 F1800
G1 X161.430 Y111.780 E5.01245 F1800
; infill
G1 X160.0300 Y111.7800 E-0.09200 F4800
G1 E-1.150 F2400
G0 Z0.530 F600
; travel+unretract
G0 X63.5700 Y112.2200 F15000
G0 Z0.280 F600
G1 E1.150 F1800
G1 X161.430 Y112.220 E5.01245 F1800
; infill
G1 X160.0300 Y112.2200 E-0.09200 F4800
G1 E-1.150 F2400
G0 Z0.530 F600
; travel+unretract
G0 X63.5700 Y112.6600 F15000
G0 Z0.280 F600
G1 E1.150 F1800
G1 X161.430 Y112.660 E5.01245 F1800
; infill
G1 X160.0300 Y112.6600 E-0.09200 F4800
G1 E-1.150 F2400
G0 Z0.530 F600
; travel+unretract
G0 X63.5700 Y113.1000 F15000
G0 Z0.280 F600
G1 E1.150 F1800
G1 X161.430 Y113.100 E5.01245 F1800
; infill
G1 X160.0300 Y113.1000 E-0.09200 F4800
G1 E-1.150 F2400
G0 Z0.530 F600
; travel+unretract
G0 X63.5700 Y113.5400 F15000
G0 Z0.280 F600
G1 E1.150 F1800
G1 X161.430 Y113.540 E5.01245 F1800
; infill
G1 X160.0300 Y113.5400 E-0.09200 F4800
G1 E-1.150 F2400
G0 Z0.530 F600
; travel+unretract
G0 X63.5700 Y113.9800 F15000
G0 Z0.280 F600
G1 E1.150 F1800
G1 X161.430 Y113.980 E5.01245 F1800
; infill
G1 X160.0300 Y113.9800 E-0.09200 F4800
G1 E-1.150 F2400
G0 Z0.530 F600
; travel+unretract
G0 X63.5700 Y114.4200 F15000
G0 Z0.280 F600
G1 E1.150 F1800
G1 X161.430 Y114.420 E5.01245 F1800
; infill
G1 X160.0300 Y114.4200 E-0.09200 F4800
G1 E-1.150 F2400
G0 Z0.530 F600
; travel+unretract
G0 X63.5700 Y114.8600 F15000
G0 Z0.280 F600
G1 E1.150 F1800
G1 X161.430 Y114.860 E5.01245 F1800
; infill
G1 X160.0300 Y114.8600 E-0.09200 F4800
G1 E-1.150 F2400
G0 Z0.530 F600
; travel+unretract
G0 X63.5700 Y115.3000 F15000
G0 Z0.280 F600
G1 E1.150 F1800
G1 X161.430 Y115.300 E5.01245 F1800
; infill
G1 X160.0300 Y115.3000 E-0.09200 F4800
G1 E-1.150 F2400
G0 Z0.530 F600
; travel+unretract
G0 X63.5700 Y115.7400 F15000
G0 Z0.280 F600
G1 E1.150 F1800
G1 X161.430 Y115.740 E5.01245 F1800
; infill
G1 X160.0300 Y115.7400 E-0.09200 F4800
G1 E-1.150 F2400
G0 Z0.530 F600
; travel+unretract
G0 X63.5700 Y116.1800 F15000
G0 Z0.280 F600
G1 E1.150 F1800
G1 X161.430 Y116.180 E5.01245 F1800
; infill
G1 X160.0300 Y116.1800 E-0.09200 F4800
G1 E-1.150 F2400
G0 Z0.530 F600
; travel+unretract
G0 X63.5700 Y116.6200 F15000
G0 Z0.280 F600
G1 E1.150 F1800
G1 X161.430 Y116.620 E5.01245 F1800
; infill
G1 X160.0300 Y116.6200 E-0.09200 F4800
G1 E-1.150 F2400
G0 Z0.530 F600
; travel+unretract
G0 X63.5700 Y117.0600 F15000
G0 Z0.280 F600
G1 E1.150 F1800
G1 X161.430 Y117.060 E5.01245 F1800
; layer end
G1 X160.0300 Y117.0600 E-0.09200 F4800
G1 E-1.150 F2400
G0 Z0.530 F600
FORGE_FLAT_SURFACE_MODE ROLE=solid
M221 S100

;LAYER:1 Z=0.480 lw=0.44 flow=1.00 step=0.440 mono=True isp=7200
; layer start
G0 X62.2500 Y106.5000 F15000
G0 Z0.480 F600
G1 E1.150 F1800
G1 X162.750 Y106.500 E3.67691 F4800
G1 X162.750 Y118.500 E0.43903 F4800
G1 X62.250 Y118.500 E3.67691 F4800
G1 X62.250 Y106.500 E0.43903 F4800
; peri
G1 X62.2500 Y107.9000 E-0.09200 F4800
G1 E-1.150 F2400
G0 Z0.730 F600
; travel+unretract
G0 X62.6900 Y106.9400 F15000
G0 Z0.480 F600
G1 E1.150 F1800
G1 X162.310 Y106.940 E3.64471 F4800
G1 X162.310 Y118.060 E0.40684 F4800
G1 X62.690 Y118.060 E3.64471 F4800
G1 X62.690 Y106.940 E0.40684 F4800
; peri
G1 X62.6900 Y108.3400 E-0.09200 F4800
G1 E-1.150 F2400
G0 Z0.730 F600
; travel+unretract
G0 X63.1300 Y107.3800 F15000
G0 Z0.480 F600
G1 E1.150 F1800
G1 X161.870 Y107.380 E3.61252 F4800
G1 X161.870 Y117.620 E0.37464 F4800
G1 X63.130 Y117.620 E3.61252 F4800
G1 X63.130 Y107.380 E0.37464 F4800
; infill
G1 X63.1300 Y108.7800 E-0.09200 F4800
G1 E-1.150 F2400
G0 Z0.730 F600
; travel+unretract
G0 X63.5700 Y107.8200 F15000
G0 Z0.480 F600
G1 E1.150 F1800
G1 X161.430 Y107.820 E3.58032 F7200
; infill
G1 X160.0300 Y107.8200 E-0.09200 F4800
G1 E-1.150 F2400
G0 Z0.730 F600
; travel+unretract
G0 X63.5700 Y108.2600 F15000
G0 Z0.480 F600
G1 E1.150 F1800
G1 X161.430 Y108.260 E3.58032 F7200
; infill
G1 X160.0300 Y108.2600 E-0.09200 F4800
G1 E-1.150 F2400
G0 Z0.730 F600
; travel+unretract
G0 X63.5700 Y108.7000 F15000
G0 Z0.480 F600
G1 E1.150 F1800
G1 X161.430 Y108.700 E3.58032 F7200
; infill
G1 X160.0300 Y108.7000 E-0.09200 F4800
G1 E-1.150 F2400
G0 Z0.730 F600
; travel+unretract
G0 X63.5700 Y109.1400 F15000
G0 Z0.480 F600
G1 E1.150 F1800
G1 X161.430 Y109.140 E3.58032 F7200
; infill
G1 X160.0300 Y109.1400 E-0.09200 F4800
G1 E-1.150 F2400
G0 Z0.730 F600
; travel+unretract
G0 X63.5700 Y109.5800 F15000
G0 Z0.480 F600
G1 E1.150 F1800
G1 X161.430 Y109.580 E3.58032 F7200
; infill
G1 X160.0300 Y109.5800 E-0.09200 F4800
G1 E-1.150 F2400
G0 Z0.730 F600
; travel+unretract
G0 X63.5700 Y110.0200 F15000
G0 Z0.480 F600
G1 E1.150 F1800
G1 X161.430 Y110.020 E3.58032 F7200
; infill
G1 X160.0300 Y110.0200 E-0.09200 F4800
G1 E-1.150 F2400
G0 Z0.730 F600
; travel+unretract
G0 X63.5700 Y110.4600 F15000
G0 Z0.480 F600
G1 E1.150 F1800
G1 X161.430 Y110.460 E3.58032 F7200
; infill
G1 X160.0300 Y110.4600 E-0.09200 F4800
G1 E-1.150 F2400
G0 Z0.730 F600
; travel+unretract
G0 X63.5700 Y110.9000 F15000
G0 Z0.480 F600
G1 E1.150 F1800
G1 X161.430 Y110.900 E3.58032 F7200
; infill
G1 X160.0300 Y110.9000 E-0.09200 F4800
G1 E-1.150 F2400
G0 Z0.730 F600
; travel+unretract
G0 X63.5700 Y111.3400 F15000
G0 Z0.480 F600
G1 E1.150 F1800
G1 X161.430 Y111.340 E3.58032 F7200
; infill
G1 X160.0300 Y111.3400 E-0.09200 F4800
G1 E-1.150 F2400
G0 Z0.730 F600
; travel+unretract
G0 X63.5700 Y111.7800 F15000
G0 Z0.480 F600
G1 E1.150 F1800
G1 X161.430 Y111.780 E3.58032 F7200
; infill
G1 X160.0300 Y111.7800 E-0.09200 F4800
G1 E-1.150 F2400
G0 Z0.730 F600
; travel+unretract
G0 X63.5700 Y112.2200 F15000
G0 Z0.480 F600
G1 E1.150 F1800
G1 X161.430 Y112.220 E3.58032 F7200
; infill
G1 X160.0300 Y112.2200 E-0.09200 F4800
G1 E-1.150 F2400
G0 Z0.730 F600
; travel+unretract
G0 X63.5700 Y112.6600 F15000
G0 Z0.480 F600
G1 E1.150 F1800
G1 X161.430 Y112.660 E3.58032 F7200
; infill
G1 X160.0300 Y112.6600 E-0.09200 F4800
G1 E-1.150 F2400
G0 Z0.730 F600
; travel+unretract
G0 X63.5700 Y113.1000 F15000
G0 Z0.480 F600
G1 E1.150 F1800
G1 X161.430 Y113.100 E3.58032 F7200
; infill
G1 X160.0300 Y113.1000 E-0.09200 F4800
G1 E-1.150 F2400
G0 Z0.730 F600
; travel+unretract
G0 X63.5700 Y113.5400 F15000
G0 Z0.480 F600
G1 E1.150 F1800
G1 X161.430 Y113.540 E3.58032 F7200
; infill
G1 X160.0300 Y113.5400 E-0.09200 F4800
G1 E-1.150 F2400
G0 Z0.730 F600
; travel+unretract
G0 X63.5700 Y113.9800 F15000
G0 Z0.480 F600
G1 E1.150 F1800
G1 X161.430 Y113.980 E3.58032 F7200
; infill
G1 X160.0300 Y113.9800 E-0.09200 F4800
G1 E-1.150 F2400
G0 Z0.730 F600
; travel+unretract
G0 X63.5700 Y114.4200 F15000
G0 Z0.480 F600
G1 E1.150 F1800
G1 X161.430 Y114.420 E3.58032 F7200
; infill
G1 X160.0300 Y114.4200 E-0.09200 F4800
G1 E-1.150 F2400
G0 Z0.730 F600
; travel+unretract
G0 X63.5700 Y114.8600 F15000
G0 Z0.480 F600
G1 E1.150 F1800
G1 X161.430 Y114.860 E3.58032 F7200
; infill
G1 X160.0300 Y114.8600 E-0.09200 F4800
G1 E-1.150 F2400
G0 Z0.730 F600
; travel+unretract
G0 X63.5700 Y115.3000 F15000
G0 Z0.480 F600
G1 E1.150 F1800
G1 X161.430 Y115.300 E3.58032 F7200
; infill
G1 X160.0300 Y115.3000 E-0.09200 F4800
G1 E-1.150 F2400
G0 Z0.730 F600
; travel+unretract
G0 X63.5700 Y115.7400 F15000
G0 Z0.480 F600
G1 E1.150 F1800
G1 X161.430 Y115.740 E3.58032 F7200
; infill
G1 X160.0300 Y115.7400 E-0.09200 F4800
G1 E-1.150 F2400
G0 Z0.730 F600
; travel+unretract
G0 X63.5700 Y116.1800 F15000
G0 Z0.480 F600
G1 E1.150 F1800
G1 X161.430 Y116.180 E3.58032 F7200
; infill
G1 X160.0300 Y116.1800 E-0.09200 F4800
G1 E-1.150 F2400
G0 Z0.730 F600
; travel+unretract
G0 X63.5700 Y116.6200 F15000
G0 Z0.480 F600
G1 E1.150 F1800
G1 X161.430 Y116.620 E3.58032 F7200
; infill
G1 X160.0300 Y116.6200 E-0.09200 F4800
G1 E-1.150 F2400
G0 Z0.730 F600
; travel+unretract
G0 X63.5700 Y117.0600 F15000
G0 Z0.480 F600
G1 E1.150 F1800
G1 X161.430 Y117.060 E3.58032 F7200
; layer end
G1 X160.0300 Y117.0600 E-0.09200 F4800
G1 E-1.150 F2400
G0 Z0.730 F600
FORGE_FLAT_SURFACE_MODE ROLE=solid

;LAYER:2 Z=0.680 lw=0.44 flow=1.00 step=0.440 mono=True isp=7200
; layer start
G0 X62.2500 Y106.5000 F15000
G0 Z0.680 F600
G1 E1.150 F1800
G1 X162.750 Y106.500 E3.67691 F4800
G1 X162.750 Y118.500 E0.43903 F4800
G1 X62.250 Y118.500 E3.67691 F4800
G1 X62.250 Y106.500 E0.43903 F4800
; peri
G1 X62.2500 Y107.9000 E-0.09200 F4800
G1 E-1.150 F2400
G0 Z0.930 F600
; travel+unretract
G0 X62.6900 Y106.9400 F15000
G0 Z0.680 F600
G1 E1.150 F1800
G1 X162.310 Y106.940 E3.64471 F4800
G1 X162.310 Y118.060 E0.40684 F4800
G1 X62.690 Y118.060 E3.64471 F4800
G1 X62.690 Y106.940 E0.40684 F4800
; peri
G1 X62.6900 Y108.3400 E-0.09200 F4800
G1 E-1.150 F2400
G0 Z0.930 F600
; travel+unretract
G0 X63.1300 Y107.3800 F15000
G0 Z0.680 F600
G1 E1.150 F1800
G1 X161.870 Y107.380 E3.61252 F4800
G1 X161.870 Y117.620 E0.37464 F4800
G1 X63.130 Y117.620 E3.61252 F4800
G1 X63.130 Y107.380 E0.37464 F4800
; infill
G1 X63.1300 Y108.7800 E-0.09200 F4800
G1 E-1.150 F2400
G0 Z0.930 F600
; travel+unretract
G0 X63.5700 Y107.8200 F15000
G0 Z0.680 F600
G1 E1.150 F1800
G1 X161.430 Y107.820 E3.58032 F7200
; infill
G1 X160.0300 Y107.8200 E-0.09200 F4800
G1 E-1.150 F2400
G0 Z0.930 F600
; travel+unretract
G0 X63.5700 Y108.2600 F15000
G0 Z0.680 F600
G1 E1.150 F1800
G1 X161.430 Y108.260 E3.58032 F7200
; infill
G1 X160.0300 Y108.2600 E-0.09200 F4800
G1 E-1.150 F2400
G0 Z0.930 F600
; travel+unretract
G0 X63.5700 Y108.7000 F15000
G0 Z0.680 F600
G1 E1.150 F1800
G1 X161.430 Y108.700 E3.58032 F7200
; infill
G1 X160.0300 Y108.7000 E-0.09200 F4800
G1 E-1.150 F2400
G0 Z0.930 F600
; travel+unretract
G0 X63.5700 Y109.1400 F15000
G0 Z0.680 F600
G1 E1.150 F1800
G1 X161.430 Y109.140 E3.58032 F7200
; infill
G1 X160.0300 Y109.1400 E-0.09200 F4800
G1 E-1.150 F2400
G0 Z0.930 F600
; travel+unretract
G0 X63.5700 Y109.5800 F15000
G0 Z0.680 F600
G1 E1.150 F1800
G1 X161.430 Y109.580 E3.58032 F7200
; infill
G1 X160.0300 Y109.5800 E-0.09200 F4800
G1 E-1.150 F2400
G0 Z0.930 F600
; travel+unretract
G0 X63.5700 Y110.0200 F15000
G0 Z0.680 F600
G1 E1.150 F1800
G1 X161.430 Y110.020 E3.58032 F7200
; infill
G1 X160.0300 Y110.0200 E-0.09200 F4800
G1 E-1.150 F2400
G0 Z0.930 F600
; travel+unretract
G0 X63.5700 Y110.4600 F15000
G0 Z0.680 F600
G1 E1.150 F1800
G1 X161.430 Y110.460 E3.58032 F7200
; infill
G1 X160.0300 Y110.4600 E-0.09200 F4800
G1 E-1.150 F2400
G0 Z0.930 F600
; travel+unretract
G0 X63.5700 Y110.9000 F15000
G0 Z0.680 F600
G1 E1.150 F1800
G1 X161.430 Y110.900 E3.58032 F7200
; infill
G1 X160.0300 Y110.9000 E-0.09200 F4800
G1 E-1.150 F2400
G0 Z0.930 F600
; travel+unretract
G0 X63.5700 Y111.3400 F15000
G0 Z0.680 F600
G1 E1.150 F1800
G1 X161.430 Y111.340 E3.58032 F7200
; infill
G1 X160.0300 Y111.3400 E-0.09200 F4800
G1 E-1.150 F2400
G0 Z0.930 F600
; travel+unretract
G0 X63.5700 Y111.7800 F15000
G0 Z0.680 F600
G1 E1.150 F1800
G1 X161.430 Y111.780 E3.58032 F7200
; infill
G1 X160.0300 Y111.7800 E-0.09200 F4800
G1 E-1.150 F2400
G0 Z0.930 F600
; travel+unretract
G0 X63.5700 Y112.2200 F15000
G0 Z0.680 F600
G1 E1.150 F1800
G1 X161.430 Y112.220 E3.58032 F7200
; infill
G1 X160.0300 Y112.2200 E-0.09200 F4800
G1 E-1.150 F2400
G0 Z0.930 F600
; travel+unretract
G0 X63.5700 Y112.6600 F15000
G0 Z0.680 F600
G1 E1.150 F1800
G1 X161.430 Y112.660 E3.58032 F7200
; infill
G1 X160.0300 Y112.6600 E-0.09200 F4800
G1 E-1.150 F2400
G0 Z0.930 F600
; travel+unretract
G0 X63.5700 Y113.1000 F15000
G0 Z0.680 F600
G1 E1.150 F1800
G1 X161.430 Y113.100 E3.58032 F7200
; infill
G1 X160.0300 Y113.1000 E-0.09200 F4800
G1 E-1.150 F2400
G0 Z0.930 F600
; travel+unretract
G0 X63.5700 Y113.5400 F15000
G0 Z0.680 F600
G1 E1.150 F1800
G1 X161.430 Y113.540 E3.58032 F7200
; infill
G1 X160.0300 Y113.5400 E-0.09200 F4800
G1 E-1.150 F2400
G0 Z0.930 F600
; travel+unretract
G0 X63.5700 Y113.9800 F15000
G0 Z0.680 F600
G1 E1.150 F1800
G1 X161.430 Y113.980 E3.58032 F7200
; infill
G1 X160.0300 Y113.9800 E-0.09200 F4800
G1 E-1.150 F2400
G0 Z0.930 F600
; travel+unretract
G0 X63.5700 Y114.4200 F15000
G0 Z0.680 F600
G1 E1.150 F1800
G1 X161.430 Y114.420 E3.58032 F7200
; infill
G1 X160.0300 Y114.4200 E-0.09200 F4800
G1 E-1.150 F2400
G0 Z0.930 F600
; travel+unretract
G0 X63.5700 Y114.8600 F15000
G0 Z0.680 F600
G1 E1.150 F1800
G1 X161.430 Y114.860 E3.58032 F7200
; infill
G1 X160.0300 Y114.8600 E-0.09200 F4800
G1 E-1.150 F2400
G0 Z0.930 F600
; travel+unretract
G0 X63.5700 Y115.3000 F15000
G0 Z0.680 F600
G1 E1.150 F1800
G1 X161.430 Y115.300 E3.58032 F7200
; infill
G1 X160.0300 Y115.3000 E-0.09200 F4800
G1 E-1.150 F2400
G0 Z0.930 F600
; travel+unretract
G0 X63.5700 Y115.7400 F15000
G0 Z0.680 F600
G1 E1.150 F1800
G1 X161.430 Y115.740 E3.58032 F7200
; infill
G1 X160.0300 Y115.7400 E-0.09200 F4800
G1 E-1.150 F2400
G0 Z0.930 F600
; travel+unretract
G0 X63.5700 Y116.1800 F15000
G0 Z0.680 F600
G1 E1.150 F1800
G1 X161.430 Y116.180 E3.58032 F7200
; infill
G1 X160.0300 Y116.1800 E-0.09200 F4800
G1 E-1.150 F2400
G0 Z0.930 F600
; travel+unretract
G0 X63.5700 Y116.6200 F15000
G0 Z0.680 F600
G1 E1.150 F1800
G1 X161.430 Y116.620 E3.58032 F7200
; infill
G1 X160.0300 Y116.6200 E-0.09200 F4800
G1 E-1.150 F2400
G0 Z0.930 F600
; travel+unretract
G0 X63.5700 Y117.0600 F15000
G0 Z0.680 F600
G1 E1.150 F1800
G1 X161.430 Y117.060 E3.58032 F7200
; layer end
G1 X160.0300 Y117.0600 E-0.09200 F4800
G1 E-1.150 F2400
G0 Z0.930 F600
FORGE_FLAT_SURFACE_MODE ROLE=solid

;LAYER:3 Z=0.880 lw=0.44 flow=1.00 step=0.440 mono=True isp=7200
; layer start
G0 X62.2500 Y106.5000 F15000
G0 Z0.880 F600
G1 E1.150 F1800
G1 X162.750 Y106.500 E3.67691 F4800
G1 X162.750 Y118.500 E0.43903 F4800
G1 X62.250 Y118.500 E3.67691 F4800
G1 X62.250 Y106.500 E0.43903 F4800
; peri
G1 X62.2500 Y107.9000 E-0.09200 F4800
G1 E-1.150 F2400
G0 Z1.130 F600
; travel+unretract
G0 X62.6900 Y106.9400 F15000
G0 Z0.880 F600
G1 E1.150 F1800
G1 X162.310 Y106.940 E3.64471 F4800
G1 X162.310 Y118.060 E0.40684 F4800
G1 X62.690 Y118.060 E3.64471 F4800
G1 X62.690 Y106.940 E0.40684 F4800
; peri
G1 X62.6900 Y108.3400 E-0.09200 F4800
G1 E-1.150 F2400
G0 Z1.130 F600
; travel+unretract
G0 X63.1300 Y107.3800 F15000
G0 Z0.880 F600
G1 E1.150 F1800
G1 X161.870 Y107.380 E3.61252 F4800
G1 X161.870 Y117.620 E0.37464 F4800
G1 X63.130 Y117.620 E3.61252 F4800
G1 X63.130 Y107.380 E0.37464 F4800
; infill
G1 X63.1300 Y108.7800 E-0.09200 F4800
G1 E-1.150 F2400
G0 Z1.130 F600
; travel+unretract
G0 X63.5700 Y107.8200 F15000
G0 Z0.880 F600
G1 E1.150 F1800
G1 X161.430 Y107.820 E3.58032 F7200
; infill
G1 X160.0300 Y107.8200 E-0.09200 F4800
G1 E-1.150 F2400
G0 Z1.130 F600
; travel+unretract
G0 X63.5700 Y108.2600 F15000
G0 Z0.880 F600
G1 E1.150 F1800
G1 X161.430 Y108.260 E3.58032 F7200
; infill
G1 X160.0300 Y108.2600 E-0.09200 F4800
G1 E-1.150 F2400
G0 Z1.130 F600
; travel+unretract
G0 X63.5700 Y108.7000 F15000
G0 Z0.880 F600
G1 E1.150 F1800
G1 X161.430 Y108.700 E3.58032 F7200
; infill
G1 X160.0300 Y108.7000 E-0.09200 F4800
G1 E-1.150 F2400
G0 Z1.130 F600
; travel+unretract
G0 X63.5700 Y109.1400 F15000
G0 Z0.880 F600
G1 E1.150 F1800
G1 X161.430 Y109.140 E3.58032 F7200
; infill
G1 X160.0300 Y109.1400 E-0.09200 F4800
G1 E-1.150 F2400
G0 Z1.130 F600
; travel+unretract
G0 X63.5700 Y109.5800 F15000
G0 Z0.880 F600
G1 E1.150 F1800
G1 X161.430 Y109.580 E3.58032 F7200
; infill
G1 X160.0300 Y109.5800 E-0.09200 F4800
G1 E-1.150 F2400
G0 Z1.130 F600
; travel+unretract
G0 X63.5700 Y110.0200 F15000
G0 Z0.880 F600
G1 E1.150 F1800
G1 X161.430 Y110.020 E3.58032 F7200
; infill
G1 X160.0300 Y110.0200 E-0.09200 F4800
G1 E-1.150 F2400
G0 Z1.130 F600
; travel+unretract
G0 X63.5700 Y110.4600 F15000
G0 Z0.880 F600
G1 E1.150 F1800
G1 X161.430 Y110.460 E3.58032 F7200
; infill
G1 X160.0300 Y110.4600 E-0.09200 F4800
G1 E-1.150 F2400
G0 Z1.130 F600
; travel+unretract
G0 X63.5700 Y110.9000 F15000
G0 Z0.880 F600
G1 E1.150 F1800
G1 X161.430 Y110.900 E3.58032 F7200
; infill
G1 X160.0300 Y110.9000 E-0.09200 F4800
G1 E-1.150 F2400
G0 Z1.130 F600
; travel+unretract
G0 X63.5700 Y111.3400 F15000
G0 Z0.880 F600
G1 E1.150 F1800
G1 X161.430 Y111.340 E3.58032 F7200
; infill
G1 X160.0300 Y111.3400 E-0.09200 F4800
G1 E-1.150 F2400
G0 Z1.130 F600
; travel+unretract
G0 X63.5700 Y111.7800 F15000
G0 Z0.880 F600
G1 E1.150 F1800
G1 X161.430 Y111.780 E3.58032 F7200
; infill
G1 X160.0300 Y111.7800 E-0.09200 F4800
G1 E-1.150 F2400
G0 Z1.130 F600
; travel+unretract
G0 X63.5700 Y112.2200 F15000
G0 Z0.880 F600
G1 E1.150 F1800
G1 X161.430 Y112.220 E3.58032 F7200
; infill
G1 X160.0300 Y112.2200 E-0.09200 F4800
G1 E-1.150 F2400
G0 Z1.130 F600
; travel+unretract
G0 X63.5700 Y112.6600 F15000
G0 Z0.880 F600
G1 E1.150 F1800
G1 X161.430 Y112.660 E3.58032 F7200
; infill
G1 X160.0300 Y112.6600 E-0.09200 F4800
G1 E-1.150 F2400
G0 Z1.130 F600
; travel+unretract
G0 X63.5700 Y113.1000 F15000
G0 Z0.880 F600
G1 E1.150 F1800
G1 X161.430 Y113.100 E3.58032 F7200
; infill
G1 X160.0300 Y113.1000 E-0.09200 F4800
G1 E-1.150 F2400
G0 Z1.130 F600
; travel+unretract
G0 X63.5700 Y113.5400 F15000
G0 Z0.880 F600
G1 E1.150 F1800
G1 X161.430 Y113.540 E3.58032 F7200
; infill
G1 X160.0300 Y113.5400 E-0.09200 F4800
G1 E-1.150 F2400
G0 Z1.130 F600
; travel+unretract
G0 X63.5700 Y113.9800 F15000
G0 Z0.880 F600
G1 E1.150 F1800
G1 X161.430 Y113.980 E3.58032 F7200
; infill
G1 X160.0300 Y113.9800 E-0.09200 F4800
G1 E-1.150 F2400
G0 Z1.130 F600
; travel+unretract
G0 X63.5700 Y114.4200 F15000
G0 Z0.880 F600
G1 E1.150 F1800
G1 X161.430 Y114.420 E3.58032 F7200
; infill
G1 X160.0300 Y114.4200 E-0.09200 F4800
G1 E-1.150 F2400
G0 Z1.130 F600
; travel+unretract
G0 X63.5700 Y114.8600 F15000
G0 Z0.880 F600
G1 E1.150 F1800
G1 X161.430 Y114.860 E3.58032 F7200
; infill
G1 X160.0300 Y114.8600 E-0.09200 F4800
G1 E-1.150 F2400
G0 Z1.130 F600
; travel+unretract
G0 X63.5700 Y115.3000 F15000
G0 Z0.880 F600
G1 E1.150 F1800
G1 X161.430 Y115.300 E3.58032 F7200
; infill
G1 X160.0300 Y115.3000 E-0.09200 F4800
G1 E-1.150 F2400
G0 Z1.130 F600
; travel+unretract
G0 X63.5700 Y115.7400 F15000
G0 Z0.880 F600
G1 E1.150 F1800
G1 X161.430 Y115.740 E3.58032 F7200
; infill
G1 X160.0300 Y115.7400 E-0.09200 F4800
G1 E-1.150 F2400
G0 Z1.130 F600
; travel+unretract
G0 X63.5700 Y116.1800 F15000
G0 Z0.880 F600
G1 E1.150 F1800
G1 X161.430 Y116.180 E3.58032 F7200
; infill
G1 X160.0300 Y116.1800 E-0.09200 F4800
G1 E-1.150 F2400
G0 Z1.130 F600
; travel+unretract
G0 X63.5700 Y116.6200 F15000
G0 Z0.880 F600
G1 E1.150 F1800
G1 X161.430 Y116.620 E3.58032 F7200
; infill
G1 X160.0300 Y116.6200 E-0.09200 F4800
G1 E-1.150 F2400
G0 Z1.130 F600
; travel+unretract
G0 X63.5700 Y117.0600 F15000
G0 Z0.880 F600
G1 E1.150 F1800
G1 X161.430 Y117.060 E3.58032 F7200
; layer end
G1 X160.0300 Y117.0600 E-0.09200 F4800
G1 E-1.150 F2400
G0 Z1.130 F600
FORGE_FLAT_SURFACE_MODE ROLE=solid

;LAYER:4 Z=1.080 lw=0.44 flow=1.00 step=0.440 mono=True isp=7200
; layer start
G0 X62.2500 Y106.5000 F15000
G0 Z1.080 F600
G1 E1.150 F1800
G1 X162.750 Y106.500 E3.67691 F4800
G1 X162.750 Y118.500 E0.43903 F4800
G1 X62.250 Y118.500 E3.67691 F4800
G1 X62.250 Y106.500 E0.43903 F4800
; peri
G1 X62.2500 Y107.9000 E-0.09200 F4800
G1 E-1.150 F2400
G0 Z1.330 F600
; travel+unretract
G0 X62.6900 Y106.9400 F15000
G0 Z1.080 F600
G1 E1.150 F1800
G1 X162.310 Y106.940 E3.64471 F4800
G1 X162.310 Y118.060 E0.40684 F4800
G1 X62.690 Y118.060 E3.64471 F4800
G1 X62.690 Y106.940 E0.40684 F4800
; peri
G1 X62.6900 Y108.3400 E-0.09200 F4800
G1 E-1.150 F2400
G0 Z1.330 F600
; travel+unretract
G0 X63.1300 Y107.3800 F15000
G0 Z1.080 F600
G1 E1.150 F1800
G1 X161.870 Y107.380 E3.61252 F4800
G1 X161.870 Y117.620 E0.37464 F4800
G1 X63.130 Y117.620 E3.61252 F4800
G1 X63.130 Y107.380 E0.37464 F4800
; infill
G1 X63.1300 Y108.7800 E-0.09200 F4800
G1 E-1.150 F2400
G0 Z1.330 F600
; travel+unretract
G0 X63.5700 Y107.8200 F15000
G0 Z1.080 F600
G1 E1.150 F1800
G1 X161.430 Y107.820 E3.58032 F7200
; infill
G1 X160.0300 Y107.8200 E-0.09200 F4800
G1 E-1.150 F2400
G0 Z1.330 F600
; travel+unretract
G0 X63.5700 Y108.2600 F15000
G0 Z1.080 F600
G1 E1.150 F1800
G1 X161.430 Y108.260 E3.58032 F7200
; infill
G1 X160.0300 Y108.2600 E-0.09200 F4800
G1 E-1.150 F2400
G0 Z1.330 F600
; travel+unretract
G0 X63.5700 Y108.7000 F15000
G0 Z1.080 F600
G1 E1.150 F1800
G1 X161.430 Y108.700 E3.58032 F7200
; infill
G1 X160.0300 Y108.7000 E-0.09200 F4800
G1 E-1.150 F2400
G0 Z1.330 F600
; travel+unretract
G0 X63.5700 Y109.1400 F15000
G0 Z1.080 F600
G1 E1.150 F1800
G1 X161.430 Y109.140 E3.58032 F7200
; infill
G1 X160.0300 Y109.1400 E-0.09200 F4800
G1 E-1.150 F2400
G0 Z1.330 F600
; travel+unretract
G0 X63.5700 Y109.5800 F15000
G0 Z1.080 F600
G1 E1.150 F1800
G1 X161.430 Y109.580 E3.58032 F7200
; infill
G1 X160.0300 Y109.5800 E-0.09200 F4800
G1 E-1.150 F2400
G0 Z1.330 F600
; travel+unretract
G0 X63.5700 Y110.0200 F15000
G0 Z1.080 F600
G1 E1.150 F1800
G1 X161.430 Y110.020 E3.58032 F7200
; infill
G1 X160.0300 Y110.0200 E-0.09200 F4800
G1 E-1.150 F2400
G0 Z1.330 F600
; travel+unretract
G0 X63.5700 Y110.4600 F15000
G0 Z1.080 F600
G1 E1.150 F1800
G1 X161.430 Y110.460 E3.58032 F7200
; infill
G1 X160.0300 Y110.4600 E-0.09200 F4800
G1 E-1.150 F2400
G0 Z1.330 F600
; travel+unretract
G0 X63.5700 Y110.9000 F15000
G0 Z1.080 F600
G1 E1.150 F1800
G1 X161.430 Y110.900 E3.58032 F7200
; infill
G1 X160.0300 Y110.9000 E-0.09200 F4800
G1 E-1.150 F2400
G0 Z1.330 F600
; travel+unretract
G0 X63.5700 Y111.3400 F15000
G0 Z1.080 F600
G1 E1.150 F1800
G1 X161.430 Y111.340 E3.58032 F7200
; infill
G1 X160.0300 Y111.3400 E-0.09200 F4800
G1 E-1.150 F2400
G0 Z1.330 F600
; travel+unretract
G0 X63.5700 Y111.7800 F15000
G0 Z1.080 F600
G1 E1.150 F1800
G1 X161.430 Y111.780 E3.58032 F7200
; infill
G1 X160.0300 Y111.7800 E-0.09200 F4800
G1 E-1.150 F2400
G0 Z1.330 F600
; travel+unretract
G0 X63.5700 Y112.2200 F15000
G0 Z1.080 F600
G1 E1.150 F1800
G1 X161.430 Y112.220 E3.58032 F7200
; infill
G1 X160.0300 Y112.2200 E-0.09200 F4800
G1 E-1.150 F2400
G0 Z1.330 F600
; travel+unretract
G0 X63.5700 Y112.6600 F15000
G0 Z1.080 F600
G1 E1.150 F1800
G1 X161.430 Y112.660 E3.58032 F7200
; infill
G1 X160.0300 Y112.6600 E-0.09200 F4800
G1 E-1.150 F2400
G0 Z1.330 F600
; travel+unretract
G0 X63.5700 Y113.1000 F15000
G0 Z1.080 F600
G1 E1.150 F1800
G1 X161.430 Y113.100 E3.58032 F7200
; infill
G1 X160.0300 Y113.1000 E-0.09200 F4800
G1 E-1.150 F2400
G0 Z1.330 F600
; travel+unretract
G0 X63.5700 Y113.5400 F15000
G0 Z1.080 F600
G1 E1.150 F1800
G1 X161.430 Y113.540 E3.58032 F7200
; infill
G1 X160.0300 Y113.5400 E-0.09200 F4800
G1 E-1.150 F2400
G0 Z1.330 F600
; travel+unretract
G0 X63.5700 Y113.9800 F15000
G0 Z1.080 F600
G1 E1.150 F1800
G1 X161.430 Y113.980 E3.58032 F7200
; infill
G1 X160.0300 Y113.9800 E-0.09200 F4800
G1 E-1.150 F2400
G0 Z1.330 F600
; travel+unretract
G0 X63.5700 Y114.4200 F15000
G0 Z1.080 F600
G1 E1.150 F1800
G1 X161.430 Y114.420 E3.58032 F7200
; infill
G1 X160.0300 Y114.4200 E-0.09200 F4800
G1 E-1.150 F2400
G0 Z1.330 F600
; travel+unretract
G0 X63.5700 Y114.8600 F15000
G0 Z1.080 F600
G1 E1.150 F1800
G1 X161.430 Y114.860 E3.58032 F7200
; infill
G1 X160.0300 Y114.8600 E-0.09200 F4800
G1 E-1.150 F2400
G0 Z1.330 F600
; travel+unretract
G0 X63.5700 Y115.3000 F15000
G0 Z1.080 F600
G1 E1.150 F1800
G1 X161.430 Y115.300 E3.58032 F7200
; infill
G1 X160.0300 Y115.3000 E-0.09200 F4800
G1 E-1.150 F2400
G0 Z1.330 F600
; travel+unretract
G0 X63.5700 Y115.7400 F15000
G0 Z1.080 F600
G1 E1.150 F1800
G1 X161.430 Y115.740 E3.58032 F7200
; infill
G1 X160.0300 Y115.7400 E-0.09200 F4800
G1 E-1.150 F2400
G0 Z1.330 F600
; travel+unretract
G0 X63.5700 Y116.1800 F15000
G0 Z1.080 F600
G1 E1.150 F1800
G1 X161.430 Y116.180 E3.58032 F7200
; infill
G1 X160.0300 Y116.1800 E-0.09200 F4800
G1 E-1.150 F2400
G0 Z1.330 F600
; travel+unretract
G0 X63.5700 Y116.6200 F15000
G0 Z1.080 F600
G1 E1.150 F1800
G1 X161.430 Y116.620 E3.58032 F7200
; infill
G1 X160.0300 Y116.6200 E-0.09200 F4800
G1 E-1.150 F2400
G0 Z1.330 F600
; travel+unretract
G0 X63.5700 Y117.0600 F15000
G0 Z1.080 F600
G1 E1.150 F1800
G1 X161.430 Y117.060 E3.58032 F7200
; layer end
G1 X160.0300 Y117.0600 E-0.09200 F4800
G1 E-1.150 F2400
G0 Z1.330 F600
FORGE_FLAT_SURFACE_MODE ROLE=solid

;LAYER:5 Z=1.280 lw=0.44 flow=1.00 step=0.440 mono=True isp=7200
; layer start
G0 X62.2500 Y106.5000 F15000
G0 Z1.280 F600
G1 E1.150 F1800
G1 X162.750 Y106.500 E3.67691 F4800
G1 X162.750 Y118.500 E0.43903 F4800
G1 X62.250 Y118.500 E3.67691 F4800
G1 X62.250 Y106.500 E0.43903 F4800
; peri
G1 X62.2500 Y107.9000 E-0.09200 F4800
G1 E-1.150 F2400
G0 Z1.530 F600
; travel+unretract
G0 X62.6900 Y106.9400 F15000
G0 Z1.280 F600
G1 E1.150 F1800
G1 X162.310 Y106.940 E3.64471 F4800
G1 X162.310 Y118.060 E0.40684 F4800
G1 X62.690 Y118.060 E3.64471 F4800
G1 X62.690 Y106.940 E0.40684 F4800
; peri
G1 X62.6900 Y108.3400 E-0.09200 F4800
G1 E-1.150 F2400
G0 Z1.530 F600
; travel+unretract
G0 X63.1300 Y107.3800 F15000
G0 Z1.280 F600
G1 E1.150 F1800
G1 X161.870 Y107.380 E3.61252 F4800
G1 X161.870 Y117.620 E0.37464 F4800
G1 X63.130 Y117.620 E3.61252 F4800
G1 X63.130 Y107.380 E0.37464 F4800
; infill
G1 X63.1300 Y108.7800 E-0.09200 F4800
G1 E-1.150 F2400
G0 Z1.530 F600
; travel+unretract
G0 X63.5700 Y107.8200 F15000
G0 Z1.280 F600
G1 E1.150 F1800
G1 X161.430 Y107.820 E3.58032 F7200
; infill
G1 X160.0300 Y107.8200 E-0.09200 F4800
G1 E-1.150 F2400
G0 Z1.530 F600
; travel+unretract
G0 X63.5700 Y108.2600 F15000
G0 Z1.280 F600
G1 E1.150 F1800
G1 X161.430 Y108.260 E3.58032 F7200
; infill
G1 X160.0300 Y108.2600 E-0.09200 F4800
G1 E-1.150 F2400
G0 Z1.530 F600
; travel+unretract
G0 X63.5700 Y108.7000 F15000
G0 Z1.280 F600
G1 E1.150 F1800
G1 X161.430 Y108.700 E3.58032 F7200
; infill
G1 X160.0300 Y108.7000 E-0.09200 F4800
G1 E-1.150 F2400
G0 Z1.530 F600
; travel+unretract
G0 X63.5700 Y109.1400 F15000
G0 Z1.280 F600
G1 E1.150 F1800
G1 X161.430 Y109.140 E3.58032 F7200
; infill
G1 X160.0300 Y109.1400 E-0.09200 F4800
G1 E-1.150 F2400
G0 Z1.530 F600
; travel+unretract
G0 X63.5700 Y109.5800 F15000
G0 Z1.280 F600
G1 E1.150 F1800
G1 X161.430 Y109.580 E3.58032 F7200
; infill
G1 X160.0300 Y109.5800 E-0.09200 F4800
G1 E-1.150 F2400
G0 Z1.530 F600
; travel+unretract
G0 X63.5700 Y110.0200 F15000
G0 Z1.280 F600
G1 E1.150 F1800
G1 X161.430 Y110.020 E3.58032 F7200
; infill
G1 X160.0300 Y110.0200 E-0.09200 F4800
G1 E-1.150 F2400
G0 Z1.530 F600
; travel+unretract
G0 X63.5700 Y110.4600 F15000
G0 Z1.280 F600
G1 E1.150 F1800
G1 X161.430 Y110.460 E3.58032 F7200
; infill
G1 X160.0300 Y110.4600 E-0.09200 F4800
G1 E-1.150 F2400
G0 Z1.530 F600
; travel+unretract
G0 X63.5700 Y110.9000 F15000
G0 Z1.280 F600
G1 E1.150 F1800
G1 X161.430 Y110.900 E3.58032 F7200
; infill
G1 X160.0300 Y110.9000 E-0.09200 F4800
G1 E-1.150 F2400
G0 Z1.530 F600
; travel+unretract
G0 X63.5700 Y111.3400 F15000
G0 Z1.280 F600
G1 E1.150 F1800
G1 X161.430 Y111.340 E3.58032 F7200
; infill
G1 X160.0300 Y111.3400 E-0.09200 F4800
G1 E-1.150 F2400
G0 Z1.530 F600
; travel+unretract
G0 X63.5700 Y111.7800 F15000
G0 Z1.280 F600
G1 E1.150 F1800
G1 X161.430 Y111.780 E3.58032 F7200
; infill
G1 X160.0300 Y111.7800 E-0.09200 F4800
G1 E-1.150 F2400
G0 Z1.530 F600
; travel+unretract
G0 X63.5700 Y112.2200 F15000
G0 Z1.280 F600
G1 E1.150 F1800
G1 X161.430 Y112.220 E3.58032 F7200
; infill
G1 X160.0300 Y112.2200 E-0.09200 F4800
G1 E-1.150 F2400
G0 Z1.530 F600
; travel+unretract
G0 X63.5700 Y112.6600 F15000
G0 Z1.280 F600
G1 E1.150 F1800
G1 X161.430 Y112.660 E3.58032 F7200
; infill
G1 X160.0300 Y112.6600 E-0.09200 F4800
G1 E-1.150 F2400
G0 Z1.530 F600
; travel+unretract
G0 X63.5700 Y113.1000 F15000
G0 Z1.280 F600
G1 E1.150 F1800
G1 X161.430 Y113.100 E3.58032 F7200
; infill
G1 X160.0300 Y113.1000 E-0.09200 F4800
G1 E-1.150 F2400
G0 Z1.530 F600
; travel+unretract
G0 X63.5700 Y113.5400 F15000
G0 Z1.280 F600
G1 E1.150 F1800
G1 X161.430 Y113.540 E3.58032 F7200
; infill
G1 X160.0300 Y113.5400 E-0.09200 F4800
G1 E-1.150 F2400
G0 Z1.530 F600
; travel+unretract
G0 X63.5700 Y113.9800 F15000
G0 Z1.280 F600
G1 E1.150 F1800
G1 X161.430 Y113.980 E3.58032 F7200
; infill
G1 X160.0300 Y113.9800 E-0.09200 F4800
G1 E-1.150 F2400
G0 Z1.530 F600
; travel+unretract
G0 X63.5700 Y114.4200 F15000
G0 Z1.280 F600
G1 E1.150 F1800
G1 X161.430 Y114.420 E3.58032 F7200
; infill
G1 X160.0300 Y114.4200 E-0.09200 F4800
G1 E-1.150 F2400
G0 Z1.530 F600
; travel+unretract
G0 X63.5700 Y114.8600 F15000
G0 Z1.280 F600
G1 E1.150 F1800
G1 X161.430 Y114.860 E3.58032 F7200
; infill
G1 X160.0300 Y114.8600 E-0.09200 F4800
G1 E-1.150 F2400
G0 Z1.530 F600
; travel+unretract
G0 X63.5700 Y115.3000 F15000
G0 Z1.280 F600
G1 E1.150 F1800
G1 X161.430 Y115.300 E3.58032 F7200
; infill
G1 X160.0300 Y115.3000 E-0.09200 F4800
G1 E-1.150 F2400
G0 Z1.530 F600
; travel+unretract
G0 X63.5700 Y115.7400 F15000
G0 Z1.280 F600
G1 E1.150 F1800
G1 X161.430 Y115.740 E3.58032 F7200
; infill
G1 X160.0300 Y115.7400 E-0.09200 F4800
G1 E-1.150 F2400
G0 Z1.530 F600
; travel+unretract
G0 X63.5700 Y116.1800 F15000
G0 Z1.280 F600
G1 E1.150 F1800
G1 X161.430 Y116.180 E3.58032 F7200
; infill
G1 X160.0300 Y116.1800 E-0.09200 F4800
G1 E-1.150 F2400
G0 Z1.530 F600
; travel+unretract
G0 X63.5700 Y116.6200 F15000
G0 Z1.280 F600
G1 E1.150 F1800
G1 X161.430 Y116.620 E3.58032 F7200
; infill
G1 X160.0300 Y116.6200 E-0.09200 F4800
G1 E-1.150 F2400
G0 Z1.530 F600
; travel+unretract
G0 X63.5700 Y117.0600 F15000
G0 Z1.280 F600
G1 E1.150 F1800
G1 X161.430 Y117.060 E3.58032 F7200
; layer end
G1 X160.0300 Y117.0600 E-0.09200 F4800
G1 E-1.150 F2400
G0 Z1.530 F600
FORGE_FLAT_SURFACE_MODE ROLE=solid

;LAYER:6 Z=1.480 lw=0.44 flow=1.00 step=0.440 mono=True isp=7200
; layer start
G0 X62.2500 Y106.5000 F15000
G0 Z1.480 F600
G1 E1.150 F1800
G1 X162.750 Y106.500 E3.67691 F4800
G1 X162.750 Y118.500 E0.43903 F4800
G1 X62.250 Y118.500 E3.67691 F4800
G1 X62.250 Y106.500 E0.43903 F4800
; peri
G1 X62.2500 Y107.9000 E-0.09200 F4800
G1 E-1.150 F2400
G0 Z1.730 F600
; travel+unretract
G0 X62.6900 Y106.9400 F15000
G0 Z1.480 F600
G1 E1.150 F1800
G1 X162.310 Y106.940 E3.64471 F4800
G1 X162.310 Y118.060 E0.40684 F4800
G1 X62.690 Y118.060 E3.64471 F4800
G1 X62.690 Y106.940 E0.40684 F4800
; peri
G1 X62.6900 Y108.3400 E-0.09200 F4800
G1 E-1.150 F2400
G0 Z1.730 F600
; travel+unretract
G0 X63.1300 Y107.3800 F15000
G0 Z1.480 F600
G1 E1.150 F1800
G1 X161.870 Y107.380 E3.61252 F4800
G1 X161.870 Y117.620 E0.37464 F4800
G1 X63.130 Y117.620 E3.61252 F4800
G1 X63.130 Y107.380 E0.37464 F4800
; infill
G1 X63.1300 Y108.7800 E-0.09200 F4800
G1 E-1.150 F2400
G0 Z1.730 F600
; travel+unretract
G0 X63.5700 Y107.8200 F15000
G0 Z1.480 F600
G1 E1.150 F1800
G1 X161.430 Y107.820 E3.58032 F7200
; infill
G1 X160.0300 Y107.8200 E-0.09200 F4800
G1 E-1.150 F2400
G0 Z1.730 F600
; travel+unretract
G0 X63.5700 Y108.2600 F15000
G0 Z1.480 F600
G1 E1.150 F1800
G1 X161.430 Y108.260 E3.58032 F7200
; infill
G1 X160.0300 Y108.2600 E-0.09200 F4800
G1 E-1.150 F2400
G0 Z1.730 F600
; travel+unretract
G0 X63.5700 Y108.7000 F15000
G0 Z1.480 F600
G1 E1.150 F1800
G1 X161.430 Y108.700 E3.58032 F7200
; infill
G1 X160.0300 Y108.7000 E-0.09200 F4800
G1 E-1.150 F2400
G0 Z1.730 F600
; travel+unretract
G0 X63.5700 Y109.1400 F15000
G0 Z1.480 F600
G1 E1.150 F1800
G1 X161.430 Y109.140 E3.58032 F7200
; infill
G1 X160.0300 Y109.1400 E-0.09200 F4800
G1 E-1.150 F2400
G0 Z1.730 F600
; travel+unretract
G0 X63.5700 Y109.5800 F15000
G0 Z1.480 F600
G1 E1.150 F1800
G1 X161.430 Y109.580 E3.58032 F7200
; infill
G1 X160.0300 Y109.5800 E-0.09200 F4800
G1 E-1.150 F2400
G0 Z1.730 F600
; travel+unretract
G0 X63.5700 Y110.0200 F15000
G0 Z1.480 F600
G1 E1.150 F1800
G1 X161.430 Y110.020 E3.58032 F7200
; infill
G1 X160.0300 Y110.0200 E-0.09200 F4800
G1 E-1.150 F2400
G0 Z1.730 F600
; travel+unretract
G0 X63.5700 Y110.4600 F15000
G0 Z1.480 F600
G1 E1.150 F1800
G1 X161.430 Y110.460 E3.58032 F7200
; infill
G1 X160.0300 Y110.4600 E-0.09200 F4800
G1 E-1.150 F2400
G0 Z1.730 F600
; travel+unretract
G0 X63.5700 Y110.9000 F15000
G0 Z1.480 F600
G1 E1.150 F1800
G1 X161.430 Y110.900 E3.58032 F7200
; infill
G1 X160.0300 Y110.9000 E-0.09200 F4800
G1 E-1.150 F2400
G0 Z1.730 F600
; travel+unretract
G0 X63.5700 Y111.3400 F15000
G0 Z1.480 F600
G1 E1.150 F1800
G1 X161.430 Y111.340 E3.58032 F7200
; infill
G1 X160.0300 Y111.3400 E-0.09200 F4800
G1 E-1.150 F2400
G0 Z1.730 F600
; travel+unretract
G0 X63.5700 Y111.7800 F15000
G0 Z1.480 F600
G1 E1.150 F1800
G1 X161.430 Y111.780 E3.58032 F7200
; infill
G1 X160.0300 Y111.7800 E-0.09200 F4800
G1 E-1.150 F2400
G0 Z1.730 F600
; travel+unretract
G0 X63.5700 Y112.2200 F15000
G0 Z1.480 F600
G1 E1.150 F1800
G1 X161.430 Y112.220 E3.58032 F7200
; infill
G1 X160.0300 Y112.2200 E-0.09200 F4800
G1 E-1.150 F2400
G0 Z1.730 F600
; travel+unretract
G0 X63.5700 Y112.6600 F15000
G0 Z1.480 F600
G1 E1.150 F1800
G1 X161.430 Y112.660 E3.58032 F7200
; infill
G1 X160.0300 Y112.6600 E-0.09200 F4800
G1 E-1.150 F2400
G0 Z1.730 F600
; travel+unretract
G0 X63.5700 Y113.1000 F15000
G0 Z1.480 F600
G1 E1.150 F1800
G1 X161.430 Y113.100 E3.58032 F7200
; infill
G1 X160.0300 Y113.1000 E-0.09200 F4800
G1 E-1.150 F2400
G0 Z1.730 F600
; travel+unretract
G0 X63.5700 Y113.5400 F15000
G0 Z1.480 F600
G1 E1.150 F1800
G1 X161.430 Y113.540 E3.58032 F7200
; infill
G1 X160.0300 Y113.5400 E-0.09200 F4800
G1 E-1.150 F2400
G0 Z1.730 F600
; travel+unretract
G0 X63.5700 Y113.9800 F15000
G0 Z1.480 F600
G1 E1.150 F1800
G1 X161.430 Y113.980 E3.58032 F7200
; infill
G1 X160.0300 Y113.9800 E-0.09200 F4800
G1 E-1.150 F2400
G0 Z1.730 F600
; travel+unretract
G0 X63.5700 Y114.4200 F15000
G0 Z1.480 F600
G1 E1.150 F1800
G1 X161.430 Y114.420 E3.58032 F7200
; infill
G1 X160.0300 Y114.4200 E-0.09200 F4800
G1 E-1.150 F2400
G0 Z1.730 F600
; travel+unretract
G0 X63.5700 Y114.8600 F15000
G0 Z1.480 F600
G1 E1.150 F1800
G1 X161.430 Y114.860 E3.58032 F7200
; infill
G1 X160.0300 Y114.8600 E-0.09200 F4800
G1 E-1.150 F2400
G0 Z1.730 F600
; travel+unretract
G0 X63.5700 Y115.3000 F15000
G0 Z1.480 F600
G1 E1.150 F1800
G1 X161.430 Y115.300 E3.58032 F7200
; infill
G1 X160.0300 Y115.3000 E-0.09200 F4800
G1 E-1.150 F2400
G0 Z1.730 F600
; travel+unretract
G0 X63.5700 Y115.7400 F15000
G0 Z1.480 F600
G1 E1.150 F1800
G1 X161.430 Y115.740 E3.58032 F7200
; infill
G1 X160.0300 Y115.7400 E-0.09200 F4800
G1 E-1.150 F2400
G0 Z1.730 F600
; travel+unretract
G0 X63.5700 Y116.1800 F15000
G0 Z1.480 F600
G1 E1.150 F1800
G1 X161.430 Y116.180 E3.58032 F7200
; infill
G1 X160.0300 Y116.1800 E-0.09200 F4800
G1 E-1.150 F2400
G0 Z1.730 F600
; travel+unretract
G0 X63.5700 Y116.6200 F15000
G0 Z1.480 F600
G1 E1.150 F1800
G1 X161.430 Y116.620 E3.58032 F7200
; infill
G1 X160.0300 Y116.6200 E-0.09200 F4800
G1 E-1.150 F2400
G0 Z1.730 F600
; travel+unretract
G0 X63.5700 Y117.0600 F15000
G0 Z1.480 F600
G1 E1.150 F1800
G1 X161.430 Y117.060 E3.58032 F7200
; layer end
G1 X160.0300 Y117.0600 E-0.09200 F4800
G1 E-1.150 F2400
G0 Z1.730 F600
FORGE_FLAT_SURFACE_MODE ROLE=solid

;LAYER:7 Z=1.680 lw=0.44 flow=1.00 step=0.440 mono=True isp=7200
; layer start
G0 X62.2500 Y106.5000 F15000
G0 Z1.680 F600
G1 E1.150 F1800
G1 X162.750 Y106.500 E3.67691 F4800
G1 X162.750 Y118.500 E0.43903 F4800
G1 X62.250 Y118.500 E3.67691 F4800
G1 X62.250 Y106.500 E0.43903 F4800
; peri
G1 X62.2500 Y107.9000 E-0.09200 F4800
G1 E-1.150 F2400
G0 Z1.930 F600
; travel+unretract
G0 X62.6900 Y106.9400 F15000
G0 Z1.680 F600
G1 E1.150 F1800
G1 X162.310 Y106.940 E3.64471 F4800
G1 X162.310 Y118.060 E0.40684 F4800
G1 X62.690 Y118.060 E3.64471 F4800
G1 X62.690 Y106.940 E0.40684 F4800
; peri
G1 X62.6900 Y108.3400 E-0.09200 F4800
G1 E-1.150 F2400
G0 Z1.930 F600
; travel+unretract
G0 X63.1300 Y107.3800 F15000
G0 Z1.680 F600
G1 E1.150 F1800
G1 X161.870 Y107.380 E3.61252 F4800
G1 X161.870 Y117.620 E0.37464 F4800
G1 X63.130 Y117.620 E3.61252 F4800
G1 X63.130 Y107.380 E0.37464 F4800
; infill
G1 X63.1300 Y108.7800 E-0.09200 F4800
G1 E-1.150 F2400
G0 Z1.930 F600
; travel+unretract
G0 X63.5700 Y107.8200 F15000
G0 Z1.680 F600
G1 E1.150 F1800
G1 X161.430 Y107.820 E3.58032 F7200
; infill
G1 X160.0300 Y107.8200 E-0.09200 F4800
G1 E-1.150 F2400
G0 Z1.930 F600
; travel+unretract
G0 X63.5700 Y108.2600 F15000
G0 Z1.680 F600
G1 E1.150 F1800
G1 X161.430 Y108.260 E3.58032 F7200
; infill
G1 X160.0300 Y108.2600 E-0.09200 F4800
G1 E-1.150 F2400
G0 Z1.930 F600
; travel+unretract
G0 X63.5700 Y108.7000 F15000
G0 Z1.680 F600
G1 E1.150 F1800
G1 X161.430 Y108.700 E3.58032 F7200
; infill
G1 X160.0300 Y108.7000 E-0.09200 F4800
G1 E-1.150 F2400
G0 Z1.930 F600
; travel+unretract
G0 X63.5700 Y109.1400 F15000
G0 Z1.680 F600
G1 E1.150 F1800
G1 X161.430 Y109.140 E3.58032 F7200
; infill
G1 X160.0300 Y109.1400 E-0.09200 F4800
G1 E-1.150 F2400
G0 Z1.930 F600
; travel+unretract
G0 X63.5700 Y109.5800 F15000
G0 Z1.680 F600
G1 E1.150 F1800
G1 X161.430 Y109.580 E3.58032 F7200
; infill
G1 X160.0300 Y109.5800 E-0.09200 F4800
G1 E-1.150 F2400
G0 Z1.930 F600
; travel+unretract
G0 X63.5700 Y110.0200 F15000
G0 Z1.680 F600
G1 E1.150 F1800
G1 X161.430 Y110.020 E3.58032 F7200
; infill
G1 X160.0300 Y110.0200 E-0.09200 F4800
G1 E-1.150 F2400
G0 Z1.930 F600
; travel+unretract
G0 X63.5700 Y110.4600 F15000
G0 Z1.680 F600
G1 E1.150 F1800
G1 X161.430 Y110.460 E3.58032 F7200
; infill
G1 X160.0300 Y110.4600 E-0.09200 F4800
G1 E-1.150 F2400
G0 Z1.930 F600
; travel+unretract
G0 X63.5700 Y110.9000 F15000
G0 Z1.680 F600
G1 E1.150 F1800
G1 X161.430 Y110.900 E3.58032 F7200
; infill
G1 X160.0300 Y110.9000 E-0.09200 F4800
G1 E-1.150 F2400
G0 Z1.930 F600
; travel+unretract
G0 X63.5700 Y111.3400 F15000
G0 Z1.680 F600
G1 E1.150 F1800
G1 X161.430 Y111.340 E3.58032 F7200
; infill
G1 X160.0300 Y111.3400 E-0.09200 F4800
G1 E-1.150 F2400
G0 Z1.930 F600
; travel+unretract
G0 X63.5700 Y111.7800 F15000
G0 Z1.680 F600
G1 E1.150 F1800
G1 X161.430 Y111.780 E3.58032 F7200
; infill
G1 X160.0300 Y111.7800 E-0.09200 F4800
G1 E-1.150 F2400
G0 Z1.930 F600
; travel+unretract
G0 X63.5700 Y112.2200 F15000
G0 Z1.680 F600
G1 E1.150 F1800
G1 X161.430 Y112.220 E3.58032 F7200
; infill
G1 X160.0300 Y112.2200 E-0.09200 F4800
G1 E-1.150 F2400
G0 Z1.930 F600
; travel+unretract
G0 X63.5700 Y112.6600 F15000
G0 Z1.680 F600
G1 E1.150 F1800
G1 X161.430 Y112.660 E3.58032 F7200
; infill
G1 X160.0300 Y112.6600 E-0.09200 F4800
G1 E-1.150 F2400
G0 Z1.930 F600
; travel+unretract
G0 X63.5700 Y113.1000 F15000
G0 Z1.680 F600
G1 E1.150 F1800
G1 X161.430 Y113.100 E3.58032 F7200
; infill
G1 X160.0300 Y113.1000 E-0.09200 F4800
G1 E-1.150 F2400
G0 Z1.930 F600
; travel+unretract
G0 X63.5700 Y113.5400 F15000
G0 Z1.680 F600
G1 E1.150 F1800
G1 X161.430 Y113.540 E3.58032 F7200
; infill
G1 X160.0300 Y113.5400 E-0.09200 F4800
G1 E-1.150 F2400
G0 Z1.930 F600
; travel+unretract
G0 X63.5700 Y113.9800 F15000
G0 Z1.680 F600
G1 E1.150 F1800
G1 X161.430 Y113.980 E3.58032 F7200
; infill
G1 X160.0300 Y113.9800 E-0.09200 F4800
G1 E-1.150 F2400
G0 Z1.930 F600
; travel+unretract
G0 X63.5700 Y114.4200 F15000
G0 Z1.680 F600
G1 E1.150 F1800
G1 X161.430 Y114.420 E3.58032 F7200
; infill
G1 X160.0300 Y114.4200 E-0.09200 F4800
G1 E-1.150 F2400
G0 Z1.930 F600
; travel+unretract
G0 X63.5700 Y114.8600 F15000
G0 Z1.680 F600
G1 E1.150 F1800
G1 X161.430 Y114.860 E3.58032 F7200
; infill
G1 X160.0300 Y114.8600 E-0.09200 F4800
G1 E-1.150 F2400
G0 Z1.930 F600
; travel+unretract
G0 X63.5700 Y115.3000 F15000
G0 Z1.680 F600
G1 E1.150 F1800
G1 X161.430 Y115.300 E3.58032 F7200
; infill
G1 X160.0300 Y115.3000 E-0.09200 F4800
G1 E-1.150 F2400
G0 Z1.930 F600
; travel+unretract
G0 X63.5700 Y115.7400 F15000
G0 Z1.680 F600
G1 E1.150 F1800
G1 X161.430 Y115.740 E3.58032 F7200
; infill
G1 X160.0300 Y115.7400 E-0.09200 F4800
G1 E-1.150 F2400
G0 Z1.930 F600
; travel+unretract
G0 X63.5700 Y116.1800 F15000
G0 Z1.680 F600
G1 E1.150 F1800
G1 X161.430 Y116.180 E3.58032 F7200
; infill
G1 X160.0300 Y116.1800 E-0.09200 F4800
G1 E-1.150 F2400
G0 Z1.930 F600
; travel+unretract
G0 X63.5700 Y116.6200 F15000
G0 Z1.680 F600
G1 E1.150 F1800
G1 X161.430 Y116.620 E3.58032 F7200
; infill
G1 X160.0300 Y116.6200 E-0.09200 F4800
G1 E-1.150 F2400
G0 Z1.930 F600
; travel+unretract
G0 X63.5700 Y117.0600 F15000
G0 Z1.680 F600
G1 E1.150 F1800
G1 X161.430 Y117.060 E3.58032 F7200
; layer end
G1 X160.0300 Y117.0600 E-0.09200 F4800
G1 E-1.150 F2400
G0 Z1.930 F600
FORGE_FLAT_SURFACE_MODE ROLE=solid

;LAYER:8 Z=1.880 lw=0.44 flow=1.00 step=0.440 mono=True isp=7200
; layer start
G0 X62.2500 Y106.5000 F15000
G0 Z1.880 F600
G1 E1.150 F1800
G1 X162.750 Y106.500 E3.67691 F4800
G1 X162.750 Y118.500 E0.43903 F4800
G1 X62.250 Y118.500 E3.67691 F4800
G1 X62.250 Y106.500 E0.43903 F4800
; peri
G1 X62.2500 Y107.9000 E-0.09200 F4800
G1 E-1.150 F2400
G0 Z2.130 F600
; travel+unretract
G0 X62.6900 Y106.9400 F15000
G0 Z1.880 F600
G1 E1.150 F1800
G1 X162.310 Y106.940 E3.64471 F4800
G1 X162.310 Y118.060 E0.40684 F4800
G1 X62.690 Y118.060 E3.64471 F4800
G1 X62.690 Y106.940 E0.40684 F4800
; peri
G1 X62.6900 Y108.3400 E-0.09200 F4800
G1 E-1.150 F2400
G0 Z2.130 F600
; travel+unretract
G0 X63.1300 Y107.3800 F15000
G0 Z1.880 F600
G1 E1.150 F1800
G1 X161.870 Y107.380 E3.61252 F4800
G1 X161.870 Y117.620 E0.37464 F4800
G1 X63.130 Y117.620 E3.61252 F4800
G1 X63.130 Y107.380 E0.37464 F4800
; infill
G1 X63.1300 Y108.7800 E-0.09200 F4800
G1 E-1.150 F2400
G0 Z2.130 F600
; travel+unretract
G0 X63.5700 Y107.8200 F15000
G0 Z1.880 F600
G1 E1.150 F1800
G1 X161.430 Y107.820 E3.58032 F7200
; infill
G1 X160.0300 Y107.8200 E-0.09200 F4800
G1 E-1.150 F2400
G0 Z2.130 F600
; travel+unretract
G0 X63.5700 Y108.2600 F15000
G0 Z1.880 F600
G1 E1.150 F1800
G1 X161.430 Y108.260 E3.58032 F7200
; infill
G1 X160.0300 Y108.2600 E-0.09200 F4800
G1 E-1.150 F2400
G0 Z2.130 F600
; travel+unretract
G0 X63.5700 Y108.7000 F15000
G0 Z1.880 F600
G1 E1.150 F1800
G1 X161.430 Y108.700 E3.58032 F7200
; infill
G1 X160.0300 Y108.7000 E-0.09200 F4800
G1 E-1.150 F2400
G0 Z2.130 F600
; travel+unretract
G0 X63.5700 Y109.1400 F15000
G0 Z1.880 F600
G1 E1.150 F1800
G1 X161.430 Y109.140 E3.58032 F7200
; infill
G1 X160.0300 Y109.1400 E-0.09200 F4800
G1 E-1.150 F2400
G0 Z2.130 F600
; travel+unretract
G0 X63.5700 Y109.5800 F15000
G0 Z1.880 F600
G1 E1.150 F1800
G1 X161.430 Y109.580 E3.58032 F7200
; infill
G1 X160.0300 Y109.5800 E-0.09200 F4800
G1 E-1.150 F2400
G0 Z2.130 F600
; travel+unretract
G0 X63.5700 Y110.0200 F15000
G0 Z1.880 F600
G1 E1.150 F1800
G1 X161.430 Y110.020 E3.58032 F7200
; infill
G1 X160.0300 Y110.0200 E-0.09200 F4800
G1 E-1.150 F2400
G0 Z2.130 F600
; travel+unretract
G0 X63.5700 Y110.4600 F15000
G0 Z1.880 F600
G1 E1.150 F1800
G1 X161.430 Y110.460 E3.58032 F7200
; infill
G1 X160.0300 Y110.4600 E-0.09200 F4800
G1 E-1.150 F2400
G0 Z2.130 F600
; travel+unretract
G0 X63.5700 Y110.9000 F15000
G0 Z1.880 F600
G1 E1.150 F1800
G1 X161.430 Y110.900 E3.58032 F7200
; infill
G1 X160.0300 Y110.9000 E-0.09200 F4800
G1 E-1.150 F2400
G0 Z2.130 F600
; travel+unretract
G0 X63.5700 Y111.3400 F15000
G0 Z1.880 F600
G1 E1.150 F1800
G1 X161.430 Y111.340 E3.58032 F7200
; infill
G1 X160.0300 Y111.3400 E-0.09200 F4800
G1 E-1.150 F2400
G0 Z2.130 F600
; travel+unretract
G0 X63.5700 Y111.7800 F15000
G0 Z1.880 F600
G1 E1.150 F1800
G1 X161.430 Y111.780 E3.58032 F7200
; infill
G1 X160.0300 Y111.7800 E-0.09200 F4800
G1 E-1.150 F2400
G0 Z2.130 F600
; travel+unretract
G0 X63.5700 Y112.2200 F15000
G0 Z1.880 F600
G1 E1.150 F1800
G1 X161.430 Y112.220 E3.58032 F7200
; infill
G1 X160.0300 Y112.2200 E-0.09200 F4800
G1 E-1.150 F2400
G0 Z2.130 F600
; travel+unretract
G0 X63.5700 Y112.6600 F15000
G0 Z1.880 F600
G1 E1.150 F1800
G1 X161.430 Y112.660 E3.58032 F7200
; infill
G1 X160.0300 Y112.6600 E-0.09200 F4800
G1 E-1.150 F2400
G0 Z2.130 F600
; travel+unretract
G0 X63.5700 Y113.1000 F15000
G0 Z1.880 F600
G1 E1.150 F1800
G1 X161.430 Y113.100 E3.58032 F7200
; infill
G1 X160.0300 Y113.1000 E-0.09200 F4800
G1 E-1.150 F2400
G0 Z2.130 F600
; travel+unretract
G0 X63.5700 Y113.5400 F15000
G0 Z1.880 F600
G1 E1.150 F1800
G1 X161.430 Y113.540 E3.58032 F7200
; infill
G1 X160.0300 Y113.5400 E-0.09200 F4800
G1 E-1.150 F2400
G0 Z2.130 F600
; travel+unretract
G0 X63.5700 Y113.9800 F15000
G0 Z1.880 F600
G1 E1.150 F1800
G1 X161.430 Y113.980 E3.58032 F7200
; infill
G1 X160.0300 Y113.9800 E-0.09200 F4800
G1 E-1.150 F2400
G0 Z2.130 F600
; travel+unretract
G0 X63.5700 Y114.4200 F15000
G0 Z1.880 F600
G1 E1.150 F1800
G1 X161.430 Y114.420 E3.58032 F7200
; infill
G1 X160.0300 Y114.4200 E-0.09200 F4800
G1 E-1.150 F2400
G0 Z2.130 F600
; travel+unretract
G0 X63.5700 Y114.8600 F15000
G0 Z1.880 F600
G1 E1.150 F1800
G1 X161.430 Y114.860 E3.58032 F7200
; infill
G1 X160.0300 Y114.8600 E-0.09200 F4800
G1 E-1.150 F2400
G0 Z2.130 F600
; travel+unretract
G0 X63.5700 Y115.3000 F15000
G0 Z1.880 F600
G1 E1.150 F1800
G1 X161.430 Y115.300 E3.58032 F7200
; infill
G1 X160.0300 Y115.3000 E-0.09200 F4800
G1 E-1.150 F2400
G0 Z2.130 F600
; travel+unretract
G0 X63.5700 Y115.7400 F15000
G0 Z1.880 F600
G1 E1.150 F1800
G1 X161.430 Y115.740 E3.58032 F7200
; infill
G1 X160.0300 Y115.7400 E-0.09200 F4800
G1 E-1.150 F2400
G0 Z2.130 F600
; travel+unretract
G0 X63.5700 Y116.1800 F15000
G0 Z1.880 F600
G1 E1.150 F1800
G1 X161.430 Y116.180 E3.58032 F7200
; infill
G1 X160.0300 Y116.1800 E-0.09200 F4800
G1 E-1.150 F2400
G0 Z2.130 F600
; travel+unretract
G0 X63.5700 Y116.6200 F15000
G0 Z1.880 F600
G1 E1.150 F1800
G1 X161.430 Y116.620 E3.58032 F7200
; infill
G1 X160.0300 Y116.6200 E-0.09200 F4800
G1 E-1.150 F2400
G0 Z2.130 F600
; travel+unretract
G0 X63.5700 Y117.0600 F15000
G0 Z1.880 F600
G1 E1.150 F1800
G1 X161.430 Y117.060 E3.58032 F7200
; layer end
G1 X160.0300 Y117.0600 E-0.09200 F4800
G1 E-1.150 F2400
G0 Z2.130 F600
FORGE_FLAT_SURFACE_MODE ROLE=solid

;LAYER:9 Z=2.080 lw=0.44 flow=1.00 step=0.440 mono=True isp=7200
; layer start
G0 X62.2500 Y106.5000 F15000
G0 Z2.080 F600
G1 E1.150 F1800
G1 X162.750 Y106.500 E3.67691 F4800
G1 X162.750 Y118.500 E0.43903 F4800
G1 X62.250 Y118.500 E3.67691 F4800
G1 X62.250 Y106.500 E0.43903 F4800
; peri
G1 X62.2500 Y107.9000 E-0.09200 F4800
G1 E-1.150 F2400
G0 Z2.330 F600
; travel+unretract
G0 X62.6900 Y106.9400 F15000
G0 Z2.080 F600
G1 E1.150 F1800
G1 X162.310 Y106.940 E3.64471 F4800
G1 X162.310 Y118.060 E0.40684 F4800
G1 X62.690 Y118.060 E3.64471 F4800
G1 X62.690 Y106.940 E0.40684 F4800
; peri
G1 X62.6900 Y108.3400 E-0.09200 F4800
G1 E-1.150 F2400
G0 Z2.330 F600
; travel+unretract
G0 X63.1300 Y107.3800 F15000
G0 Z2.080 F600
G1 E1.150 F1800
G1 X161.870 Y107.380 E3.61252 F4800
G1 X161.870 Y117.620 E0.37464 F4800
G1 X63.130 Y117.620 E3.61252 F4800
G1 X63.130 Y107.380 E0.37464 F4800
; infill
G1 X63.1300 Y108.7800 E-0.09200 F4800
G1 E-1.150 F2400
G0 Z2.330 F600
; travel+unretract
G0 X63.5700 Y107.8200 F15000
G0 Z2.080 F600
G1 E1.150 F1800
G1 X161.430 Y107.820 E3.58032 F7200
; infill
G1 X160.0300 Y107.8200 E-0.09200 F4800
G1 E-1.150 F2400
G0 Z2.330 F600
; travel+unretract
G0 X63.5700 Y108.2600 F15000
G0 Z2.080 F600
G1 E1.150 F1800
G1 X161.430 Y108.260 E3.58032 F7200
; infill
G1 X160.0300 Y108.2600 E-0.09200 F4800
G1 E-1.150 F2400
G0 Z2.330 F600
; travel+unretract
G0 X63.5700 Y108.7000 F15000
G0 Z2.080 F600
G1 E1.150 F1800
G1 X161.430 Y108.700 E3.58032 F7200
; infill
G1 X160.0300 Y108.7000 E-0.09200 F4800
G1 E-1.150 F2400
G0 Z2.330 F600
; travel+unretract
G0 X63.5700 Y109.1400 F15000
G0 Z2.080 F600
G1 E1.150 F1800
G1 X161.430 Y109.140 E3.58032 F7200
; infill
G1 X160.0300 Y109.1400 E-0.09200 F4800
G1 E-1.150 F2400
G0 Z2.330 F600
; travel+unretract
G0 X63.5700 Y109.5800 F15000
G0 Z2.080 F600
G1 E1.150 F1800
G1 X161.430 Y109.580 E3.58032 F7200
; infill
G1 X160.0300 Y109.5800 E-0.09200 F4800
G1 E-1.150 F2400
G0 Z2.330 F600
; travel+unretract
G0 X63.5700 Y110.0200 F15000
G0 Z2.080 F600
G1 E1.150 F1800
G1 X161.430 Y110.020 E3.58032 F7200
; infill
G1 X160.0300 Y110.0200 E-0.09200 F4800
G1 E-1.150 F2400
G0 Z2.330 F600
; travel+unretract
G0 X63.5700 Y110.4600 F15000
G0 Z2.080 F600
G1 E1.150 F1800
G1 X161.430 Y110.460 E3.58032 F7200
; infill
G1 X160.0300 Y110.4600 E-0.09200 F4800
G1 E-1.150 F2400
G0 Z2.330 F600
; travel+unretract
G0 X63.5700 Y110.9000 F15000
G0 Z2.080 F600
G1 E1.150 F1800
G1 X161.430 Y110.900 E3.58032 F7200
; infill
G1 X160.0300 Y110.9000 E-0.09200 F4800
G1 E-1.150 F2400
G0 Z2.330 F600
; travel+unretract
G0 X63.5700 Y111.3400 F15000
G0 Z2.080 F600
G1 E1.150 F1800
G1 X161.430 Y111.340 E3.58032 F7200
; infill
G1 X160.0300 Y111.3400 E-0.09200 F4800
G1 E-1.150 F2400
G0 Z2.330 F600
; travel+unretract
G0 X63.5700 Y111.7800 F15000
G0 Z2.080 F600
G1 E1.150 F1800
G1 X161.430 Y111.780 E3.58032 F7200
; infill
G1 X160.0300 Y111.7800 E-0.09200 F4800
G1 E-1.150 F2400
G0 Z2.330 F600
; travel+unretract
G0 X63.5700 Y112.2200 F15000
G0 Z2.080 F600
G1 E1.150 F1800
G1 X161.430 Y112.220 E3.58032 F7200
; infill
G1 X160.0300 Y112.2200 E-0.09200 F4800
G1 E-1.150 F2400
G0 Z2.330 F600
; travel+unretract
G0 X63.5700 Y112.6600 F15000
G0 Z2.080 F600
G1 E1.150 F1800
G1 X161.430 Y112.660 E3.58032 F7200
; infill
G1 X160.0300 Y112.6600 E-0.09200 F4800
G1 E-1.150 F2400
G0 Z2.330 F600
; travel+unretract
G0 X63.5700 Y113.1000 F15000
G0 Z2.080 F600
G1 E1.150 F1800
G1 X161.430 Y113.100 E3.58032 F7200
; infill
G1 X160.0300 Y113.1000 E-0.09200 F4800
G1 E-1.150 F2400
G0 Z2.330 F600
; travel+unretract
G0 X63.5700 Y113.5400 F15000
G0 Z2.080 F600
G1 E1.150 F1800
G1 X161.430 Y113.540 E3.58032 F7200
; infill
G1 X160.0300 Y113.5400 E-0.09200 F4800
G1 E-1.150 F2400
G0 Z2.330 F600
; travel+unretract
G0 X63.5700 Y113.9800 F15000
G0 Z2.080 F600
G1 E1.150 F1800
G1 X161.430 Y113.980 E3.58032 F7200
; infill
G1 X160.0300 Y113.9800 E-0.09200 F4800
G1 E-1.150 F2400
G0 Z2.330 F600
; travel+unretract
G0 X63.5700 Y114.4200 F15000
G0 Z2.080 F600
G1 E1.150 F1800
G1 X161.430 Y114.420 E3.58032 F7200
; infill
G1 X160.0300 Y114.4200 E-0.09200 F4800
G1 E-1.150 F2400
G0 Z2.330 F600
; travel+unretract
G0 X63.5700 Y114.8600 F15000
G0 Z2.080 F600
G1 E1.150 F1800
G1 X161.430 Y114.860 E3.58032 F7200
; infill
G1 X160.0300 Y114.8600 E-0.09200 F4800
G1 E-1.150 F2400
G0 Z2.330 F600
; travel+unretract
G0 X63.5700 Y115.3000 F15000
G0 Z2.080 F600
G1 E1.150 F1800
G1 X161.430 Y115.300 E3.58032 F7200
; infill
G1 X160.0300 Y115.3000 E-0.09200 F4800
G1 E-1.150 F2400
G0 Z2.330 F600
; travel+unretract
G0 X63.5700 Y115.7400 F15000
G0 Z2.080 F600
G1 E1.150 F1800
G1 X161.430 Y115.740 E3.58032 F7200
; infill
G1 X160.0300 Y115.7400 E-0.09200 F4800
G1 E-1.150 F2400
G0 Z2.330 F600
; travel+unretract
G0 X63.5700 Y116.1800 F15000
G0 Z2.080 F600
G1 E1.150 F1800
G1 X161.430 Y116.180 E3.58032 F7200
; infill
G1 X160.0300 Y116.1800 E-0.09200 F4800
G1 E-1.150 F2400
G0 Z2.330 F600
; travel+unretract
G0 X63.5700 Y116.6200 F15000
G0 Z2.080 F600
G1 E1.150 F1800
G1 X161.430 Y116.620 E3.58032 F7200
; infill
G1 X160.0300 Y116.6200 E-0.09200 F4800
G1 E-1.150 F2400
G0 Z2.330 F600
; travel+unretract
G0 X63.5700 Y117.0600 F15000
G0 Z2.080 F600
G1 E1.150 F1800
G1 X161.430 Y117.060 E3.58032 F7200
; layer end
G1 X160.0300 Y117.0600 E-0.09200 F4800
G1 E-1.150 F2400
G0 Z2.330 F600
FORGE_FLAT_SURFACE_MODE ROLE=solid

;LAYER:10 Z=2.280 lw=0.44 flow=1.00 step=0.440 mono=True isp=7200
; layer start
G0 X62.2500 Y106.5000 F15000
G0 Z2.280 F600
G1 E1.150 F1800
G1 X162.750 Y106.500 E3.67691 F4800
G1 X162.750 Y118.500 E0.43903 F4800
G1 X62.250 Y118.500 E3.67691 F4800
G1 X62.250 Y106.500 E0.43903 F4800
; peri
G1 X62.2500 Y107.9000 E-0.09200 F4800
G1 E-1.150 F2400
G0 Z2.530 F600
; travel+unretract
G0 X62.6900 Y106.9400 F15000
G0 Z2.280 F600
G1 E1.150 F1800
G1 X162.310 Y106.940 E3.64471 F4800
G1 X162.310 Y118.060 E0.40684 F4800
G1 X62.690 Y118.060 E3.64471 F4800
G1 X62.690 Y106.940 E0.40684 F4800
; peri
G1 X62.6900 Y108.3400 E-0.09200 F4800
G1 E-1.150 F2400
G0 Z2.530 F600
; travel+unretract
G0 X63.1300 Y107.3800 F15000
G0 Z2.280 F600
G1 E1.150 F1800
G1 X161.870 Y107.380 E3.61252 F4800
G1 X161.870 Y117.620 E0.37464 F4800
G1 X63.130 Y117.620 E3.61252 F4800
G1 X63.130 Y107.380 E0.37464 F4800
; infill
G1 X63.1300 Y108.7800 E-0.09200 F4800
G1 E-1.150 F2400
G0 Z2.530 F600
; travel+unretract
G0 X63.5700 Y107.8200 F15000
G0 Z2.280 F600
G1 E1.150 F1800
G1 X161.430 Y107.820 E3.58032 F7200
; infill
G1 X160.0300 Y107.8200 E-0.09200 F4800
G1 E-1.150 F2400
G0 Z2.530 F600
; travel+unretract
G0 X63.5700 Y108.2600 F15000
G0 Z2.280 F600
G1 E1.150 F1800
G1 X161.430 Y108.260 E3.58032 F7200
; infill
G1 X160.0300 Y108.2600 E-0.09200 F4800
G1 E-1.150 F2400
G0 Z2.530 F600
; travel+unretract
G0 X63.5700 Y108.7000 F15000
G0 Z2.280 F600
G1 E1.150 F1800
G1 X161.430 Y108.700 E3.58032 F7200
; infill
G1 X160.0300 Y108.7000 E-0.09200 F4800
G1 E-1.150 F2400
G0 Z2.530 F600
; travel+unretract
G0 X63.5700 Y109.1400 F15000
G0 Z2.280 F600
G1 E1.150 F1800
G1 X161.430 Y109.140 E3.58032 F7200
; infill
G1 X160.0300 Y109.1400 E-0.09200 F4800
G1 E-1.150 F2400
G0 Z2.530 F600
; travel+unretract
G0 X63.5700 Y109.5800 F15000
G0 Z2.280 F600
G1 E1.150 F1800
G1 X161.430 Y109.580 E3.58032 F7200
; infill
G1 X160.0300 Y109.5800 E-0.09200 F4800
G1 E-1.150 F2400
G0 Z2.530 F600
; travel+unretract
G0 X63.5700 Y110.0200 F15000
G0 Z2.280 F600
G1 E1.150 F1800
G1 X161.430 Y110.020 E3.58032 F7200
; infill
G1 X160.0300 Y110.0200 E-0.09200 F4800
G1 E-1.150 F2400
G0 Z2.530 F600
; travel+unretract
G0 X63.5700 Y110.4600 F15000
G0 Z2.280 F600
G1 E1.150 F1800
G1 X161.430 Y110.460 E3.58032 F7200
; infill
G1 X160.0300 Y110.4600 E-0.09200 F4800
G1 E-1.150 F2400
G0 Z2.530 F600
; travel+unretract
G0 X63.5700 Y110.9000 F15000
G0 Z2.280 F600
G1 E1.150 F1800
G1 X161.430 Y110.900 E3.58032 F7200
; infill
G1 X160.0300 Y110.9000 E-0.09200 F4800
G1 E-1.150 F2400
G0 Z2.530 F600
; travel+unretract
G0 X63.5700 Y111.3400 F15000
G0 Z2.280 F600
G1 E1.150 F1800
G1 X161.430 Y111.340 E3.58032 F7200
; infill
G1 X160.0300 Y111.3400 E-0.09200 F4800
G1 E-1.150 F2400
G0 Z2.530 F600
; travel+unretract
G0 X63.5700 Y111.7800 F15000
G0 Z2.280 F600
G1 E1.150 F1800
G1 X161.430 Y111.780 E3.58032 F7200
; infill
G1 X160.0300 Y111.7800 E-0.09200 F4800
G1 E-1.150 F2400
G0 Z2.530 F600
; travel+unretract
G0 X63.5700 Y112.2200 F15000
G0 Z2.280 F600
G1 E1.150 F1800
G1 X161.430 Y112.220 E3.58032 F7200
; infill
G1 X160.0300 Y112.2200 E-0.09200 F4800
G1 E-1.150 F2400
G0 Z2.530 F600
; travel+unretract
G0 X63.5700 Y112.6600 F15000
G0 Z2.280 F600
G1 E1.150 F1800
G1 X161.430 Y112.660 E3.58032 F7200
; infill
G1 X160.0300 Y112.6600 E-0.09200 F4800
G1 E-1.150 F2400
G0 Z2.530 F600
; travel+unretract
G0 X63.5700 Y113.1000 F15000
G0 Z2.280 F600
G1 E1.150 F1800
G1 X161.430 Y113.100 E3.58032 F7200
; infill
G1 X160.0300 Y113.1000 E-0.09200 F4800
G1 E-1.150 F2400
G0 Z2.530 F600
; travel+unretract
G0 X63.5700 Y113.5400 F15000
G0 Z2.280 F600
G1 E1.150 F1800
G1 X161.430 Y113.540 E3.58032 F7200
; infill
G1 X160.0300 Y113.5400 E-0.09200 F4800
G1 E-1.150 F2400
G0 Z2.530 F600
; travel+unretract
G0 X63.5700 Y113.9800 F15000
G0 Z2.280 F600
G1 E1.150 F1800
G1 X161.430 Y113.980 E3.58032 F7200
; infill
G1 X160.0300 Y113.9800 E-0.09200 F4800
G1 E-1.150 F2400
G0 Z2.530 F600
; travel+unretract
G0 X63.5700 Y114.4200 F15000
G0 Z2.280 F600
G1 E1.150 F1800
G1 X161.430 Y114.420 E3.58032 F7200
; infill
G1 X160.0300 Y114.4200 E-0.09200 F4800
G1 E-1.150 F2400
G0 Z2.530 F600
; travel+unretract
G0 X63.5700 Y114.8600 F15000
G0 Z2.280 F600
G1 E1.150 F1800
G1 X161.430 Y114.860 E3.58032 F7200
; infill
G1 X160.0300 Y114.8600 E-0.09200 F4800
G1 E-1.150 F2400
G0 Z2.530 F600
; travel+unretract
G0 X63.5700 Y115.3000 F15000
G0 Z2.280 F600
G1 E1.150 F1800
G1 X161.430 Y115.300 E3.58032 F7200
; infill
G1 X160.0300 Y115.3000 E-0.09200 F4800
G1 E-1.150 F2400
G0 Z2.530 F600
; travel+unretract
G0 X63.5700 Y115.7400 F15000
G0 Z2.280 F600
G1 E1.150 F1800
G1 X161.430 Y115.740 E3.58032 F7200
; infill
G1 X160.0300 Y115.7400 E-0.09200 F4800
G1 E-1.150 F2400
G0 Z2.530 F600
; travel+unretract
G0 X63.5700 Y116.1800 F15000
G0 Z2.280 F600
G1 E1.150 F1800
G1 X161.430 Y116.180 E3.58032 F7200
; infill
G1 X160.0300 Y116.1800 E-0.09200 F4800
G1 E-1.150 F2400
G0 Z2.530 F600
; travel+unretract
G0 X63.5700 Y116.6200 F15000
G0 Z2.280 F600
G1 E1.150 F1800
G1 X161.430 Y116.620 E3.58032 F7200
; infill
G1 X160.0300 Y116.6200 E-0.09200 F4800
G1 E-1.150 F2400
G0 Z2.530 F600
; travel+unretract
G0 X63.5700 Y117.0600 F15000
G0 Z2.280 F600
G1 E1.150 F1800
G1 X161.430 Y117.060 E3.58032 F7200
; layer end
G1 X160.0300 Y117.0600 E-0.09200 F4800
G1 E-1.150 F2400
G0 Z2.530 F600
FORGE_FLAT_SURFACE_MODE ROLE=solid

;LAYER:11 Z=2.480 lw=0.44 flow=1.00 step=0.440 mono=True isp=7200
; layer start
G0 X62.2500 Y106.5000 F15000
G0 Z2.480 F600
G1 E1.150 F1800
G1 X162.750 Y106.500 E3.67691 F4800
G1 X162.750 Y118.500 E0.43903 F4800
G1 X62.250 Y118.500 E3.67691 F4800
G1 X62.250 Y106.500 E0.43903 F4800
; peri
G1 X62.2500 Y107.9000 E-0.09200 F4800
G1 E-1.150 F2400
G0 Z2.730 F600
; travel+unretract
G0 X62.6900 Y106.9400 F15000
G0 Z2.480 F600
G1 E1.150 F1800
G1 X162.310 Y106.940 E3.64471 F4800
G1 X162.310 Y118.060 E0.40684 F4800
G1 X62.690 Y118.060 E3.64471 F4800
G1 X62.690 Y106.940 E0.40684 F4800
; peri
G1 X62.6900 Y108.3400 E-0.09200 F4800
G1 E-1.150 F2400
G0 Z2.730 F600
; travel+unretract
G0 X63.1300 Y107.3800 F15000
G0 Z2.480 F600
G1 E1.150 F1800
G1 X161.870 Y107.380 E3.61252 F4800
G1 X161.870 Y117.620 E0.37464 F4800
G1 X63.130 Y117.620 E3.61252 F4800
G1 X63.130 Y107.380 E0.37464 F4800
; infill
G1 X63.1300 Y108.7800 E-0.09200 F4800
G1 E-1.150 F2400
G0 Z2.730 F600
; travel+unretract
G0 X63.5700 Y107.8200 F15000
G0 Z2.480 F600
G1 E1.150 F1800
G1 X161.430 Y107.820 E3.58032 F7200
; infill
G1 X160.0300 Y107.8200 E-0.09200 F4800
G1 E-1.150 F2400
G0 Z2.730 F600
; travel+unretract
G0 X63.5700 Y108.2600 F15000
G0 Z2.480 F600
G1 E1.150 F1800
G1 X161.430 Y108.260 E3.58032 F7200
; infill
G1 X160.0300 Y108.2600 E-0.09200 F4800
G1 E-1.150 F2400
G0 Z2.730 F600
; travel+unretract
G0 X63.5700 Y108.7000 F15000
G0 Z2.480 F600
G1 E1.150 F1800
G1 X161.430 Y108.700 E3.58032 F7200
; infill
G1 X160.0300 Y108.7000 E-0.09200 F4800
G1 E-1.150 F2400
G0 Z2.730 F600
; travel+unretract
G0 X63.5700 Y109.1400 F15000
G0 Z2.480 F600
G1 E1.150 F1800
G1 X161.430 Y109.140 E3.58032 F7200
; infill
G1 X160.0300 Y109.1400 E-0.09200 F4800
G1 E-1.150 F2400
G0 Z2.730 F600
; travel+unretract
G0 X63.5700 Y109.5800 F15000
G0 Z2.480 F600
G1 E1.150 F1800
G1 X161.430 Y109.580 E3.58032 F7200
; infill
G1 X160.0300 Y109.5800 E-0.09200 F4800
G1 E-1.150 F2400
G0 Z2.730 F600
; travel+unretract
G0 X63.5700 Y110.0200 F15000
G0 Z2.480 F600
G1 E1.150 F1800
G1 X161.430 Y110.020 E3.58032 F7200
; infill
G1 X160.0300 Y110.0200 E-0.09200 F4800
G1 E-1.150 F2400
G0 Z2.730 F600
; travel+unretract
G0 X63.5700 Y110.4600 F15000
G0 Z2.480 F600
G1 E1.150 F1800
G1 X161.430 Y110.460 E3.58032 F7200
; infill
G1 X160.0300 Y110.4600 E-0.09200 F4800
G1 E-1.150 F2400
G0 Z2.730 F600
; travel+unretract
G0 X63.5700 Y110.9000 F15000
G0 Z2.480 F600
G1 E1.150 F1800
G1 X161.430 Y110.900 E3.58032 F7200
; infill
G1 X160.0300 Y110.9000 E-0.09200 F4800
G1 E-1.150 F2400
G0 Z2.730 F600
; travel+unretract
G0 X63.5700 Y111.3400 F15000
G0 Z2.480 F600
G1 E1.150 F1800
G1 X161.430 Y111.340 E3.58032 F7200
; infill
G1 X160.0300 Y111.3400 E-0.09200 F4800
G1 E-1.150 F2400
G0 Z2.730 F600
; travel+unretract
G0 X63.5700 Y111.7800 F15000
G0 Z2.480 F600
G1 E1.150 F1800
G1 X161.430 Y111.780 E3.58032 F7200
; infill
G1 X160.0300 Y111.7800 E-0.09200 F4800
G1 E-1.150 F2400
G0 Z2.730 F600
; travel+unretract
G0 X63.5700 Y112.2200 F15000
G0 Z2.480 F600
G1 E1.150 F1800
G1 X161.430 Y112.220 E3.58032 F7200
; infill
G1 X160.0300 Y112.2200 E-0.09200 F4800
G1 E-1.150 F2400
G0 Z2.730 F600
; travel+unretract
G0 X63.5700 Y112.6600 F15000
G0 Z2.480 F600
G1 E1.150 F1800
G1 X161.430 Y112.660 E3.58032 F7200
; infill
G1 X160.0300 Y112.6600 E-0.09200 F4800
G1 E-1.150 F2400
G0 Z2.730 F600
; travel+unretract
G0 X63.5700 Y113.1000 F15000
G0 Z2.480 F600
G1 E1.150 F1800
G1 X161.430 Y113.100 E3.58032 F7200
; infill
G1 X160.0300 Y113.1000 E-0.09200 F4800
G1 E-1.150 F2400
G0 Z2.730 F600
; travel+unretract
G0 X63.5700 Y113.5400 F15000
G0 Z2.480 F600
G1 E1.150 F1800
G1 X161.430 Y113.540 E3.58032 F7200
; infill
G1 X160.0300 Y113.5400 E-0.09200 F4800
G1 E-1.150 F2400
G0 Z2.730 F600
; travel+unretract
G0 X63.5700 Y113.9800 F15000
G0 Z2.480 F600
G1 E1.150 F1800
G1 X161.430 Y113.980 E3.58032 F7200
; infill
G1 X160.0300 Y113.9800 E-0.09200 F4800
G1 E-1.150 F2400
G0 Z2.730 F600
; travel+unretract
G0 X63.5700 Y114.4200 F15000
G0 Z2.480 F600
G1 E1.150 F1800
G1 X161.430 Y114.420 E3.58032 F7200
; infill
G1 X160.0300 Y114.4200 E-0.09200 F4800
G1 E-1.150 F2400
G0 Z2.730 F600
; travel+unretract
G0 X63.5700 Y114.8600 F15000
G0 Z2.480 F600
G1 E1.150 F1800
G1 X161.430 Y114.860 E3.58032 F7200
; infill
G1 X160.0300 Y114.8600 E-0.09200 F4800
G1 E-1.150 F2400
G0 Z2.730 F600
; travel+unretract
G0 X63.5700 Y115.3000 F15000
G0 Z2.480 F600
G1 E1.150 F1800
G1 X161.430 Y115.300 E3.58032 F7200
; infill
G1 X160.0300 Y115.3000 E-0.09200 F4800
G1 E-1.150 F2400
G0 Z2.730 F600
; travel+unretract
G0 X63.5700 Y115.7400 F15000
G0 Z2.480 F600
G1 E1.150 F1800
G1 X161.430 Y115.740 E3.58032 F7200
; infill
G1 X160.0300 Y115.7400 E-0.09200 F4800
G1 E-1.150 F2400
G0 Z2.730 F600
; travel+unretract
G0 X63.5700 Y116.1800 F15000
G0 Z2.480 F600
G1 E1.150 F1800
G1 X161.430 Y116.180 E3.58032 F7200
; infill
G1 X160.0300 Y116.1800 E-0.09200 F4800
G1 E-1.150 F2400
G0 Z2.730 F600
; travel+unretract
G0 X63.5700 Y116.6200 F15000
G0 Z2.480 F600
G1 E1.150 F1800
G1 X161.430 Y116.620 E3.58032 F7200
; infill
G1 X160.0300 Y116.6200 E-0.09200 F4800
G1 E-1.150 F2400
G0 Z2.730 F600
; travel+unretract
G0 X63.5700 Y117.0600 F15000
G0 Z2.480 F600
G1 E1.150 F1800
G1 X161.430 Y117.060 E3.58032 F7200
; layer end
G1 X160.0300 Y117.0600 E-0.09200 F4800
G1 E-1.150 F2400
G0 Z2.730 F600
FORGE_FLAT_SURFACE_MODE ROLE=solid

;LAYER:12 Z=2.680 lw=0.44 flow=1.00 step=0.440 mono=True isp=7200
; layer start
G0 X62.2500 Y106.5000 F15000
G0 Z2.680 F600
G1 E1.150 F1800
G1 X162.750 Y106.500 E3.67691 F4800
G1 X162.750 Y118.500 E0.43903 F4800
G1 X62.250 Y118.500 E3.67691 F4800
G1 X62.250 Y106.500 E0.43903 F4800
; peri
G1 X62.2500 Y107.9000 E-0.09200 F4800
G1 E-1.150 F2400
G0 Z2.930 F600
; travel+unretract
G0 X62.6900 Y106.9400 F15000
G0 Z2.680 F600
G1 E1.150 F1800
G1 X162.310 Y106.940 E3.64471 F4800
G1 X162.310 Y118.060 E0.40684 F4800
G1 X62.690 Y118.060 E3.64471 F4800
G1 X62.690 Y106.940 E0.40684 F4800
; peri
G1 X62.6900 Y108.3400 E-0.09200 F4800
G1 E-1.150 F2400
G0 Z2.930 F600
; travel+unretract
G0 X63.1300 Y107.3800 F15000
G0 Z2.680 F600
G1 E1.150 F1800
G1 X161.870 Y107.380 E3.61252 F4800
G1 X161.870 Y117.620 E0.37464 F4800
G1 X63.130 Y117.620 E3.61252 F4800
G1 X63.130 Y107.380 E0.37464 F4800
; infill
G1 X63.1300 Y108.7800 E-0.09200 F4800
G1 E-1.150 F2400
G0 Z2.930 F600
; travel+unretract
G0 X63.5700 Y107.8200 F15000
G0 Z2.680 F600
G1 E1.150 F1800
G1 X161.430 Y107.820 E3.58032 F7200
; infill
G1 X160.0300 Y107.8200 E-0.09200 F4800
G1 E-1.150 F2400
G0 Z2.930 F600
; travel+unretract
G0 X63.5700 Y108.2600 F15000
G0 Z2.680 F600
G1 E1.150 F1800
G1 X161.430 Y108.260 E3.58032 F7200
; infill
G1 X160.0300 Y108.2600 E-0.09200 F4800
G1 E-1.150 F2400
G0 Z2.930 F600
; travel+unretract
G0 X63.5700 Y108.7000 F15000
G0 Z2.680 F600
G1 E1.150 F1800
G1 X161.430 Y108.700 E3.58032 F7200
; infill
G1 X160.0300 Y108.7000 E-0.09200 F4800
G1 E-1.150 F2400
G0 Z2.930 F600
; travel+unretract
G0 X63.5700 Y109.1400 F15000
G0 Z2.680 F600
G1 E1.150 F1800
G1 X161.430 Y109.140 E3.58032 F7200
; infill
G1 X160.0300 Y109.1400 E-0.09200 F4800
G1 E-1.150 F2400
G0 Z2.930 F600
; travel+unretract
G0 X63.5700 Y109.5800 F15000
G0 Z2.680 F600
G1 E1.150 F1800
G1 X161.430 Y109.580 E3.58032 F7200
; infill
G1 X160.0300 Y109.5800 E-0.09200 F4800
G1 E-1.150 F2400
G0 Z2.930 F600
; travel+unretract
G0 X63.5700 Y110.0200 F15000
G0 Z2.680 F600
G1 E1.150 F1800
G1 X161.430 Y110.020 E3.58032 F7200
; infill
G1 X160.0300 Y110.0200 E-0.09200 F4800
G1 E-1.150 F2400
G0 Z2.930 F600
; travel+unretract
G0 X63.5700 Y110.4600 F15000
G0 Z2.680 F600
G1 E1.150 F1800
G1 X161.430 Y110.460 E3.58032 F7200
; infill
G1 X160.0300 Y110.4600 E-0.09200 F4800
G1 E-1.150 F2400
G0 Z2.930 F600
; travel+unretract
G0 X63.5700 Y110.9000 F15000
G0 Z2.680 F600
G1 E1.150 F1800
G1 X161.430 Y110.900 E3.58032 F7200
; infill
G1 X160.0300 Y110.9000 E-0.09200 F4800
G1 E-1.150 F2400
G0 Z2.930 F600
; travel+unretract
G0 X63.5700 Y111.3400 F15000
G0 Z2.680 F600
G1 E1.150 F1800
G1 X161.430 Y111.340 E3.58032 F7200
; infill
G1 X160.0300 Y111.3400 E-0.09200 F4800
G1 E-1.150 F2400
G0 Z2.930 F600
; travel+unretract
G0 X63.5700 Y111.7800 F15000
G0 Z2.680 F600
G1 E1.150 F1800
G1 X161.430 Y111.780 E3.58032 F7200
; infill
G1 X160.0300 Y111.7800 E-0.09200 F4800
G1 E-1.150 F2400
G0 Z2.930 F600
; travel+unretract
G0 X63.5700 Y112.2200 F15000
G0 Z2.680 F600
G1 E1.150 F1800
G1 X161.430 Y112.220 E3.58032 F7200
; infill
G1 X160.0300 Y112.2200 E-0.09200 F4800
G1 E-1.150 F2400
G0 Z2.930 F600
; travel+unretract
G0 X63.5700 Y112.6600 F15000
G0 Z2.680 F600
G1 E1.150 F1800
G1 X161.430 Y112.660 E3.58032 F7200
; infill
G1 X160.0300 Y112.6600 E-0.09200 F4800
G1 E-1.150 F2400
G0 Z2.930 F600
; travel+unretract
G0 X63.5700 Y113.1000 F15000
G0 Z2.680 F600
G1 E1.150 F1800
G1 X161.430 Y113.100 E3.58032 F7200
; infill
G1 X160.0300 Y113.1000 E-0.09200 F4800
G1 E-1.150 F2400
G0 Z2.930 F600
; travel+unretract
G0 X63.5700 Y113.5400 F15000
G0 Z2.680 F600
G1 E1.150 F1800
G1 X161.430 Y113.540 E3.58032 F7200
; infill
G1 X160.0300 Y113.5400 E-0.09200 F4800
G1 E-1.150 F2400
G0 Z2.930 F600
; travel+unretract
G0 X63.5700 Y113.9800 F15000
G0 Z2.680 F600
G1 E1.150 F1800
G1 X161.430 Y113.980 E3.58032 F7200
; infill
G1 X160.0300 Y113.9800 E-0.09200 F4800
G1 E-1.150 F2400
G0 Z2.930 F600
; travel+unretract
G0 X63.5700 Y114.4200 F15000
G0 Z2.680 F600
G1 E1.150 F1800
G1 X161.430 Y114.420 E3.58032 F7200
; infill
G1 X160.0300 Y114.4200 E-0.09200 F4800
G1 E-1.150 F2400
G0 Z2.930 F600
; travel+unretract
G0 X63.5700 Y114.8600 F15000
G0 Z2.680 F600
G1 E1.150 F1800
G1 X161.430 Y114.860 E3.58032 F7200
; infill
G1 X160.0300 Y114.8600 E-0.09200 F4800
G1 E-1.150 F2400
G0 Z2.930 F600
; travel+unretract
G0 X63.5700 Y115.3000 F15000
G0 Z2.680 F600
G1 E1.150 F1800
G1 X161.430 Y115.300 E3.58032 F7200
; infill
G1 X160.0300 Y115.3000 E-0.09200 F4800
G1 E-1.150 F2400
G0 Z2.930 F600
; travel+unretract
G0 X63.5700 Y115.7400 F15000
G0 Z2.680 F600
G1 E1.150 F1800
G1 X161.430 Y115.740 E3.58032 F7200
; infill
G1 X160.0300 Y115.7400 E-0.09200 F4800
G1 E-1.150 F2400
G0 Z2.930 F600
; travel+unretract
G0 X63.5700 Y116.1800 F15000
G0 Z2.680 F600
G1 E1.150 F1800
G1 X161.430 Y116.180 E3.58032 F7200
; infill
G1 X160.0300 Y116.1800 E-0.09200 F4800
G1 E-1.150 F2400
G0 Z2.930 F600
; travel+unretract
G0 X63.5700 Y116.6200 F15000
G0 Z2.680 F600
G1 E1.150 F1800
G1 X161.430 Y116.620 E3.58032 F7200
; infill
G1 X160.0300 Y116.6200 E-0.09200 F4800
G1 E-1.150 F2400
G0 Z2.930 F600
; travel+unretract
G0 X63.5700 Y117.0600 F15000
G0 Z2.680 F600
G1 E1.150 F1800
G1 X161.430 Y117.060 E3.58032 F7200
; layer end
G1 X160.0300 Y117.0600 E-0.09200 F4800
G1 E-1.150 F2400
G0 Z2.930 F600
FORGE_FLAT_SURFACE_MODE ROLE=solid

;LAYER:13 Z=2.880 lw=0.44 flow=1.00 step=0.440 mono=True isp=7200
; layer start
G0 X62.2500 Y106.5000 F15000
G0 Z2.880 F600
G1 E1.150 F1800
G1 X162.750 Y106.500 E3.67691 F4800
G1 X162.750 Y118.500 E0.43903 F4800
G1 X62.250 Y118.500 E3.67691 F4800
G1 X62.250 Y106.500 E0.43903 F4800
; peri
G1 X62.2500 Y107.9000 E-0.09200 F4800
G1 E-1.150 F2400
G0 Z3.130 F600
; travel+unretract
G0 X62.6900 Y106.9400 F15000
G0 Z2.880 F600
G1 E1.150 F1800
G1 X162.310 Y106.940 E3.64471 F4800
G1 X162.310 Y118.060 E0.40684 F4800
G1 X62.690 Y118.060 E3.64471 F4800
G1 X62.690 Y106.940 E0.40684 F4800
; peri
G1 X62.6900 Y108.3400 E-0.09200 F4800
G1 E-1.150 F2400
G0 Z3.130 F600
; travel+unretract
G0 X63.1300 Y107.3800 F15000
G0 Z2.880 F600
G1 E1.150 F1800
G1 X161.870 Y107.380 E3.61252 F4800
G1 X161.870 Y117.620 E0.37464 F4800
G1 X63.130 Y117.620 E3.61252 F4800
G1 X63.130 Y107.380 E0.37464 F4800
; infill
G1 X63.1300 Y108.7800 E-0.09200 F4800
G1 E-1.150 F2400
G0 Z3.130 F600
; travel+unretract
G0 X63.5700 Y107.8200 F15000
G0 Z2.880 F600
G1 E1.150 F1800
G1 X161.430 Y107.820 E3.58032 F7200
; infill
G1 X160.0300 Y107.8200 E-0.09200 F4800
G1 E-1.150 F2400
G0 Z3.130 F600
; travel+unretract
G0 X63.5700 Y108.2600 F15000
G0 Z2.880 F600
G1 E1.150 F1800
G1 X161.430 Y108.260 E3.58032 F7200
; infill
G1 X160.0300 Y108.2600 E-0.09200 F4800
G1 E-1.150 F2400
G0 Z3.130 F600
; travel+unretract
G0 X63.5700 Y108.7000 F15000
G0 Z2.880 F600
G1 E1.150 F1800
G1 X161.430 Y108.700 E3.58032 F7200
; infill
G1 X160.0300 Y108.7000 E-0.09200 F4800
G1 E-1.150 F2400
G0 Z3.130 F600
; travel+unretract
G0 X63.5700 Y109.1400 F15000
G0 Z2.880 F600
G1 E1.150 F1800
G1 X161.430 Y109.140 E3.58032 F7200
; infill
G1 X160.0300 Y109.1400 E-0.09200 F4800
G1 E-1.150 F2400
G0 Z3.130 F600
; travel+unretract
G0 X63.5700 Y109.5800 F15000
G0 Z2.880 F600
G1 E1.150 F1800
G1 X161.430 Y109.580 E3.58032 F7200
; infill
G1 X160.0300 Y109.5800 E-0.09200 F4800
G1 E-1.150 F2400
G0 Z3.130 F600
; travel+unretract
G0 X63.5700 Y110.0200 F15000
G0 Z2.880 F600
G1 E1.150 F1800
G1 X161.430 Y110.020 E3.58032 F7200
; infill
G1 X160.0300 Y110.0200 E-0.09200 F4800
G1 E-1.150 F2400
G0 Z3.130 F600
; travel+unretract
G0 X63.5700 Y110.4600 F15000
G0 Z2.880 F600
G1 E1.150 F1800
G1 X161.430 Y110.460 E3.58032 F7200
; infill
G1 X160.0300 Y110.4600 E-0.09200 F4800
G1 E-1.150 F2400
G0 Z3.130 F600
; travel+unretract
G0 X63.5700 Y110.9000 F15000
G0 Z2.880 F600
G1 E1.150 F1800
G1 X161.430 Y110.900 E3.58032 F7200
; infill
G1 X160.0300 Y110.9000 E-0.09200 F4800
G1 E-1.150 F2400
G0 Z3.130 F600
; travel+unretract
G0 X63.5700 Y111.3400 F15000
G0 Z2.880 F600
G1 E1.150 F1800
G1 X161.430 Y111.340 E3.58032 F7200
; infill
G1 X160.0300 Y111.3400 E-0.09200 F4800
G1 E-1.150 F2400
G0 Z3.130 F600
; travel+unretract
G0 X63.5700 Y111.7800 F15000
G0 Z2.880 F600
G1 E1.150 F1800
G1 X161.430 Y111.780 E3.58032 F7200
; infill
G1 X160.0300 Y111.7800 E-0.09200 F4800
G1 E-1.150 F2400
G0 Z3.130 F600
; travel+unretract
G0 X63.5700 Y112.2200 F15000
G0 Z2.880 F600
G1 E1.150 F1800
G1 X161.430 Y112.220 E3.58032 F7200
; infill
G1 X160.0300 Y112.2200 E-0.09200 F4800
G1 E-1.150 F2400
G0 Z3.130 F600
; travel+unretract
G0 X63.5700 Y112.6600 F15000
G0 Z2.880 F600
G1 E1.150 F1800
G1 X161.430 Y112.660 E3.58032 F7200
; infill
G1 X160.0300 Y112.6600 E-0.09200 F4800
G1 E-1.150 F2400
G0 Z3.130 F600
; travel+unretract
G0 X63.5700 Y113.1000 F15000
G0 Z2.880 F600
G1 E1.150 F1800
G1 X161.430 Y113.100 E3.58032 F7200
; infill
G1 X160.0300 Y113.1000 E-0.09200 F4800
G1 E-1.150 F2400
G0 Z3.130 F600
; travel+unretract
G0 X63.5700 Y113.5400 F15000
G0 Z2.880 F600
G1 E1.150 F1800
G1 X161.430 Y113.540 E3.58032 F7200
; infill
G1 X160.0300 Y113.5400 E-0.09200 F4800
G1 E-1.150 F2400
G0 Z3.130 F600
; travel+unretract
G0 X63.5700 Y113.9800 F15000
G0 Z2.880 F600
G1 E1.150 F1800
G1 X161.430 Y113.980 E3.58032 F7200
; infill
G1 X160.0300 Y113.9800 E-0.09200 F4800
G1 E-1.150 F2400
G0 Z3.130 F600
; travel+unretract
G0 X63.5700 Y114.4200 F15000
G0 Z2.880 F600
G1 E1.150 F1800
G1 X161.430 Y114.420 E3.58032 F7200
; infill
G1 X160.0300 Y114.4200 E-0.09200 F4800
G1 E-1.150 F2400
G0 Z3.130 F600
; travel+unretract
G0 X63.5700 Y114.8600 F15000
G0 Z2.880 F600
G1 E1.150 F1800
G1 X161.430 Y114.860 E3.58032 F7200
; infill
G1 X160.0300 Y114.8600 E-0.09200 F4800
G1 E-1.150 F2400
G0 Z3.130 F600
; travel+unretract
G0 X63.5700 Y115.3000 F15000
G0 Z2.880 F600
G1 E1.150 F1800
G1 X161.430 Y115.300 E3.58032 F7200
; infill
G1 X160.0300 Y115.3000 E-0.09200 F4800
G1 E-1.150 F2400
G0 Z3.130 F600
; travel+unretract
G0 X63.5700 Y115.7400 F15000
G0 Z2.880 F600
G1 E1.150 F1800
G1 X161.430 Y115.740 E3.58032 F7200
; infill
G1 X160.0300 Y115.7400 E-0.09200 F4800
G1 E-1.150 F2400
G0 Z3.130 F600
; travel+unretract
G0 X63.5700 Y116.1800 F15000
G0 Z2.880 F600
G1 E1.150 F1800
G1 X161.430 Y116.180 E3.58032 F7200
; infill
G1 X160.0300 Y116.1800 E-0.09200 F4800
G1 E-1.150 F2400
G0 Z3.130 F600
; travel+unretract
G0 X63.5700 Y116.6200 F15000
G0 Z2.880 F600
G1 E1.150 F1800
G1 X161.430 Y116.620 E3.58032 F7200
; infill
G1 X160.0300 Y116.6200 E-0.09200 F4800
G1 E-1.150 F2400
G0 Z3.130 F600
; travel+unretract
G0 X63.5700 Y117.0600 F15000
G0 Z2.880 F600
G1 E1.150 F1800
G1 X161.430 Y117.060 E3.58032 F7200
; layer end
G1 X160.0300 Y117.0600 E-0.09200 F4800
G1 E-1.150 F2400
G0 Z3.130 F600
FORGE_FLAT_SURFACE_MODE ROLE=solid

;LAYER:14 Z=3.080 lw=0.44 flow=1.00 step=0.440 mono=True isp=7200
; layer start
G0 X62.2500 Y106.5000 F15000
G0 Z3.080 F600
G1 E1.150 F1800
G1 X162.750 Y106.500 E3.67691 F4800
G1 X162.750 Y118.500 E0.43903 F4800
G1 X62.250 Y118.500 E3.67691 F4800
G1 X62.250 Y106.500 E0.43903 F4800
; peri
G1 X62.2500 Y107.9000 E-0.09200 F4800
G1 E-1.150 F2400
G0 Z3.330 F600
; travel+unretract
G0 X62.6900 Y106.9400 F15000
G0 Z3.080 F600
G1 E1.150 F1800
G1 X162.310 Y106.940 E3.64471 F4800
G1 X162.310 Y118.060 E0.40684 F4800
G1 X62.690 Y118.060 E3.64471 F4800
G1 X62.690 Y106.940 E0.40684 F4800
; peri
G1 X62.6900 Y108.3400 E-0.09200 F4800
G1 E-1.150 F2400
G0 Z3.330 F600
; travel+unretract
G0 X63.1300 Y107.3800 F15000
G0 Z3.080 F600
G1 E1.150 F1800
G1 X161.870 Y107.380 E3.61252 F4800
G1 X161.870 Y117.620 E0.37464 F4800
G1 X63.130 Y117.620 E3.61252 F4800
G1 X63.130 Y107.380 E0.37464 F4800
; infill
G1 X63.1300 Y108.7800 E-0.09200 F4800
G1 E-1.150 F2400
G0 Z3.330 F600
; travel+unretract
G0 X63.5700 Y107.8200 F15000
G0 Z3.080 F600
G1 E1.150 F1800
G1 X161.430 Y107.820 E3.58032 F7200
; infill
G1 X160.0300 Y107.8200 E-0.09200 F4800
G1 E-1.150 F2400
G0 Z3.330 F600
; travel+unretract
G0 X63.5700 Y108.2600 F15000
G0 Z3.080 F600
G1 E1.150 F1800
G1 X161.430 Y108.260 E3.58032 F7200
; infill
G1 X160.0300 Y108.2600 E-0.09200 F4800
G1 E-1.150 F2400
G0 Z3.330 F600
; travel+unretract
G0 X63.5700 Y108.7000 F15000
G0 Z3.080 F600
G1 E1.150 F1800
G1 X161.430 Y108.700 E3.58032 F7200
; infill
G1 X160.0300 Y108.7000 E-0.09200 F4800
G1 E-1.150 F2400
G0 Z3.330 F600
; travel+unretract
G0 X63.5700 Y109.1400 F15000
G0 Z3.080 F600
G1 E1.150 F1800
G1 X161.430 Y109.140 E3.58032 F7200
; infill
G1 X160.0300 Y109.1400 E-0.09200 F4800
G1 E-1.150 F2400
G0 Z3.330 F600
; travel+unretract
G0 X63.5700 Y109.5800 F15000
G0 Z3.080 F600
G1 E1.150 F1800
G1 X161.430 Y109.580 E3.58032 F7200
; infill
G1 X160.0300 Y109.5800 E-0.09200 F4800
G1 E-1.150 F2400
G0 Z3.330 F600
; travel+unretract
G0 X63.5700 Y110.0200 F15000
G0 Z3.080 F600
G1 E1.150 F1800
G1 X161.430 Y110.020 E3.58032 F7200
; infill
G1 X160.0300 Y110.0200 E-0.09200 F4800
G1 E-1.150 F2400
G0 Z3.330 F600
; travel+unretract
G0 X63.5700 Y110.4600 F15000
G0 Z3.080 F600
G1 E1.150 F1800
G1 X161.430 Y110.460 E3.58032 F7200
; infill
G1 X160.0300 Y110.4600 E-0.09200 F4800
G1 E-1.150 F2400
G0 Z3.330 F600
; travel+unretract
G0 X63.5700 Y110.9000 F15000
G0 Z3.080 F600
G1 E1.150 F1800
G1 X161.430 Y110.900 E3.58032 F7200
; infill
G1 X160.0300 Y110.9000 E-0.09200 F4800
G1 E-1.150 F2400
G0 Z3.330 F600
; travel+unretract
G0 X63.5700 Y111.3400 F15000
G0 Z3.080 F600
G1 E1.150 F1800
G1 X161.430 Y111.340 E3.58032 F7200
; infill
G1 X160.0300 Y111.3400 E-0.09200 F4800
G1 E-1.150 F2400
G0 Z3.330 F600
; travel+unretract
G0 X63.5700 Y111.7800 F15000
G0 Z3.080 F600
G1 E1.150 F1800
G1 X161.430 Y111.780 E3.58032 F7200
; infill
G1 X160.0300 Y111.7800 E-0.09200 F4800
G1 E-1.150 F2400
G0 Z3.330 F600
; travel+unretract
G0 X63.5700 Y112.2200 F15000
G0 Z3.080 F600
G1 E1.150 F1800
G1 X161.430 Y112.220 E3.58032 F7200
; infill
G1 X160.0300 Y112.2200 E-0.09200 F4800
G1 E-1.150 F2400
G0 Z3.330 F600
; travel+unretract
G0 X63.5700 Y112.6600 F15000
G0 Z3.080 F600
G1 E1.150 F1800
G1 X161.430 Y112.660 E3.58032 F7200
; infill
G1 X160.0300 Y112.6600 E-0.09200 F4800
G1 E-1.150 F2400
G0 Z3.330 F600
; travel+unretract
G0 X63.5700 Y113.1000 F15000
G0 Z3.080 F600
G1 E1.150 F1800
G1 X161.430 Y113.100 E3.58032 F7200
; infill
G1 X160.0300 Y113.1000 E-0.09200 F4800
G1 E-1.150 F2400
G0 Z3.330 F600
; travel+unretract
G0 X63.5700 Y113.5400 F15000
G0 Z3.080 F600
G1 E1.150 F1800
G1 X161.430 Y113.540 E3.58032 F7200
; infill
G1 X160.0300 Y113.5400 E-0.09200 F4800
G1 E-1.150 F2400
G0 Z3.330 F600
; travel+unretract
G0 X63.5700 Y113.9800 F15000
G0 Z3.080 F600
G1 E1.150 F1800
G1 X161.430 Y113.980 E3.58032 F7200
; infill
G1 X160.0300 Y113.9800 E-0.09200 F4800
G1 E-1.150 F2400
G0 Z3.330 F600
; travel+unretract
G0 X63.5700 Y114.4200 F15000
G0 Z3.080 F600
G1 E1.150 F1800
G1 X161.430 Y114.420 E3.58032 F7200
; infill
G1 X160.0300 Y114.4200 E-0.09200 F4800
G1 E-1.150 F2400
G0 Z3.330 F600
; travel+unretract
G0 X63.5700 Y114.8600 F15000
G0 Z3.080 F600
G1 E1.150 F1800
G1 X161.430 Y114.860 E3.58032 F7200
; infill
G1 X160.0300 Y114.8600 E-0.09200 F4800
G1 E-1.150 F2400
G0 Z3.330 F600
; travel+unretract
G0 X63.5700 Y115.3000 F15000
G0 Z3.080 F600
G1 E1.150 F1800
G1 X161.430 Y115.300 E3.58032 F7200
; infill
G1 X160.0300 Y115.3000 E-0.09200 F4800
G1 E-1.150 F2400
G0 Z3.330 F600
; travel+unretract
G0 X63.5700 Y115.7400 F15000
G0 Z3.080 F600
G1 E1.150 F1800
G1 X161.430 Y115.740 E3.58032 F7200
; infill
G1 X160.0300 Y115.7400 E-0.09200 F4800
G1 E-1.150 F2400
G0 Z3.330 F600
; travel+unretract
G0 X63.5700 Y116.1800 F15000
G0 Z3.080 F600
G1 E1.150 F1800
G1 X161.430 Y116.180 E3.58032 F7200
; infill
G1 X160.0300 Y116.1800 E-0.09200 F4800
G1 E-1.150 F2400
G0 Z3.330 F600
; travel+unretract
G0 X63.5700 Y116.6200 F15000
G0 Z3.080 F600
G1 E1.150 F1800
G1 X161.430 Y116.620 E3.58032 F7200
; infill
G1 X160.0300 Y116.6200 E-0.09200 F4800
G1 E-1.150 F2400
G0 Z3.330 F600
; travel+unretract
G0 X63.5700 Y117.0600 F15000
G0 Z3.080 F600
G1 E1.150 F1800
G1 X161.430 Y117.060 E3.58032 F7200
; layer end
G1 X160.0300 Y117.0600 E-0.09200 F4800
G1 E-1.150 F2400
G0 Z3.330 F600
FORGE_FLAT_SURFACE_MODE ROLE=solid

;LAYER:15 Z=3.280 lw=0.44 flow=1.00 step=0.440 mono=True isp=7200
; layer start
G0 X62.2500 Y106.5000 F15000
G0 Z3.280 F600
G1 E1.150 F1800
G1 X162.750 Y106.500 E3.67691 F4800
G1 X162.750 Y118.500 E0.43903 F4800
G1 X62.250 Y118.500 E3.67691 F4800
G1 X62.250 Y106.500 E0.43903 F4800
; peri
G1 X62.2500 Y107.9000 E-0.09200 F4800
G1 E-1.150 F2400
G0 Z3.530 F600
; travel+unretract
G0 X62.6900 Y106.9400 F15000
G0 Z3.280 F600
G1 E1.150 F1800
G1 X162.310 Y106.940 E3.64471 F4800
G1 X162.310 Y118.060 E0.40684 F4800
G1 X62.690 Y118.060 E3.64471 F4800
G1 X62.690 Y106.940 E0.40684 F4800
; peri
G1 X62.6900 Y108.3400 E-0.09200 F4800
G1 E-1.150 F2400
G0 Z3.530 F600
; travel+unretract
G0 X63.1300 Y107.3800 F15000
G0 Z3.280 F600
G1 E1.150 F1800
G1 X161.870 Y107.380 E3.61252 F4800
G1 X161.870 Y117.620 E0.37464 F4800
G1 X63.130 Y117.620 E3.61252 F4800
G1 X63.130 Y107.380 E0.37464 F4800
; infill
G1 X63.1300 Y108.7800 E-0.09200 F4800
G1 E-1.150 F2400
G0 Z3.530 F600
; travel+unretract
G0 X63.5700 Y107.8200 F15000
G0 Z3.280 F600
G1 E1.150 F1800
G1 X161.430 Y107.820 E3.58032 F7200
; infill
G1 X160.0300 Y107.8200 E-0.09200 F4800
G1 E-1.150 F2400
G0 Z3.530 F600
; travel+unretract
G0 X63.5700 Y108.2600 F15000
G0 Z3.280 F600
G1 E1.150 F1800
G1 X161.430 Y108.260 E3.58032 F7200
; infill
G1 X160.0300 Y108.2600 E-0.09200 F4800
G1 E-1.150 F2400
G0 Z3.530 F600
; travel+unretract
G0 X63.5700 Y108.7000 F15000
G0 Z3.280 F600
G1 E1.150 F1800
G1 X161.430 Y108.700 E3.58032 F7200
; infill
G1 X160.0300 Y108.7000 E-0.09200 F4800
G1 E-1.150 F2400
G0 Z3.530 F600
; travel+unretract
G0 X63.5700 Y109.1400 F15000
G0 Z3.280 F600
G1 E1.150 F1800
G1 X161.430 Y109.140 E3.58032 F7200
; infill
G1 X160.0300 Y109.1400 E-0.09200 F4800
G1 E-1.150 F2400
G0 Z3.530 F600
; travel+unretract
G0 X63.5700 Y109.5800 F15000
G0 Z3.280 F600
G1 E1.150 F1800
G1 X161.430 Y109.580 E3.58032 F7200
; infill
G1 X160.0300 Y109.5800 E-0.09200 F4800
G1 E-1.150 F2400
G0 Z3.530 F600
; travel+unretract
G0 X63.5700 Y110.0200 F15000
G0 Z3.280 F600
G1 E1.150 F1800
G1 X161.430 Y110.020 E3.58032 F7200
; infill
G1 X160.0300 Y110.0200 E-0.09200 F4800
G1 E-1.150 F2400
G0 Z3.530 F600
; travel+unretract
G0 X63.5700 Y110.4600 F15000
G0 Z3.280 F600
G1 E1.150 F1800
G1 X161.430 Y110.460 E3.58032 F7200
; infill
G1 X160.0300 Y110.4600 E-0.09200 F4800
G1 E-1.150 F2400
G0 Z3.530 F600
; travel+unretract
G0 X63.5700 Y110.9000 F15000
G0 Z3.280 F600
G1 E1.150 F1800
G1 X161.430 Y110.900 E3.58032 F7200
; infill
G1 X160.0300 Y110.9000 E-0.09200 F4800
G1 E-1.150 F2400
G0 Z3.530 F600
; travel+unretract
G0 X63.5700 Y111.3400 F15000
G0 Z3.280 F600
G1 E1.150 F1800
G1 X161.430 Y111.340 E3.58032 F7200
; infill
G1 X160.0300 Y111.3400 E-0.09200 F4800
G1 E-1.150 F2400
G0 Z3.530 F600
; travel+unretract
G0 X63.5700 Y111.7800 F15000
G0 Z3.280 F600
G1 E1.150 F1800
G1 X161.430 Y111.780 E3.58032 F7200
; infill
G1 X160.0300 Y111.7800 E-0.09200 F4800
G1 E-1.150 F2400
G0 Z3.530 F600
; travel+unretract
G0 X63.5700 Y112.2200 F15000
G0 Z3.280 F600
G1 E1.150 F1800
G1 X161.430 Y112.220 E3.58032 F7200
; infill
G1 X160.0300 Y112.2200 E-0.09200 F4800
G1 E-1.150 F2400
G0 Z3.530 F600
; travel+unretract
G0 X63.5700 Y112.6600 F15000
G0 Z3.280 F600
G1 E1.150 F1800
G1 X161.430 Y112.660 E3.58032 F7200
; infill
G1 X160.0300 Y112.6600 E-0.09200 F4800
G1 E-1.150 F2400
G0 Z3.530 F600
; travel+unretract
G0 X63.5700 Y113.1000 F15000
G0 Z3.280 F600
G1 E1.150 F1800
G1 X161.430 Y113.100 E3.58032 F7200
; infill
G1 X160.0300 Y113.1000 E-0.09200 F4800
G1 E-1.150 F2400
G0 Z3.530 F600
; travel+unretract
G0 X63.5700 Y113.5400 F15000
G0 Z3.280 F600
G1 E1.150 F1800
G1 X161.430 Y113.540 E3.58032 F7200
; infill
G1 X160.0300 Y113.5400 E-0.09200 F4800
G1 E-1.150 F2400
G0 Z3.530 F600
; travel+unretract
G0 X63.5700 Y113.9800 F15000
G0 Z3.280 F600
G1 E1.150 F1800
G1 X161.430 Y113.980 E3.58032 F7200
; infill
G1 X160.0300 Y113.9800 E-0.09200 F4800
G1 E-1.150 F2400
G0 Z3.530 F600
; travel+unretract
G0 X63.5700 Y114.4200 F15000
G0 Z3.280 F600
G1 E1.150 F1800
G1 X161.430 Y114.420 E3.58032 F7200
; infill
G1 X160.0300 Y114.4200 E-0.09200 F4800
G1 E-1.150 F2400
G0 Z3.530 F600
; travel+unretract
G0 X63.5700 Y114.8600 F15000
G0 Z3.280 F600
G1 E1.150 F1800
G1 X161.430 Y114.860 E3.58032 F7200
; infill
G1 X160.0300 Y114.8600 E-0.09200 F4800
G1 E-1.150 F2400
G0 Z3.530 F600
; travel+unretract
G0 X63.5700 Y115.3000 F15000
G0 Z3.280 F600
G1 E1.150 F1800
G1 X161.430 Y115.300 E3.58032 F7200
; infill
G1 X160.0300 Y115.3000 E-0.09200 F4800
G1 E-1.150 F2400
G0 Z3.530 F600
; travel+unretract
G0 X63.5700 Y115.7400 F15000
G0 Z3.280 F600
G1 E1.150 F1800
G1 X161.430 Y115.740 E3.58032 F7200
; infill
G1 X160.0300 Y115.7400 E-0.09200 F4800
G1 E-1.150 F2400
G0 Z3.530 F600
; travel+unretract
G0 X63.5700 Y116.1800 F15000
G0 Z3.280 F600
G1 E1.150 F1800
G1 X161.430 Y116.180 E3.58032 F7200
; infill
G1 X160.0300 Y116.1800 E-0.09200 F4800
G1 E-1.150 F2400
G0 Z3.530 F600
; travel+unretract
G0 X63.5700 Y116.6200 F15000
G0 Z3.280 F600
G1 E1.150 F1800
G1 X161.430 Y116.620 E3.58032 F7200
; infill
G1 X160.0300 Y116.6200 E-0.09200 F4800
G1 E-1.150 F2400
G0 Z3.530 F600
; travel+unretract
G0 X63.5700 Y117.0600 F15000
G0 Z3.280 F600
G1 E1.150 F1800
G1 X161.430 Y117.060 E3.58032 F7200
; layer end
G1 X160.0300 Y117.0600 E-0.09200 F4800
G1 E-1.150 F2400
G0 Z3.530 F600
FORGE_FLAT_SURFACE_MODE ROLE=solid

;LAYER:16 Z=3.480 lw=0.44 flow=1.00 step=0.440 mono=True isp=7200
; layer start
G0 X62.2500 Y106.5000 F15000
G0 Z3.480 F600
G1 E1.150 F1800
G1 X162.750 Y106.500 E3.67691 F4800
G1 X162.750 Y118.500 E0.43903 F4800
G1 X62.250 Y118.500 E3.67691 F4800
G1 X62.250 Y106.500 E0.43903 F4800
; peri
G1 X62.2500 Y107.9000 E-0.09200 F4800
G1 E-1.150 F2400
G0 Z3.730 F600
; travel+unretract
G0 X62.6900 Y106.9400 F15000
G0 Z3.480 F600
G1 E1.150 F1800
G1 X162.310 Y106.940 E3.64471 F4800
G1 X162.310 Y118.060 E0.40684 F4800
G1 X62.690 Y118.060 E3.64471 F4800
G1 X62.690 Y106.940 E0.40684 F4800
; peri
G1 X62.6900 Y108.3400 E-0.09200 F4800
G1 E-1.150 F2400
G0 Z3.730 F600
; travel+unretract
G0 X63.1300 Y107.3800 F15000
G0 Z3.480 F600
G1 E1.150 F1800
G1 X161.870 Y107.380 E3.61252 F4800
G1 X161.870 Y117.620 E0.37464 F4800
G1 X63.130 Y117.620 E3.61252 F4800
G1 X63.130 Y107.380 E0.37464 F4800
; infill
G1 X63.1300 Y108.7800 E-0.09200 F4800
G1 E-1.150 F2400
G0 Z3.730 F600
; travel+unretract
G0 X63.5700 Y107.8200 F15000
G0 Z3.480 F600
G1 E1.150 F1800
G1 X161.430 Y107.820 E3.58032 F7200
; infill
G1 X160.0300 Y107.8200 E-0.09200 F4800
G1 E-1.150 F2400
G0 Z3.730 F600
; travel+unretract
G0 X63.5700 Y108.2600 F15000
G0 Z3.480 F600
G1 E1.150 F1800
G1 X161.430 Y108.260 E3.58032 F7200
; infill
G1 X160.0300 Y108.2600 E-0.09200 F4800
G1 E-1.150 F2400
G0 Z3.730 F600
; travel+unretract
G0 X63.5700 Y108.7000 F15000
G0 Z3.480 F600
G1 E1.150 F1800
G1 X161.430 Y108.700 E3.58032 F7200
; infill
G1 X160.0300 Y108.7000 E-0.09200 F4800
G1 E-1.150 F2400
G0 Z3.730 F600
; travel+unretract
G0 X63.5700 Y109.1400 F15000
G0 Z3.480 F600
G1 E1.150 F1800
G1 X161.430 Y109.140 E3.58032 F7200
; infill
G1 X160.0300 Y109.1400 E-0.09200 F4800
G1 E-1.150 F2400
G0 Z3.730 F600
; travel+unretract
G0 X63.5700 Y109.5800 F15000
G0 Z3.480 F600
G1 E1.150 F1800
G1 X161.430 Y109.580 E3.58032 F7200
; infill
G1 X160.0300 Y109.5800 E-0.09200 F4800
G1 E-1.150 F2400
G0 Z3.730 F600
; travel+unretract
G0 X63.5700 Y110.0200 F15000
G0 Z3.480 F600
G1 E1.150 F1800
G1 X161.430 Y110.020 E3.58032 F7200
; infill
G1 X160.0300 Y110.0200 E-0.09200 F4800
G1 E-1.150 F2400
G0 Z3.730 F600
; travel+unretract
G0 X63.5700 Y110.4600 F15000
G0 Z3.480 F600
G1 E1.150 F1800
G1 X161.430 Y110.460 E3.58032 F7200
; infill
G1 X160.0300 Y110.4600 E-0.09200 F4800
G1 E-1.150 F2400
G0 Z3.730 F600
; travel+unretract
G0 X63.5700 Y110.9000 F15000
G0 Z3.480 F600
G1 E1.150 F1800
G1 X161.430 Y110.900 E3.58032 F7200
; infill
G1 X160.0300 Y110.9000 E-0.09200 F4800
G1 E-1.150 F2400
G0 Z3.730 F600
; travel+unretract
G0 X63.5700 Y111.3400 F15000
G0 Z3.480 F600
G1 E1.150 F1800
G1 X161.430 Y111.340 E3.58032 F7200
; infill
G1 X160.0300 Y111.3400 E-0.09200 F4800
G1 E-1.150 F2400
G0 Z3.730 F600
; travel+unretract
G0 X63.5700 Y111.7800 F15000
G0 Z3.480 F600
G1 E1.150 F1800
G1 X161.430 Y111.780 E3.58032 F7200
; infill
G1 X160.0300 Y111.7800 E-0.09200 F4800
G1 E-1.150 F2400
G0 Z3.730 F600
; travel+unretract
G0 X63.5700 Y112.2200 F15000
G0 Z3.480 F600
G1 E1.150 F1800
G1 X161.430 Y112.220 E3.58032 F7200
; infill
G1 X160.0300 Y112.2200 E-0.09200 F4800
G1 E-1.150 F2400
G0 Z3.730 F600
; travel+unretract
G0 X63.5700 Y112.6600 F15000
G0 Z3.480 F600
G1 E1.150 F1800
G1 X161.430 Y112.660 E3.58032 F7200
; infill
G1 X160.0300 Y112.6600 E-0.09200 F4800
G1 E-1.150 F2400
G0 Z3.730 F600
; travel+unretract
G0 X63.5700 Y113.1000 F15000
G0 Z3.480 F600
G1 E1.150 F1800
G1 X161.430 Y113.100 E3.58032 F7200
; infill
G1 X160.0300 Y113.1000 E-0.09200 F4800
G1 E-1.150 F2400
G0 Z3.730 F600
; travel+unretract
G0 X63.5700 Y113.5400 F15000
G0 Z3.480 F600
G1 E1.150 F1800
G1 X161.430 Y113.540 E3.58032 F7200
; infill
G1 X160.0300 Y113.5400 E-0.09200 F4800
G1 E-1.150 F2400
G0 Z3.730 F600
; travel+unretract
G0 X63.5700 Y113.9800 F15000
G0 Z3.480 F600
G1 E1.150 F1800
G1 X161.430 Y113.980 E3.58032 F7200
; infill
G1 X160.0300 Y113.9800 E-0.09200 F4800
G1 E-1.150 F2400
G0 Z3.730 F600
; travel+unretract
G0 X63.5700 Y114.4200 F15000
G0 Z3.480 F600
G1 E1.150 F1800
G1 X161.430 Y114.420 E3.58032 F7200
; infill
G1 X160.0300 Y114.4200 E-0.09200 F4800
G1 E-1.150 F2400
G0 Z3.730 F600
; travel+unretract
G0 X63.5700 Y114.8600 F15000
G0 Z3.480 F600
G1 E1.150 F1800
G1 X161.430 Y114.860 E3.58032 F7200
; infill
G1 X160.0300 Y114.8600 E-0.09200 F4800
G1 E-1.150 F2400
G0 Z3.730 F600
; travel+unretract
G0 X63.5700 Y115.3000 F15000
G0 Z3.480 F600
G1 E1.150 F1800
G1 X161.430 Y115.300 E3.58032 F7200
; infill
G1 X160.0300 Y115.3000 E-0.09200 F4800
G1 E-1.150 F2400
G0 Z3.730 F600
; travel+unretract
G0 X63.5700 Y115.7400 F15000
G0 Z3.480 F600
G1 E1.150 F1800
G1 X161.430 Y115.740 E3.58032 F7200
; infill
G1 X160.0300 Y115.7400 E-0.09200 F4800
G1 E-1.150 F2400
G0 Z3.730 F600
; travel+unretract
G0 X63.5700 Y116.1800 F15000
G0 Z3.480 F600
G1 E1.150 F1800
G1 X161.430 Y116.180 E3.58032 F7200
; infill
G1 X160.0300 Y116.1800 E-0.09200 F4800
G1 E-1.150 F2400
G0 Z3.730 F600
; travel+unretract
G0 X63.5700 Y116.6200 F15000
G0 Z3.480 F600
G1 E1.150 F1800
G1 X161.430 Y116.620 E3.58032 F7200
; infill
G1 X160.0300 Y116.6200 E-0.09200 F4800
G1 E-1.150 F2400
G0 Z3.730 F600
; travel+unretract
G0 X63.5700 Y117.0600 F15000
G0 Z3.480 F600
G1 E1.150 F1800
G1 X161.430 Y117.060 E3.58032 F7200
; layer end
G1 X160.0300 Y117.0600 E-0.09200 F4800
G1 E-1.150 F2400
G0 Z3.730 F600
FORGE_FLAT_SURFACE_MODE ROLE=solid

;LAYER:17 Z=3.680 lw=0.44 flow=1.00 step=0.440 mono=True isp=7200
; layer start
G0 X62.2500 Y106.5000 F15000
G0 Z3.680 F600
G1 E1.150 F1800
G1 X162.750 Y106.500 E3.67691 F4800
G1 X162.750 Y118.500 E0.43903 F4800
G1 X62.250 Y118.500 E3.67691 F4800
G1 X62.250 Y106.500 E0.43903 F4800
; peri
G1 X62.2500 Y107.9000 E-0.09200 F4800
G1 E-1.150 F2400
G0 Z3.930 F600
; travel+unretract
G0 X62.6900 Y106.9400 F15000
G0 Z3.680 F600
G1 E1.150 F1800
G1 X162.310 Y106.940 E3.64471 F4800
G1 X162.310 Y118.060 E0.40684 F4800
G1 X62.690 Y118.060 E3.64471 F4800
G1 X62.690 Y106.940 E0.40684 F4800
; peri
G1 X62.6900 Y108.3400 E-0.09200 F4800
G1 E-1.150 F2400
G0 Z3.930 F600
; travel+unretract
G0 X63.1300 Y107.3800 F15000
G0 Z3.680 F600
G1 E1.150 F1800
G1 X161.870 Y107.380 E3.61252 F4800
G1 X161.870 Y117.620 E0.37464 F4800
G1 X63.130 Y117.620 E3.61252 F4800
G1 X63.130 Y107.380 E0.37464 F4800
; infill
G1 X63.1300 Y108.7800 E-0.09200 F4800
G1 E-1.150 F2400
G0 Z3.930 F600
; travel+unretract
G0 X63.5700 Y107.8200 F15000
G0 Z3.680 F600
G1 E1.150 F1800
G1 X161.430 Y107.820 E3.58032 F7200
; infill
G1 X160.0300 Y107.8200 E-0.09200 F4800
G1 E-1.150 F2400
G0 Z3.930 F600
; travel+unretract
G0 X63.5700 Y108.2600 F15000
G0 Z3.680 F600
G1 E1.150 F1800
G1 X161.430 Y108.260 E3.58032 F7200
; infill
G1 X160.0300 Y108.2600 E-0.09200 F4800
G1 E-1.150 F2400
G0 Z3.930 F600
; travel+unretract
G0 X63.5700 Y108.7000 F15000
G0 Z3.680 F600
G1 E1.150 F1800
G1 X161.430 Y108.700 E3.58032 F7200
; infill
G1 X160.0300 Y108.7000 E-0.09200 F4800
G1 E-1.150 F2400
G0 Z3.930 F600
; travel+unretract
G0 X63.5700 Y109.1400 F15000
G0 Z3.680 F600
G1 E1.150 F1800
G1 X161.430 Y109.140 E3.58032 F7200
; infill
G1 X160.0300 Y109.1400 E-0.09200 F4800
G1 E-1.150 F2400
G0 Z3.930 F600
; travel+unretract
G0 X63.5700 Y109.5800 F15000
G0 Z3.680 F600
G1 E1.150 F1800
G1 X161.430 Y109.580 E3.58032 F7200
; infill
G1 X160.0300 Y109.5800 E-0.09200 F4800
G1 E-1.150 F2400
G0 Z3.930 F600
; travel+unretract
G0 X63.5700 Y110.0200 F15000
G0 Z3.680 F600
G1 E1.150 F1800
G1 X161.430 Y110.020 E3.58032 F7200
; infill
G1 X160.0300 Y110.0200 E-0.09200 F4800
G1 E-1.150 F2400
G0 Z3.930 F600
; travel+unretract
G0 X63.5700 Y110.4600 F15000
G0 Z3.680 F600
G1 E1.150 F1800
G1 X161.430 Y110.460 E3.58032 F7200
; infill
G1 X160.0300 Y110.4600 E-0.09200 F4800
G1 E-1.150 F2400
G0 Z3.930 F600
; travel+unretract
G0 X63.5700 Y110.9000 F15000
G0 Z3.680 F600
G1 E1.150 F1800
G1 X161.430 Y110.900 E3.58032 F7200
; infill
G1 X160.0300 Y110.9000 E-0.09200 F4800
G1 E-1.150 F2400
G0 Z3.930 F600
; travel+unretract
G0 X63.5700 Y111.3400 F15000
G0 Z3.680 F600
G1 E1.150 F1800
G1 X161.430 Y111.340 E3.58032 F7200
; infill
G1 X160.0300 Y111.3400 E-0.09200 F4800
G1 E-1.150 F2400
G0 Z3.930 F600
; travel+unretract
G0 X63.5700 Y111.7800 F15000
G0 Z3.680 F600
G1 E1.150 F1800
G1 X161.430 Y111.780 E3.58032 F7200
; infill
G1 X160.0300 Y111.7800 E-0.09200 F4800
G1 E-1.150 F2400
G0 Z3.930 F600
; travel+unretract
G0 X63.5700 Y112.2200 F15000
G0 Z3.680 F600
G1 E1.150 F1800
G1 X161.430 Y112.220 E3.58032 F7200
; infill
G1 X160.0300 Y112.2200 E-0.09200 F4800
G1 E-1.150 F2400
G0 Z3.930 F600
; travel+unretract
G0 X63.5700 Y112.6600 F15000
G0 Z3.680 F600
G1 E1.150 F1800
G1 X161.430 Y112.660 E3.58032 F7200
; infill
G1 X160.0300 Y112.6600 E-0.09200 F4800
G1 E-1.150 F2400
G0 Z3.930 F600
; travel+unretract
G0 X63.5700 Y113.1000 F15000
G0 Z3.680 F600
G1 E1.150 F1800
G1 X161.430 Y113.100 E3.58032 F7200
; infill
G1 X160.0300 Y113.1000 E-0.09200 F4800
G1 E-1.150 F2400
G0 Z3.930 F600
; travel+unretract
G0 X63.5700 Y113.5400 F15000
G0 Z3.680 F600
G1 E1.150 F1800
G1 X161.430 Y113.540 E3.58032 F7200
; infill
G1 X160.0300 Y113.5400 E-0.09200 F4800
G1 E-1.150 F2400
G0 Z3.930 F600
; travel+unretract
G0 X63.5700 Y113.9800 F15000
G0 Z3.680 F600
G1 E1.150 F1800
G1 X161.430 Y113.980 E3.58032 F7200
; infill
G1 X160.0300 Y113.9800 E-0.09200 F4800
G1 E-1.150 F2400
G0 Z3.930 F600
; travel+unretract
G0 X63.5700 Y114.4200 F15000
G0 Z3.680 F600
G1 E1.150 F1800
G1 X161.430 Y114.420 E3.58032 F7200
; infill
G1 X160.0300 Y114.4200 E-0.09200 F4800
G1 E-1.150 F2400
G0 Z3.930 F600
; travel+unretract
G0 X63.5700 Y114.8600 F15000
G0 Z3.680 F600
G1 E1.150 F1800
G1 X161.430 Y114.860 E3.58032 F7200
; infill
G1 X160.0300 Y114.8600 E-0.09200 F4800
G1 E-1.150 F2400
G0 Z3.930 F600
; travel+unretract
G0 X63.5700 Y115.3000 F15000
G0 Z3.680 F600
G1 E1.150 F1800
G1 X161.430 Y115.300 E3.58032 F7200
; infill
G1 X160.0300 Y115.3000 E-0.09200 F4800
G1 E-1.150 F2400
G0 Z3.930 F600
; travel+unretract
G0 X63.5700 Y115.7400 F15000
G0 Z3.680 F600
G1 E1.150 F1800
G1 X161.430 Y115.740 E3.58032 F7200
; infill
G1 X160.0300 Y115.7400 E-0.09200 F4800
G1 E-1.150 F2400
G0 Z3.930 F600
; travel+unretract
G0 X63.5700 Y116.1800 F15000
G0 Z3.680 F600
G1 E1.150 F1800
G1 X161.430 Y116.180 E3.58032 F7200
; infill
G1 X160.0300 Y116.1800 E-0.09200 F4800
G1 E-1.150 F2400
G0 Z3.930 F600
; travel+unretract
G0 X63.5700 Y116.6200 F15000
G0 Z3.680 F600
G1 E1.150 F1800
G1 X161.430 Y116.620 E3.58032 F7200
; infill
G1 X160.0300 Y116.6200 E-0.09200 F4800
G1 E-1.150 F2400
G0 Z3.930 F600
; travel+unretract
G0 X63.5700 Y117.0600 F15000
G0 Z3.680 F600
G1 E1.150 F1800
G1 X161.430 Y117.060 E3.58032 F7200
; layer end
G1 X160.0300 Y117.0600 E-0.09200 F4800
G1 E-1.150 F2400
G0 Z3.930 F600
FORGE_FLAT_SURFACE_MODE ROLE=solid

;LAYER:18 Z=3.880 lw=0.44 flow=1.00 step=0.440 mono=True isp=7200
; layer start
G0 X62.2500 Y106.5000 F15000
G0 Z3.880 F600
G1 E1.150 F1800
G1 X162.750 Y106.500 E3.67691 F4800
G1 X162.750 Y118.500 E0.43903 F4800
G1 X62.250 Y118.500 E3.67691 F4800
G1 X62.250 Y106.500 E0.43903 F4800
; peri
G1 X62.2500 Y107.9000 E-0.09200 F4800
G1 E-1.150 F2400
G0 Z4.130 F600
; travel+unretract
G0 X62.6900 Y106.9400 F15000
G0 Z3.880 F600
G1 E1.150 F1800
G1 X162.310 Y106.940 E3.64471 F4800
G1 X162.310 Y118.060 E0.40684 F4800
G1 X62.690 Y118.060 E3.64471 F4800
G1 X62.690 Y106.940 E0.40684 F4800
; peri
G1 X62.6900 Y108.3400 E-0.09200 F4800
G1 E-1.150 F2400
G0 Z4.130 F600
; travel+unretract
G0 X63.1300 Y107.3800 F15000
G0 Z3.880 F600
G1 E1.150 F1800
G1 X161.870 Y107.380 E3.61252 F4800
G1 X161.870 Y117.620 E0.37464 F4800
G1 X63.130 Y117.620 E3.61252 F4800
G1 X63.130 Y107.380 E0.37464 F4800
; infill
G1 X63.1300 Y108.7800 E-0.09200 F4800
G1 E-1.150 F2400
G0 Z4.130 F600
; travel+unretract
G0 X63.5700 Y107.8200 F15000
G0 Z3.880 F600
G1 E1.150 F1800
G1 X161.430 Y107.820 E3.58032 F7200
; infill
G1 X160.0300 Y107.8200 E-0.09200 F4800
G1 E-1.150 F2400
G0 Z4.130 F600
; travel+unretract
G0 X63.5700 Y108.2600 F15000
G0 Z3.880 F600
G1 E1.150 F1800
G1 X161.430 Y108.260 E3.58032 F7200
; infill
G1 X160.0300 Y108.2600 E-0.09200 F4800
G1 E-1.150 F2400
G0 Z4.130 F600
; travel+unretract
G0 X63.5700 Y108.7000 F15000
G0 Z3.880 F600
G1 E1.150 F1800
G1 X161.430 Y108.700 E3.58032 F7200
; infill
G1 X160.0300 Y108.7000 E-0.09200 F4800
G1 E-1.150 F2400
G0 Z4.130 F600
; travel+unretract
G0 X63.5700 Y109.1400 F15000
G0 Z3.880 F600
G1 E1.150 F1800
G1 X161.430 Y109.140 E3.58032 F7200
; infill
G1 X160.0300 Y109.1400 E-0.09200 F4800
G1 E-1.150 F2400
G0 Z4.130 F600
; travel+unretract
G0 X63.5700 Y109.5800 F15000
G0 Z3.880 F600
G1 E1.150 F1800
G1 X161.430 Y109.580 E3.58032 F7200
; infill
G1 X160.0300 Y109.5800 E-0.09200 F4800
G1 E-1.150 F2400
G0 Z4.130 F600
; travel+unretract
G0 X63.5700 Y110.0200 F15000
G0 Z3.880 F600
G1 E1.150 F1800
G1 X161.430 Y110.020 E3.58032 F7200
; infill
G1 X160.0300 Y110.0200 E-0.09200 F4800
G1 E-1.150 F2400
G0 Z4.130 F600
; travel+unretract
G0 X63.5700 Y110.4600 F15000
G0 Z3.880 F600
G1 E1.150 F1800
G1 X161.430 Y110.460 E3.58032 F7200
; infill
G1 X160.0300 Y110.4600 E-0.09200 F4800
G1 E-1.150 F2400
G0 Z4.130 F600
; travel+unretract
G0 X63.5700 Y110.9000 F15000
G0 Z3.880 F600
G1 E1.150 F1800
G1 X161.430 Y110.900 E3.58032 F7200
; infill
G1 X160.0300 Y110.9000 E-0.09200 F4800
G1 E-1.150 F2400
G0 Z4.130 F600
; travel+unretract
G0 X63.5700 Y111.3400 F15000
G0 Z3.880 F600
G1 E1.150 F1800
G1 X161.430 Y111.340 E3.58032 F7200
; infill
G1 X160.0300 Y111.3400 E-0.09200 F4800
G1 E-1.150 F2400
G0 Z4.130 F600
; travel+unretract
G0 X63.5700 Y111.7800 F15000
G0 Z3.880 F600
G1 E1.150 F1800
